(G-CODE GENERATED BY FLATCAM v8.994 - www.flatcam.org - Version Date: 2020/11/7)

(Name: voltage_cuttoff_1s_minimal_parts-F_Cu.gbr_iso_combined_cnc)
(Type: G-code from Geometry)
(Units: MM)

(Created on Monday, 03 January 2022 at 18:07)

(This preprocessor is the default preprocessor used by FlatCAM.)
(It is made to work with MACH3 compatible motion controllers.)

(TOOL DIAMETER: 0.39 mm)
(Feedrate_XY: 150.0 mm/min)
(Feedrate_Z: 60.0 mm/min)
(Feedrate rapids 1500.0 mm/min)

(Z_Cut: -0.045 mm)
(Z_Move: 1.0 mm)
(Z Start: None mm)
(Z End: 15.0 mm)
(X,Y End: 0.0000, 0.0000 mm)
(Steps per circle: 64)
(Preprocessor Geometry: mattwach)

(X range:    2.0015 ...   51.4840  mm)
(Y range:  -22.7100 ...   -2.3940  mm)

(Spindle Speed: 10000.0 RPM)
G21
G90
G94

G01 F150.00
(mattwach: Tool change disabled)
M03 S10000.0
G01 F150.00
G00 X5.1435 Y-4.0071
G01 F60.00
G01 Z-0.0450
G01 F150.00
G01 X5.1627 Y-4.0327
G01 X5.1627 Y-5.4121
G01 X5.1442 Y-5.4232
G01 X5.1363 Y-5.4285
G01 X5.0842 Y-5.4671
G01 X5.0730 Y-5.4760
G01 X5.0181 Y-5.5261
G01 X4.9680 Y-5.5810
G01 X4.9591 Y-5.5922
G01 X4.9233 Y-5.6404
G01 X4.9127 Y-5.6563
G01 X4.8772 Y-5.7161
G01 X4.8452 Y-5.7832
G01 X4.8399 Y-5.7965
G01 X4.8197 Y-5.8529
G01 X4.8142 Y-5.8713
G01 X4.7975 Y-5.9388
G01 X4.7859 Y-6.0170
G01 X4.7820 Y-6.0960
G01 X4.7852 Y-6.1655
G01 X4.7871 Y-6.1845
G01 X4.7975 Y-6.2532
G01 X4.8167 Y-6.3300
G01 X4.8434 Y-6.4044
G01 X4.8772 Y-6.4759
G01 X4.9178 Y-6.5438
G01 X4.9650 Y-6.6073
G01 X5.0181 Y-6.6659
G01 X5.0767 Y-6.7190
G01 X5.1402 Y-6.7662
G01 X5.2081 Y-6.8068
G01 X5.2796 Y-6.8406
G01 X5.3540 Y-6.8673
G01 X5.4308 Y-6.8865
G01 X5.5090 Y-6.8981
G01 X5.5880 Y-6.9020
G01 X5.6670 Y-6.8981
G01 X5.7452 Y-6.8865
G01 X5.8220 Y-6.8673
G01 X5.8875 Y-6.8441
G01 X5.9052 Y-6.8368
G01 X5.9594 Y-6.8111
G01 X5.9763 Y-6.8021
G01 X6.0358 Y-6.7662
G01 X6.0993 Y-6.7190
G01 X6.1579 Y-6.6659
G01 X6.2080 Y-6.6110
G01 X6.2169 Y-6.5998
G01 X6.2582 Y-6.5438
G01 X6.2941 Y-6.4843
G01 X6.3010 Y-6.4717
G01 X6.3288 Y-6.4132
G01 X6.3344 Y-6.4000
G01 X6.3578 Y-6.3345
G01 X6.3606 Y-6.3254
G01 X6.3675 Y-6.2983
G01 X6.3954 Y-6.2671
G01 X6.4334 Y-6.2162
G01 X6.4412 Y-6.2042
G01 X6.4664 Y-6.1621
G01 X6.4734 Y-6.1495
G01 X6.5003 Y-6.0921
G01 X6.5203 Y-6.0369
G01 X6.5259 Y-6.0186
G01 X6.5378 Y-5.9710
G01 X6.5408 Y-5.9569
G01 X6.5499 Y-5.8941
G01 X6.5533 Y-5.8260
G01 X6.5533 Y-4.0327
G01 X6.5780 Y-3.9992
G01 X6.5957 Y-3.9701
G01 X6.6027 Y-3.9575
G01 X6.6191 Y-3.9223
G01 X6.6338 Y-3.8812
G01 X6.6424 Y-3.8482
G01 X6.6461 Y-3.8294
G01 X6.6503 Y-3.8004
G01 X6.6513 Y-3.7909
G01 X6.6530 Y-3.7520
G01 X6.6530 Y-2.8520
G01 X6.6509 Y-2.8084
G01 X6.6444 Y-2.7652
G01 X6.6338 Y-2.7228
G01 X6.6191 Y-2.6817
G01 X6.6005 Y-2.6422
G01 X6.5780 Y-2.6048
G01 X6.5520 Y-2.5697
G01 X6.5293 Y-2.5443
G01 X6.5192 Y-2.5340
G01 X6.4903 Y-2.5080
G01 X6.4592 Y-2.4847
G01 X6.4512 Y-2.4794
G01 X6.4261 Y-2.4643
G01 X6.4092 Y-2.4552
G01 X6.3783 Y-2.4409
G01 X6.3372 Y-2.4262
G01 X6.2948 Y-2.4156
G01 X6.2564 Y-2.4097
G01 X6.2421 Y-2.4084
G01 X6.2080 Y-2.4070
G01 X5.5080 Y-2.4070
G01 X5.4644 Y-2.4091
G01 X5.4212 Y-2.4156
G01 X5.3788 Y-2.4262
G01 X5.3377 Y-2.4409
G01 X5.2982 Y-2.4595
G01 X5.2608 Y-2.4820
G01 X5.2257 Y-2.5080
G01 X5.2003 Y-2.5307
G01 X5.1900 Y-2.5408
G01 X5.1640 Y-2.5697
G01 X5.1380 Y-2.6048
G01 X5.1155 Y-2.6422
G01 X5.0969 Y-2.6817
G01 X5.0822 Y-2.7228
G01 X5.0716 Y-2.7652
G01 X5.0651 Y-2.8084
G01 X5.0631 Y-2.8472
G01 X5.0630 Y-3.7520
G01 X5.0647 Y-3.7909
G01 X5.0663 Y-3.8051
G01 X5.0707 Y-3.8341
G01 X5.0725 Y-3.8435
G01 X5.0822 Y-3.8812
G01 X5.0934 Y-3.9134
G01 X5.0988 Y-3.9267
G01 X5.1155 Y-3.9618
G01 X5.1354 Y-3.9952
G01 X5.1435 Y-4.0071
G00 Z1.0000
G00 X7.1435 Y-4.0071
G01 F60.00
G01 Z-0.0450
G01 F150.00
G01 X7.1630 Y-4.0330
G01 X7.1661 Y-4.0921
G01 X7.1761 Y-4.1596
G01 X7.1927 Y-4.2258
G01 X7.2122 Y-4.2811
G01 X7.2176 Y-4.2945
G01 X7.2448 Y-4.3517
G01 X7.2799 Y-4.4103
G01 X7.3206 Y-4.4651
G01 X7.3630 Y-4.5122
G01 X13.7385 Y-10.8877
G01 X13.7371 Y-10.9172
G01 X13.7371 Y-10.9268
G01 X13.7414 Y-11.0148
G01 X13.7430 Y-11.0290
G01 X13.7552 Y-11.1114
G01 X13.7582 Y-11.1255
G01 X13.7798 Y-11.2108
G01 X13.8110 Y-11.2983
G01 X13.8166 Y-11.3115
G01 X13.8545 Y-11.3910
G01 X13.9047 Y-11.4748
G01 X13.9629 Y-11.5532
G01 X14.0218 Y-11.6186
G01 X14.0354 Y-11.6322
G01 X14.1008 Y-11.6911
G01 X14.1792 Y-11.7493
G01 X14.2630 Y-11.7995
G01 X14.3512 Y-11.8413
G01 X14.4432 Y-11.8742
G01 X14.5379 Y-11.8979
G01 X14.6345 Y-11.9122
G01 X14.7320 Y-11.9170
G01 X14.8295 Y-11.9122
G01 X14.9261 Y-11.8979
G01 X15.0208 Y-11.8742
G01 X15.1128 Y-11.8413
G01 X15.2010 Y-11.7995
G01 X15.2848 Y-11.7493
G01 X15.3632 Y-11.6911
G01 X15.4286 Y-11.6322
G01 X15.4422 Y-11.6186
G01 X15.5011 Y-11.5532
G01 X15.5593 Y-11.4748
G01 X15.6095 Y-11.3910
G01 X15.6513 Y-11.3028
G01 X15.6842 Y-11.2108
G01 X15.7079 Y-11.1161
G01 X15.7222 Y-11.0195
G01 X15.7268 Y-10.9316
G01 X15.7268 Y-10.9124
G01 X15.7229 Y-10.8340
G01 X15.7210 Y-10.8150
G01 X15.7079 Y-10.7279
G01 X15.6867 Y-10.6424
G01 X15.6812 Y-10.6241
G01 X15.6513 Y-10.5412
G01 X15.6095 Y-10.4530
G01 X15.5593 Y-10.3692
G01 X15.5041 Y-10.2945
G01 X15.4949 Y-10.2835
G01 X15.4356 Y-10.2184
G01 X15.3632 Y-10.1529
G01 X15.2848 Y-10.0947
G01 X15.2094 Y-10.0492
G01 X15.1925 Y-10.0402
G01 X15.1128 Y-10.0027
G01 X15.0299 Y-9.9728
G01 X15.0116 Y-9.9673
G01 X14.9355 Y-9.9482
G01 X14.9167 Y-9.9445
G01 X14.8295 Y-9.9318
G01 X14.7446 Y-9.9274
G01 X8.6462 Y-3.8289
G01 X8.6509 Y-3.7956
G01 X8.6530 Y-3.7520
G01 X8.6530 Y-2.8520
G01 X8.6509 Y-2.8084
G01 X8.6444 Y-2.7652
G01 X8.6338 Y-2.7228
G01 X8.6191 Y-2.6817
G01 X8.6048 Y-2.6508
G01 X8.5981 Y-2.6380
G01 X8.5831 Y-2.6129
G01 X8.5725 Y-2.5969
G01 X8.5550 Y-2.5734
G01 X8.5489 Y-2.5660
G01 X8.5260 Y-2.5408
G01 X8.5157 Y-2.5307
G01 X8.4903 Y-2.5080
G01 X8.4552 Y-2.4820
G01 X8.4178 Y-2.4595
G01 X8.3870 Y-2.4448
G01 X8.3694 Y-2.4374
G01 X8.3417 Y-2.4276
G01 X8.3326 Y-2.4248
G01 X8.2948 Y-2.4156
G01 X8.2564 Y-2.4097
G01 X8.2421 Y-2.4084
G01 X8.2080 Y-2.4070
G01 X7.5080 Y-2.4070
G01 X7.4644 Y-2.4091
G01 X7.4212 Y-2.4156
G01 X7.3788 Y-2.4262
G01 X7.3377 Y-2.4409
G01 X7.2982 Y-2.4595
G01 X7.2608 Y-2.4820
G01 X7.2257 Y-2.5080
G01 X7.2003 Y-2.5307
G01 X7.1900 Y-2.5408
G01 X7.1640 Y-2.5697
G01 X7.1380 Y-2.6048
G01 X7.1155 Y-2.6422
G01 X7.0969 Y-2.6817
G01 X7.0822 Y-2.7228
G01 X7.0716 Y-2.7652
G01 X7.0651 Y-2.8084
G01 X7.0631 Y-2.8472
G01 X7.0630 Y-3.7520
G01 X7.0647 Y-3.7909
G01 X7.0663 Y-3.8051
G01 X7.0707 Y-3.8341
G01 X7.0725 Y-3.8435
G01 X7.0822 Y-3.8812
G01 X7.0934 Y-3.9134
G01 X7.0988 Y-3.9267
G01 X7.1155 Y-3.9618
G01 X7.1354 Y-3.9952
G01 X7.1435 Y-4.0071
G00 Z1.0000
G00 X7.1658 Y-2.5486
G01 F60.00
G01 Z-0.0450
G01 F150.00
G01 X7.1727 Y-2.5420
G01 X7.1802 Y-2.5341
G01 X7.2547 Y-2.4730
G01 X7.3335 Y-2.4308
G01 X7.4191 Y-2.4049
G01 X7.5299 Y-2.3940
G01 X8.1861 Y-2.3940
G01 X8.2969 Y-2.4049
G01 X8.3825 Y-2.4308
G01 X8.4613 Y-2.4730
G01 X8.5303 Y-2.5297
G01 X8.5870 Y-2.5987
G01 X8.6292 Y-2.6775
G01 X8.6551 Y-2.7631
G01 X8.6660 Y-2.8739
G01 X8.6660 Y-3.6508
G01 X8.6682 Y-3.6944
G01 X8.6737 Y-3.7329
G01 X8.6767 Y-3.7470
G01 X8.6852 Y-3.7800
G01 X8.6999 Y-3.8211
G01 X8.7164 Y-3.8564
G01 X8.7233 Y-3.8690
G01 X8.7410 Y-3.8981
G01 X8.7641 Y-3.9295
G01 X8.7733 Y-3.9404
G01 X8.7964 Y-3.9656
G01 X12.9695 Y-8.1387
G01 X13.0013 Y-8.1675
G01 X13.0357 Y-8.1932
G01 X13.0683 Y-8.2131
G01 X13.0808 Y-8.2197
G01 X13.1111 Y-8.2340
G01 X13.1514 Y-8.2488
G01 X13.1929 Y-8.2596
G01 X13.2259 Y-8.2651
G01 X13.2399 Y-8.2668
G01 X13.2781 Y-8.2690
G01 X13.3209 Y-8.2676
G01 X13.3542 Y-8.2634
G01 X13.3681 Y-8.2611
G01 X13.4053 Y-8.2523
G01 X13.4460 Y-8.2387
G01 X13.4767 Y-8.2252
G01 X13.4934 Y-8.2167
G01 X13.5185 Y-8.2025
G01 X13.5264 Y-8.1974
G01 X13.5576 Y-8.1753
G01 X13.5901 Y-8.1474
G01 X13.6198 Y-8.1164
G01 X13.6464 Y-8.0828
G01 X13.6697 Y-8.0467
G01 X13.6893 Y-8.0086
G01 X13.7036 Y-7.9731
G01 X13.7221 Y-7.9196
G01 X13.8317 Y-7.7314
G01 X13.9759 Y-7.5683
G01 X14.1492 Y-7.4364
G01 X14.2829 Y-7.3712
G01 X14.2829 Y-7.4948
G01 X14.2672 Y-7.5023
G01 X14.2588 Y-7.5068
G01 X14.1873 Y-7.5496
G01 X14.1753 Y-7.5574
G01 X14.1008 Y-7.6129
G01 X14.0319 Y-7.6751
G01 X14.0218 Y-7.6854
G01 X13.9691 Y-7.7435
G01 X13.9570 Y-7.7583
G01 X13.9047 Y-7.8292
G01 X13.8592 Y-7.9046
G01 X13.8502 Y-7.9215
G01 X13.8127 Y-8.0012
G01 X13.7798 Y-8.0932
G01 X13.7561 Y-8.1879
G01 X13.7430 Y-8.2750
G01 X13.7411 Y-8.2940
G01 X13.7370 Y-8.3820
G01 X13.7411 Y-8.4700
G01 X13.7430 Y-8.4890
G01 X13.7545 Y-8.5667
G01 X13.7582 Y-8.5855
G01 X13.7798 Y-8.6708
G01 X13.8093 Y-8.7538
G01 X13.8166 Y-8.7715
G01 X13.8545 Y-8.8510
G01 X13.8996 Y-8.9267
G01 X13.9102 Y-8.9426
G01 X13.9629 Y-9.0132
G01 X14.0218 Y-9.0786
G01 X14.0354 Y-9.0922
G01 X14.1008 Y-9.1511
G01 X14.1714 Y-9.2038
G01 X14.1873 Y-9.2144
G01 X14.2630 Y-9.2595
G01 X14.3512 Y-9.3013
G01 X14.4432 Y-9.3342
G01 X14.5379 Y-9.3579
G01 X14.6345 Y-9.3722
G01 X14.7320 Y-9.3770
G01 X14.8295 Y-9.3722
G01 X14.9167 Y-9.3595
G01 X14.9308 Y-9.3569
G01 X15.0116 Y-9.3367
G01 X15.0299 Y-9.3312
G01 X15.1128 Y-9.3013
G01 X15.1925 Y-9.2638
G01 X15.2094 Y-9.2548
G01 X15.2848 Y-9.2093
G01 X15.3595 Y-9.1541
G01 X15.3705 Y-9.1449
G01 X15.4356 Y-9.0856
G01 X15.5011 Y-9.0132
G01 X15.5538 Y-8.9426
G01 X15.5619 Y-8.9308
G01 X15.6072 Y-8.8552
G01 X15.6117 Y-8.8468
G01 X15.6192 Y-8.8311
G01 X15.7465 Y-8.8311
G01 X15.7419 Y-8.8444
G01 X15.6323 Y-9.0326
G01 X15.4881 Y-9.1957
G01 X15.3082 Y-9.3325
G01 X15.2933 Y-9.3419
G01 X15.2687 Y-9.3589
G01 X15.2610 Y-9.3648
G01 X15.2345 Y-9.3873
G01 X15.2240 Y-9.3974
G01 X15.2001 Y-9.4226
G01 X15.1784 Y-9.4497
G01 X15.1698 Y-9.4615
G01 X15.1487 Y-9.4950
G01 X15.1307 Y-9.5303
G01 X15.1250 Y-9.5437
G01 X15.1127 Y-9.5762
G01 X15.1021 Y-9.6144
G01 X15.0991 Y-9.6287
G01 X15.0942 Y-9.6581
G01 X15.0931 Y-9.6678
G01 X15.0906 Y-9.7073
G01 X15.0920 Y-9.7517
G01 X15.0979 Y-9.7958
G01 X15.1056 Y-9.8296
G01 X15.1095 Y-9.8437
G01 X15.1192 Y-9.8720
G01 X15.1265 Y-9.8900
G01 X15.1390 Y-9.9171
G01 X15.1436 Y-9.9257
G01 X15.1587 Y-9.9515
G01 X15.1665 Y-9.9638
G01 X15.1841 Y-9.9879
G01 X15.1932 Y-9.9994
G01 X15.2164 Y-10.0252
G01 X15.2268 Y-10.0355
G01 X15.2526 Y-10.0587
G01 X15.2804 Y-10.0796
G01 X15.3726 Y-10.1415
G01 X15.5125 Y-10.2814
G01 X15.6225 Y-10.4460
G01 X15.6983 Y-10.6289
G01 X15.7369 Y-10.8230
G01 X15.7369 Y-11.0210
G01 X15.6983 Y-11.2151
G01 X15.6225 Y-11.3980
G01 X15.5125 Y-11.5626
G01 X15.3726 Y-11.7025
G01 X15.1939 Y-11.8219
G01 X15.1664 Y-11.8420
G01 X15.1552 Y-11.8510
G01 X15.1265 Y-11.8772
G01 X15.0972 Y-11.9096
G01 X15.0711 Y-11.9447
G01 X15.0534 Y-11.9738
G01 X15.0465 Y-11.9864
G01 X15.0300 Y-12.0217
G01 X15.0167 Y-12.0582
G01 X15.0127 Y-12.0720
G01 X15.0047 Y-12.1052
G01 X14.9988 Y-12.1436
G01 X14.9976 Y-12.1579
G01 X14.9961 Y-12.1920
G01 X14.9978 Y-12.2309
G01 X14.9994 Y-12.2451
G01 X15.0038 Y-12.2741
G01 X15.0057 Y-12.2835
G01 X15.0127 Y-12.3120
G01 X15.0167 Y-12.3258
G01 X15.0282 Y-12.3579
G01 X15.0319 Y-12.3667
G01 X15.0444 Y-12.3933
G01 X15.0534 Y-12.4102
G01 X15.0685 Y-12.4353
G01 X15.0766 Y-12.4471
G01 X15.0972 Y-12.4744
G01 X15.1231 Y-12.5033
G01 X15.1299 Y-12.5101
G01 X15.1516 Y-12.5298
G01 X15.1626 Y-12.5391
G01 X15.1939 Y-12.5621
G01 X15.3726 Y-12.6815
G01 X15.5125 Y-12.8214
G01 X15.6225 Y-12.9860
G01 X15.6983 Y-13.1689
G01 X15.7369 Y-13.3630
G01 X15.7369 Y-13.5610
G01 X15.6983 Y-13.7551
G01 X15.6225 Y-13.9380
G01 X15.5125 Y-14.1026
G01 X15.3629 Y-14.2522
G01 X15.3398 Y-14.2773
G01 X15.3306 Y-14.2883
G01 X15.3076 Y-14.3196
G01 X15.2851 Y-14.3571
G01 X15.2664 Y-14.3966
G01 X15.2547 Y-14.4286
G01 X15.2504 Y-14.4423
G01 X15.2411 Y-14.4801
G01 X15.2347 Y-14.5233
G01 X15.2328 Y-14.5574
G01 X15.2326 Y-14.5717
G01 X15.2347 Y-14.6106
G01 X15.2411 Y-14.6538
G01 X15.2492 Y-14.6869
G01 X15.2547 Y-14.7052
G01 X15.2647 Y-14.7328
G01 X15.2703 Y-14.7460
G01 X15.2851 Y-14.7768
G01 X15.3076 Y-14.8142
G01 X15.3336 Y-14.8493
G01 X15.3563 Y-14.8748
G01 X15.3698 Y-14.8883
G01 X15.3916 Y-14.9079
G01 X15.3990 Y-14.9140
G01 X15.4304 Y-14.9370
G01 X15.4636 Y-14.9572
G01 X15.4721 Y-14.9617
G01 X15.4986 Y-14.9743
G01 X15.5163 Y-14.9816
G01 X15.5439 Y-14.9915
G01 X15.6108 Y-15.0118
G01 X15.6464 Y-15.0308
G01 X15.6776 Y-15.0564
G01 X15.7032 Y-15.0876
G01 X15.7222 Y-15.1232
G01 X15.7339 Y-15.1619
G01 X15.7402 Y-15.2042
G01 X15.7495 Y-15.2420
G01 X15.7539 Y-15.2557
G01 X15.7638 Y-15.2833
G01 X15.7675 Y-15.2921
G01 X15.7842 Y-15.3272
G01 X15.8016 Y-15.3566
G01 X15.8094 Y-15.3686
G01 X15.8327 Y-15.3998
G01 X15.8621 Y-15.4321
G01 X15.8944 Y-15.4615
G01 X15.9295 Y-15.4875
G01 X15.9587 Y-15.5052
G01 X15.9755 Y-15.5143
G01 X16.0021 Y-15.5267
G01 X16.0154 Y-15.5321
G01 X16.0476 Y-15.5433
G01 X16.0900 Y-15.5540
G01 X16.1332 Y-15.5604
G01 X16.1768 Y-15.5625
G01 X16.2204 Y-15.5604
G01 X16.2637 Y-15.5540
G01 X16.3060 Y-15.5433
G01 X16.3472 Y-15.5286
G01 X16.3866 Y-15.5099
G01 X16.4160 Y-15.4926
G01 X16.4281 Y-15.4848
G01 X16.4592 Y-15.4615
G01 X16.4916 Y-15.4321
G01 X16.5209 Y-15.3998
G01 X16.5414 Y-15.3725
G01 X16.5495 Y-15.3607
G01 X16.5694 Y-15.3272
G01 X16.5842 Y-15.2965
G01 X16.5898 Y-15.2833
G01 X16.6013 Y-15.2512
G01 X16.6300 Y-15.1567
G01 X16.6591 Y-15.1023
G01 X16.6982 Y-15.0547
G01 X16.7458 Y-15.0156
G01 X16.8002 Y-14.9865
G01 X16.8592 Y-14.9687
G01 X16.9403 Y-14.9607
G01 X17.0589 Y-14.9618
G01 X17.0589 Y-15.0965
G01 X17.0368 Y-15.1026
G01 X17.0046 Y-15.1141
G01 X16.9958 Y-15.1178
G01 X16.9693 Y-15.1302
G01 X16.9565 Y-15.1369
G01 X16.9273 Y-15.1544
G01 X16.9154 Y-15.1625
G01 X16.8882 Y-15.1830
G01 X16.8593 Y-15.2090
G01 X16.8525 Y-15.2158
G01 X16.8328 Y-15.2374
G01 X16.8235 Y-15.2484
G01 X16.8005 Y-15.2798
G01 X16.7828 Y-15.3089
G01 X16.7758 Y-15.3215
G01 X16.7594 Y-15.3567
G01 X16.7477 Y-15.3887
G01 X16.7433 Y-15.4024
G01 X16.7341 Y-15.4402
G01 X16.7288 Y-15.4739
G01 X16.7272 Y-15.4882
G01 X16.7256 Y-15.5222
G01 X16.7255 Y-16.4770
G01 X16.7269 Y-16.5111
G01 X16.7280 Y-16.5238
G01 X16.5713 Y-16.6805
G01 X16.5671 Y-16.6726
G01 X16.5520 Y-16.6474
G01 X16.5414 Y-16.6315
G01 X16.5209 Y-16.6042
G01 X16.4916 Y-16.5719
G01 X16.4592 Y-16.5425
G01 X16.4319 Y-16.5220
G01 X16.4201 Y-16.5139
G01 X16.3866 Y-16.4941
G01 X16.3472 Y-16.4754
G01 X16.3151 Y-16.4637
G01 X16.3014 Y-16.4593
G01 X16.2637 Y-16.4500
G01 X16.2204 Y-16.4436
G01 X16.1864 Y-16.4417
G01 X16.1720 Y-16.4416
G01 X16.1332 Y-16.4436
G01 X16.0900 Y-16.4500
G01 X16.0476 Y-16.4607
G01 X16.0065 Y-16.4754
G01 X15.9755 Y-16.4897
G01 X15.9587 Y-16.4988
G01 X15.9335 Y-16.5139
G01 X15.9217 Y-16.5220
G01 X15.8944 Y-16.5425
G01 X15.8621 Y-16.5719
G01 X15.8327 Y-16.6042
G01 X15.8067 Y-16.6393
G01 X15.7842 Y-16.6768
G01 X15.7694 Y-16.7075
G01 X15.7621 Y-16.7252
G01 X15.7523 Y-16.7528
G01 X15.7495 Y-16.7620
G01 X15.7402 Y-16.7998
G01 X15.7339 Y-16.8421
G01 X15.7222 Y-16.8808
G01 X15.7032 Y-16.9164
G01 X15.6776 Y-16.9476
G01 X15.6464 Y-16.9732
G01 X15.6108 Y-16.9922
G01 X15.5722 Y-17.0039
G01 X15.5433 Y-17.0068
G01 X13.9207 Y-17.0068
G01 X13.8918 Y-17.0039
G01 X13.8532 Y-16.9922
G01 X13.8176 Y-16.9732
G01 X13.7864 Y-16.9476
G01 X13.7608 Y-16.9164
G01 X13.7418 Y-16.8808
G01 X13.7301 Y-16.8422
G01 X13.7240 Y-16.7801
G01 X13.7240 Y-15.2239
G01 X13.7301 Y-15.1618
G01 X13.7418 Y-15.1232
G01 X13.7608 Y-15.0876
G01 X13.7864 Y-15.0564
G01 X13.8176 Y-15.0308
G01 X13.8532 Y-15.0118
G01 X13.9201 Y-14.9915
G01 X13.9477 Y-14.9816
G01 X13.9611 Y-14.9763
G01 X13.9962 Y-14.9595
G01 X14.0296 Y-14.9397
G01 X14.0415 Y-14.9315
G01 X14.0687 Y-14.9110
G01 X14.0977 Y-14.8850
G01 X14.1077 Y-14.8748
G01 X14.1273 Y-14.8530
G01 X14.1334 Y-14.8456
G01 X14.1509 Y-14.8221
G01 X14.1590 Y-14.8102
G01 X14.1789 Y-14.7768
G01 X14.1976 Y-14.7373
G01 X14.2123 Y-14.6962
G01 X14.2229 Y-14.6538
G01 X14.2293 Y-14.6106
G01 X14.2315 Y-14.5669
G01 X14.2293 Y-14.5233
G01 X14.2229 Y-14.4801
G01 X14.2123 Y-14.4377
G01 X14.1976 Y-14.3966
G01 X14.1789 Y-14.3571
G01 X14.1616 Y-14.3277
G01 X14.1537 Y-14.3157
G01 X14.1304 Y-14.2846
G01 X14.1044 Y-14.2556
G01 X13.9515 Y-14.1026
G01 X13.8415 Y-13.9380
G01 X13.7657 Y-13.7551
G01 X13.7269 Y-13.5598
G01 X13.7188 Y-13.5267
G01 X13.7148 Y-13.5129
G01 X13.7016 Y-13.4763
G01 X13.6851 Y-13.4411
G01 X13.6806 Y-13.4326
G01 X13.6656 Y-13.4075
G01 X13.6549 Y-13.3915
G01 X13.6344 Y-13.3643
G01 X13.6051 Y-13.3319
G01 X12.9761 Y-12.7029
G01 X12.9475 Y-12.6768
G01 X12.9363 Y-12.6678
G01 X12.9089 Y-12.6478
G01 X12.8758 Y-12.6277
G01 X12.8631 Y-12.6211
G01 X12.8323 Y-12.6067
G01 X12.7959 Y-12.5934
G01 X12.7822 Y-12.5894
G01 X12.7492 Y-12.5813
G01 X12.7156 Y-12.5760
G01 X12.7014 Y-12.5744
G01 X12.6627 Y-12.5726
G01 X12.6240 Y-12.5742
G01 X12.6098 Y-12.5757
G01 X12.5762 Y-12.5808
G01 X12.5431 Y-12.5887
G01 X12.5294 Y-12.5926
G01 X12.4929 Y-12.6056
G01 X12.4577 Y-12.6219
G01 X12.4452 Y-12.6287
G01 X12.4161 Y-12.6462
G01 X12.3885 Y-12.6661
G01 X12.3773 Y-12.6750
G01 X12.3485 Y-12.7010
G01 X12.3222 Y-12.7294
G01 X12.3132 Y-12.7405
G01 X12.2930 Y-12.7678
G01 X12.2751 Y-12.7967
G01 X12.2681 Y-12.8092
G01 X12.2514 Y-12.8442
G01 X12.2379 Y-12.8805
G01 X12.2338 Y-12.8942
G01 X12.2255 Y-12.9271
G01 X12.2200 Y-12.9606
G01 X12.2183 Y-12.9748
G01 X12.2162 Y-13.0129
G01 X12.0815 Y-13.0129
G01 X12.0754 Y-12.9908
G01 X12.0639 Y-12.9586
G01 X12.0582 Y-12.9455
G01 X12.0457 Y-12.9190
G01 X12.0411 Y-12.9105
G01 X12.0210 Y-12.8773
G01 X12.0009 Y-12.8497
G01 X11.9887 Y-12.8349
G01 X11.9690 Y-12.8133
G01 X11.9622 Y-12.8065
G01 X11.9333 Y-12.7805
G01 X11.9061 Y-12.7600
G01 X11.8942 Y-12.7519
G01 X11.8608 Y-12.7320
G01 X11.8257 Y-12.7153
G01 X11.8124 Y-12.7099
G01 X11.7802 Y-12.6987
G01 X11.7425 Y-12.6890
G01 X11.7284 Y-12.6864
G01 X11.6946 Y-12.6816
G01 X11.6510 Y-12.6795
G01 X10.7010 Y-12.6795
G01 X10.6574 Y-12.6816
G01 X10.6236 Y-12.6864
G01 X10.6095 Y-12.6890
G01 X10.5810 Y-12.6961
G01 X10.5627 Y-12.7017
G01 X10.5307 Y-12.7134
G01 X10.4912 Y-12.7320
G01 X10.4538 Y-12.7545
G01 X10.4224 Y-12.7775
G01 X10.4114 Y-12.7868
G01 X10.3898 Y-12.8065
G01 X10.3830 Y-12.8133
G01 X10.3633 Y-12.8349
G01 X10.3511 Y-12.8497
G01 X10.3337 Y-12.8733
G01 X10.3284 Y-12.8813
G01 X10.3085 Y-12.9147
G01 X10.2918 Y-12.9498
G01 X10.2864 Y-12.9631
G01 X10.2766 Y-12.9908
G01 X10.2705 Y-13.0129
G01 X10.1358 Y-13.0129
G01 X10.1347 Y-12.8943
G01 X10.1427 Y-12.8132
G01 X10.1605 Y-12.7542
G01 X10.1896 Y-12.6998
G01 X10.2287 Y-12.6522
G01 X10.2747 Y-12.6143
G01 X10.2965 Y-12.5947
G01 X10.3068 Y-12.5847
G01 X10.3265 Y-12.5630
G01 X10.3358 Y-12.5520
G01 X10.3561 Y-12.5246
G01 X10.3639 Y-12.5125
G01 X10.3789 Y-12.4874
G01 X10.3856 Y-12.4746
G01 X10.3999 Y-12.4437
G01 X10.4132 Y-12.4071
G01 X10.4172 Y-12.3933
G01 X10.4253 Y-12.3602
G01 X10.4305 Y-12.3265
G01 X10.4321 Y-12.3122
G01 X10.4338 Y-12.2781
G01 X10.4336 Y-12.2638
G01 X10.4317 Y-12.2297
G01 X10.4253 Y-12.1865
G01 X10.4146 Y-12.1441
G01 X10.4017 Y-12.1074
G01 X10.3980 Y-12.0986
G01 X10.3856 Y-12.0720
G01 X10.3765 Y-12.0552
G01 X10.3614 Y-12.0300
G01 X10.3561 Y-12.0221
G01 X10.3358 Y-11.9947
G01 X10.3220 Y-11.9778
G01 X10.2798 Y-11.8990
G01 X10.2539 Y-11.8134
G01 X10.2430 Y-11.7026
G01 X10.2429 Y-11.6304
G01 X10.2415 Y-11.6011
G01 X10.2403 Y-11.5868
G01 X10.2353 Y-11.5531
G01 X10.2334 Y-11.5437
G01 X10.2264 Y-11.5152
G01 X10.2208 Y-11.4969
G01 X10.2091 Y-11.4649
G01 X10.1904 Y-11.4254
G01 X10.1706 Y-11.3919
G01 X10.1625 Y-11.3801
G01 X10.1419 Y-11.3528
G01 X10.1126 Y-11.3205
G01 X8.3744 Y-9.5822
G01 X8.3457 Y-9.5560
G01 X8.3345 Y-9.5470
G01 X8.3070 Y-9.5269
G01 X8.2695 Y-9.5044
G01 X8.2300 Y-9.4858
G01 X8.1934 Y-9.4725
G01 X8.1796 Y-9.4685
G01 X8.1512 Y-9.4614
G01 X8.1418 Y-9.4596
G01 X8.1128 Y-9.4552
G01 X8.0937 Y-9.4533
G01 X8.0644 Y-9.4519
G01 X8.0476 Y-9.4519
G01 X7.8900 Y-9.4205
G01 X7.7415 Y-9.3590
G01 X7.6079 Y-9.2697
G01 X7.4943 Y-9.1561
G01 X7.4050 Y-9.0225
G01 X7.3435 Y-8.8740
G01 X7.3121 Y-8.7164
G01 X7.3121 Y-8.5556
G01 X7.3435 Y-8.3980
G01 X7.4050 Y-8.2495
G01 X7.4943 Y-8.1159
G01 X7.6079 Y-8.0023
G01 X7.7415 Y-7.9130
G01 X7.8900 Y-7.8515
G01 X8.0476 Y-7.8201
G01 X8.2084 Y-7.8201
G01 X8.3660 Y-7.8515
G01 X8.5196 Y-7.9151
G01 X8.5385 Y-7.9258
G01 X8.5649 Y-7.9384
G01 X8.5781 Y-7.9441
G01 X8.6103 Y-7.9555
G01 X8.6960 Y-7.9816
G01 X8.8185 Y-8.0471
G01 X8.9258 Y-8.1352
G01 X8.9403 Y-8.1524
G01 X8.9634 Y-8.1775
G01 X11.2504 Y-10.4644
G01 X11.2793 Y-10.4904
G01 X11.3066 Y-10.5110
G01 X11.3184 Y-10.5191
G01 X11.3435 Y-10.5342
G01 X11.3561 Y-10.5411
G01 X11.3870 Y-10.5557
G01 X11.4003 Y-10.5610
G01 X11.4325 Y-10.5723
G01 X11.4655 Y-10.5808
G01 X11.4796 Y-10.5838
G01 X11.5133 Y-10.5888
G01 X11.5276 Y-10.5900
G01 X11.5569 Y-10.5914
G01 X11.6291 Y-10.5915
G01 X11.7399 Y-10.6024
G01 X11.8255 Y-10.6283
G01 X11.8363 Y-10.6339
G01 X11.8672 Y-10.6482
G01 X11.9084 Y-10.6630
G01 X11.9507 Y-10.6736
G01 X11.9940 Y-10.6800
G01 X12.0376 Y-10.6821
G01 X12.4494 Y-10.6821
G01 X12.4883 Y-10.6800
G01 X12.5221 Y-10.6752
G01 X12.5362 Y-10.6726
G01 X12.5739 Y-10.6630
G01 X12.6150 Y-10.6482
G01 X12.6545 Y-10.6296
G01 X12.6920 Y-10.6071
G01 X12.7270 Y-10.5811
G01 X12.7594 Y-10.5518
G01 X12.7887 Y-10.5194
G01 X12.8148 Y-10.4843
G01 X12.8372 Y-10.4468
G01 X12.8559 Y-10.4073
G01 X12.8706 Y-10.3662
G01 X12.8812 Y-10.3238
G01 X12.8876 Y-10.2806
G01 X12.8898 Y-10.2370
G01 X12.8876 Y-10.1934
G01 X12.8812 Y-10.1502
G01 X12.8732 Y-10.1170
G01 X12.8692 Y-10.1032
G01 X12.8577 Y-10.0711
G01 X12.8520 Y-10.0579
G01 X12.8372 Y-10.0272
G01 X12.8199 Y-9.9978
G01 X12.8121 Y-9.9858
G01 X12.7887 Y-9.9546
G01 X12.7594 Y-9.9222
G01 X7.3995 Y-4.5624
G01 X7.3744 Y-4.5393
G01 X7.3572 Y-4.5248
G01 X7.3458 Y-4.5114
G01 X7.3261 Y-4.4897
G01 X7.3158 Y-4.4797
G01 X7.2940 Y-4.4600
G01 X7.2828 Y-4.4511
G01 X7.2553 Y-4.4309
G01 X7.2178 Y-4.4085
G01 X7.1783 Y-4.3898
G01 X7.1418 Y-4.3765
G01 X7.1280 Y-4.3725
G01 X7.0995 Y-4.3654
G01 X7.0854 Y-4.3628
G01 X7.0516 Y-4.3580
G01 X7.0176 Y-4.3561
G01 X7.0032 Y-4.3560
G01 X6.9644 Y-4.3580
G01 X6.9212 Y-4.3645
G01 X6.8788 Y-4.3751
G01 X6.8421 Y-4.3880
G01 X6.8289 Y-4.3937
G01 X6.8024 Y-4.4063
G01 X6.7898 Y-4.4132
G01 X6.7607 Y-4.4309
G01 X6.7332 Y-4.4511
G01 X6.7220 Y-4.4600
G01 X6.6932 Y-4.4863
G01 X6.6639 Y-4.5186
G01 X6.6379 Y-4.5537
G01 X6.6154 Y-4.5912
G01 X6.5968 Y-4.6307
G01 X6.5835 Y-4.6673
G01 X6.5795 Y-4.6810
G01 X6.5724 Y-4.7095
G01 X6.5698 Y-4.7236
G01 X6.5650 Y-4.7574
G01 X6.5631 Y-4.7915
G01 X6.5629 Y-5.7695
G01 X6.5643 Y-5.8036
G01 X6.5663 Y-5.8260
G01 X6.5527 Y-5.9642
G01 X6.5124 Y-6.0970
G01 X6.4469 Y-6.2195
G01 X6.4313 Y-6.2386
G01 X6.4110 Y-6.2660
G01 X6.4032 Y-6.2780
G01 X6.3859 Y-6.3074
G01 X6.3672 Y-6.3469
G01 X6.3110 Y-6.4825
G01 X6.2217 Y-6.6161
G01 X6.1081 Y-6.7297
G01 X5.9745 Y-6.8190
G01 X5.8260 Y-6.8805
G01 X5.6684 Y-6.9119
G01 X5.5076 Y-6.9119
G01 X5.3500 Y-6.8805
G01 X5.2015 Y-6.8190
G01 X5.0679 Y-6.7297
G01 X4.9543 Y-6.6161
G01 X4.8650 Y-6.4825
G01 X4.8035 Y-6.3340
G01 X4.7721 Y-6.1764
G01 X4.7721 Y-6.0156
G01 X4.8035 Y-5.8580
G01 X4.8650 Y-5.7095
G01 X4.9543 Y-5.5759
G01 X5.0261 Y-5.5040
G01 X5.0490 Y-5.4787
G01 X5.0580 Y-5.4675
G01 X5.0781 Y-5.4400
G01 X5.0983 Y-5.4067
G01 X5.1049 Y-5.3940
G01 X5.1192 Y-5.3630
G01 X5.1340 Y-5.3219
G01 X5.1446 Y-5.2795
G01 X5.1498 Y-5.2458
G01 X5.1514 Y-5.2315
G01 X5.1531 Y-5.1927
G01 X5.1531 Y-4.1620
G01 X5.1514 Y-4.1231
G01 X5.1498 Y-4.1088
G01 X5.1446 Y-4.0751
G01 X5.1365 Y-4.0420
G01 X5.1325 Y-4.0282
G01 X5.1227 Y-4.0006
G01 X5.1174 Y-3.9872
G01 X5.1028 Y-3.9564
G01 X5.0868 Y-3.9265
G01 X5.0609 Y-3.8409
G01 X5.0500 Y-3.7301
G01 X5.0500 Y-2.8739
G01 X5.0609 Y-2.7631
G01 X5.0868 Y-2.6775
G01 X5.1290 Y-2.5987
G01 X5.1857 Y-2.5297
G01 X5.2547 Y-2.4730
G01 X5.3335 Y-2.4308
G01 X5.4191 Y-2.4049
G01 X5.5299 Y-2.3940
G01 X6.1861 Y-2.3940
G01 X6.2969 Y-2.4049
G01 X6.3825 Y-2.4308
G01 X6.4613 Y-2.4730
G01 X6.5358 Y-2.5341
G01 X6.5433 Y-2.5420
G01 X6.5502 Y-2.5486
G01 X6.5720 Y-2.5683
G01 X6.5794 Y-2.5743
G01 X6.6107 Y-2.5974
G01 X6.6398 Y-2.6151
G01 X6.6524 Y-2.6220
G01 X6.6877 Y-2.6385
G01 X6.7288 Y-2.6532
G01 X6.7712 Y-2.6638
G01 X6.8144 Y-2.6702
G01 X6.8580 Y-2.6724
G01 X6.9016 Y-2.6702
G01 X6.9448 Y-2.6638
G01 X6.9826 Y-2.6545
G01 X6.9963 Y-2.6502
G01 X7.0239 Y-2.6403
G01 X7.0371 Y-2.6346
G01 X7.0678 Y-2.6198
G01 X7.0972 Y-2.6025
G01 X7.1092 Y-2.5946
G01 X7.1366 Y-2.5743
G01 X7.1440 Y-2.5683
G01 X7.1658 Y-2.5486
G00 Z1.0000
G00 X7.8108 Y-9.3768
G01 F60.00
G01 Z-0.0450
G01 F150.00
G01 X7.8285 Y-9.3841
G01 X7.8849 Y-9.4043
G01 X7.9033 Y-9.4098
G01 X7.9708 Y-9.4265
G01 X8.0442 Y-9.4376
G01 X8.0585 Y-9.4388
G01 X8.1184 Y-9.4418
G01 X8.1328 Y-9.4419
G01 X8.2022 Y-9.4385
G01 X8.2118 Y-9.4376
G01 X8.2393 Y-9.4336
G01 X10.2560 Y-11.4502
G01 X10.2560 Y-11.7245
G01 X10.2574 Y-11.7586
G01 X10.2587 Y-11.7729
G01 X10.2646 Y-11.8113
G01 X10.2726 Y-11.8445
G01 X10.2766 Y-11.8582
G01 X10.2899 Y-11.8948
G01 X10.3085 Y-11.9343
G01 X10.3310 Y-11.9717
G01 X10.3570 Y-12.0068
G01 X10.3863 Y-12.0392
G01 X10.4187 Y-12.0685
G01 X10.4538 Y-12.0945
G01 X10.4829 Y-12.1122
G01 X10.4955 Y-12.1192
G01 X10.5307 Y-12.1356
G01 X10.5627 Y-12.1473
G01 X10.5764 Y-12.1517
G01 X10.6095 Y-12.1600
G01 X10.6236 Y-12.1626
G01 X10.6574 Y-12.1674
G01 X10.6914 Y-12.1693
G01 X11.6558 Y-12.1694
G01 X11.6946 Y-12.1674
G01 X11.7284 Y-12.1626
G01 X11.7472 Y-12.1589
G01 X11.7756 Y-12.1517
G01 X11.7847 Y-12.1489
G01 X11.8213 Y-12.1356
G01 X11.8565 Y-12.1192
G01 X11.8691 Y-12.1122
G01 X11.8942 Y-12.0971
G01 X11.9022 Y-12.0918
G01 X11.9151 Y-12.0823
G01 X12.3690 Y-12.0823
G01 X13.7373 Y-13.4506
G01 X13.7370 Y-13.4620
G01 X13.7372 Y-13.4716
G01 X13.7418 Y-13.5595
G01 X13.7545 Y-13.6467
G01 X13.7582 Y-13.6655
G01 X13.7798 Y-13.7508
G01 X13.8093 Y-13.8338
G01 X13.8166 Y-13.8515
G01 X13.8502 Y-13.9225
G01 X13.8592 Y-13.9394
G01 X13.9047 Y-14.0148
G01 X13.9570 Y-14.0857
G01 X13.9691 Y-14.1005
G01 X14.0284 Y-14.1656
G01 X14.0935 Y-14.2249
G01 X14.1083 Y-14.2370
G01 X14.1792 Y-14.2893
G01 X14.2546 Y-14.3348
G01 X14.2715 Y-14.3438
G01 X14.3512 Y-14.3813
G01 X14.4432 Y-14.4142
G01 X14.5379 Y-14.4379
G01 X14.6345 Y-14.4522
G01 X14.7320 Y-14.4570
G01 X14.8295 Y-14.4522
G01 X14.9261 Y-14.4379
G01 X15.0208 Y-14.4142
G01 X15.1128 Y-14.3813
G01 X15.2010 Y-14.3395
G01 X15.2848 Y-14.2893
G01 X15.3632 Y-14.2311
G01 X15.4356 Y-14.1656
G01 X15.5011 Y-14.0932
G01 X15.5593 Y-14.0148
G01 X15.6048 Y-13.9394
G01 X15.6138 Y-13.9225
G01 X15.6474 Y-13.8515
G01 X15.6547 Y-13.8338
G01 X15.6842 Y-13.7508
G01 X15.7058 Y-13.6655
G01 X15.7095 Y-13.6467
G01 X15.7222 Y-13.5595
G01 X15.7270 Y-13.4620
G01 X15.7222 Y-13.3645
G01 X15.7079 Y-13.2679
G01 X15.6842 Y-13.1732
G01 X15.6547 Y-13.0902
G01 X15.6474 Y-13.0725
G01 X15.6138 Y-13.0015
G01 X15.6048 Y-12.9846
G01 X15.5593 Y-12.9092
G01 X15.5011 Y-12.8308
G01 X15.4356 Y-12.7584
G01 X15.3669 Y-12.6959
G01 X15.3557 Y-12.6870
G01 X15.2848 Y-12.6347
G01 X15.2010 Y-12.5845
G01 X15.1128 Y-12.5427
G01 X15.0299 Y-12.5128
G01 X15.0116 Y-12.5073
G01 X14.9261 Y-12.4861
G01 X14.8390 Y-12.4730
G01 X14.8200 Y-12.4711
G01 X14.7416 Y-12.4672
G01 X14.7320 Y-12.4670
G01 X14.7206 Y-12.4673
G01 X13.1452 Y-10.8920
G01 X13.0981 Y-10.8496
G01 X13.0511 Y-10.8144
G01 X13.0352 Y-10.8038
G01 X12.9847 Y-10.7738
G01 X12.9231 Y-10.7447
G01 X12.8588 Y-10.7217
G01 X12.7926 Y-10.7051
G01 X12.7251 Y-10.6951
G01 X12.6570 Y-10.6917
G01 X11.9151 Y-10.6917
G01 X11.9022 Y-10.6822
G01 X11.8942 Y-10.6769
G01 X11.8650 Y-10.6594
G01 X11.8522 Y-10.6527
G01 X11.8257 Y-10.6403
G01 X11.8124 Y-10.6349
G01 X11.7802 Y-10.6237
G01 X11.7472 Y-10.6151
G01 X11.7331 Y-10.6122
G01 X11.6946 Y-10.6066
G01 X11.6558 Y-10.6046
G01 X11.3767 Y-10.6045
G01 X8.9166 Y-8.1444
G01 X8.8733 Y-8.1048
G01 X8.8585 Y-8.0927
G01 X8.8113 Y-8.0579
G01 X8.7611 Y-8.0276
G01 X8.7442 Y-8.0185
G01 X8.6955 Y-7.9956
G01 X8.6821 Y-7.9902
G01 X8.6268 Y-7.9707
G01 X8.5700 Y-7.9562
G01 X8.5550 Y-7.9531
G01 X8.5079 Y-7.9252
G01 X8.4408 Y-7.8932
G01 X8.4275 Y-7.8879
G01 X8.3711 Y-7.8677
G01 X8.3574 Y-7.8634
G01 X8.2852 Y-7.8455
G01 X8.2070 Y-7.8339
G01 X8.1280 Y-7.8300
G01 X8.0585 Y-7.8332
G01 X8.0442 Y-7.8344
G01 X7.9708 Y-7.8455
G01 X7.9033 Y-7.8622
G01 X7.8849 Y-7.8677
G01 X7.8196 Y-7.8914
G01 X7.7566 Y-7.9209
G01 X7.7397 Y-7.9299
G01 X7.6883 Y-7.9607
G01 X7.6724 Y-7.9713
G01 X7.6167 Y-8.0130
G01 X7.5581 Y-8.0661
G01 X7.5050 Y-8.1247
G01 X7.4605 Y-8.1843
G01 X7.4527 Y-8.1963
G01 X7.4172 Y-8.2561
G01 X7.3834 Y-8.3276
G01 X7.3567 Y-8.4020
G01 X7.3396 Y-8.4694
G01 X7.3359 Y-8.4882
G01 X7.3259 Y-8.5570
G01 X7.3222 Y-8.6264
G01 X7.3222 Y-8.6456
G01 X7.3252 Y-8.7055
G01 X7.3271 Y-8.7245
G01 X7.3375 Y-8.7932
G01 X7.3567 Y-8.8700
G01 X7.3834 Y-8.9444
G01 X7.4172 Y-9.0159
G01 X7.4578 Y-9.0838
G01 X7.4991 Y-9.1398
G01 X7.5112 Y-9.1546
G01 X7.5581 Y-9.2059
G01 X7.6094 Y-9.2528
G01 X7.6242 Y-9.2649
G01 X7.6724 Y-9.3007
G01 X7.6883 Y-9.3113
G01 X7.7481 Y-9.3468
G01 X7.8108 Y-9.3768
G00 Z1.0000
G00 X4.9579 Y-11.9811
G01 F60.00
G01 Z-0.0450
G01 F150.00
G01 X4.9770 Y-11.9820
G01 X5.4108 Y-11.9820
G01 X8.4487 Y-15.0200
G01 X8.4487 Y-16.2873
G01 X8.4240 Y-16.3208
G01 X8.4063 Y-16.3499
G01 X8.3993 Y-16.3625
G01 X8.3829 Y-16.3977
G01 X8.3682 Y-16.4388
G01 X8.3596 Y-16.4718
G01 X8.3559 Y-16.4906
G01 X8.3517 Y-16.5196
G01 X8.3507 Y-16.5291
G01 X8.3490 Y-16.5680
G01 X8.3490 Y-17.4680
G01 X8.3511 Y-17.5116
G01 X8.3559 Y-17.5454
G01 X8.3596 Y-17.5642
G01 X8.3668 Y-17.5926
G01 X8.3712 Y-17.6063
G01 X8.3829 Y-17.6383
G01 X8.4015 Y-17.6778
G01 X8.4240 Y-17.7152
G01 X8.4500 Y-17.7503
G01 X8.4793 Y-17.7827
G01 X8.5117 Y-17.8120
G01 X8.5468 Y-17.8380
G01 X8.5800 Y-17.8581
G01 X8.5928 Y-17.8648
G01 X8.6237 Y-17.8791
G01 X8.6557 Y-17.8908
G01 X8.6694 Y-17.8952
G01 X8.6978 Y-17.9024
G01 X8.7119 Y-17.9053
G01 X8.7456 Y-17.9103
G01 X8.7551 Y-17.9113
G01 X8.7844 Y-17.9128
G01 X9.4940 Y-17.9130
G01 X9.5376 Y-17.9109
G01 X9.5761 Y-17.9053
G01 X9.5902 Y-17.9024
G01 X9.6232 Y-17.8938
G01 X9.6643 Y-17.8791
G01 X9.6995 Y-17.8627
G01 X9.7121 Y-17.8557
G01 X9.7412 Y-17.8380
G01 X9.7763 Y-17.8120
G01 X9.8087 Y-17.7827
G01 X9.8380 Y-17.7503
G01 X9.8640 Y-17.7152
G01 X9.8865 Y-17.6778
G01 X9.9051 Y-17.6383
G01 X9.9198 Y-17.5972
G01 X9.9304 Y-17.5548
G01 X9.9363 Y-17.5164
G01 X9.9376 Y-17.5021
G01 X9.9390 Y-17.4680
G01 X9.9389 Y-16.5632
G01 X9.9369 Y-16.5244
G01 X9.9304 Y-16.4812
G01 X9.9198 Y-16.4388
G01 X9.9086 Y-16.4066
G01 X9.9012 Y-16.3890
G01 X9.8887 Y-16.3625
G01 X9.8841 Y-16.3540
G01 X9.8640 Y-16.3208
G01 X9.8393 Y-16.2873
G01 X9.8393 Y-14.7320
G01 X9.8366 Y-14.6734
G01 X9.8354 Y-14.6591
G01 X9.8259 Y-14.5964
G01 X9.8119 Y-14.5394
G01 X9.8063 Y-14.5211
G01 X9.7863 Y-14.4659
G01 X9.7615 Y-14.4128
G01 X9.7524 Y-14.3959
G01 X9.7221 Y-14.3457
G01 X9.6814 Y-14.2909
G01 X9.6356 Y-14.2404
G01 X6.3940 Y-10.9988
G01 X6.3940 Y-10.5650
G01 X6.3935 Y-10.5507
G01 X6.3911 Y-10.5317
G01 X6.3893 Y-10.5223
G01 X6.3856 Y-10.5084
G01 X6.3792 Y-10.4904
G01 X6.3732 Y-10.4773
G01 X6.3687 Y-10.4689
G01 X6.3637 Y-10.4607
G01 X6.3556 Y-10.4488
G01 X6.3497 Y-10.4413
G01 X6.3402 Y-10.4305
G01 X6.3300 Y-10.4205
G01 X6.3227 Y-10.4143
G01 X6.3113 Y-10.4056
G01 X6.3033 Y-10.4003
G01 X6.2867 Y-10.3908
G01 X6.2736 Y-10.3848
G01 X6.2647 Y-10.3814
G01 X6.2464 Y-10.3758
G01 X6.2276 Y-10.3721
G01 X6.2181 Y-10.3709
G01 X6.2038 Y-10.3701
G01 X4.9722 Y-10.3701
G01 X4.9531 Y-10.3715
G01 X4.9343 Y-10.3747
G01 X4.9204 Y-10.3784
G01 X4.9113 Y-10.3814
G01 X4.8936 Y-10.3887
G01 X4.8768 Y-10.3977
G01 X4.8687 Y-10.4029
G01 X4.8570 Y-10.4113
G01 X4.8425 Y-10.4238
G01 X4.8325 Y-10.4340
G01 X4.8263 Y-10.4413
G01 X4.8176 Y-10.4527
G01 X4.8073 Y-10.4689
G01 X4.7987 Y-10.4860
G01 X4.7934 Y-10.4993
G01 X4.7891 Y-10.5130
G01 X4.7857 Y-10.5270
G01 X4.7835 Y-10.5411
G01 X4.7821 Y-10.5602
G01 X4.7820 Y-11.7870
G01 X4.7825 Y-11.8013
G01 X4.7841 Y-11.8156
G01 X4.7878 Y-11.8344
G01 X4.7934 Y-11.8527
G01 X4.7987 Y-11.8660
G01 X4.8073 Y-11.8831
G01 X4.8149 Y-11.8953
G01 X4.8263 Y-11.9107
G01 X4.8358 Y-11.9215
G01 X4.8496 Y-11.9347
G01 X4.8608 Y-11.9436
G01 X4.8768 Y-11.9543
G01 X4.8936 Y-11.9633
G01 X4.9068 Y-11.9689
G01 X4.9250 Y-11.9749
G01 X4.9437 Y-11.9791
G01 X4.9579 Y-11.9811
G00 Z1.0000
G00 X6.3276 Y-13.8072
G01 F60.00
G01 Z-0.0450
G01 F150.00
G01 X4.7671 Y-13.8070
G01 X4.7671 Y-13.6886
G01 X6.0323 Y-13.6860
G01 X6.0711 Y-13.6838
G01 X6.1048 Y-13.6790
G01 X6.1236 Y-13.6752
G01 X6.1520 Y-13.6680
G01 X6.1611 Y-13.6652
G01 X6.1976 Y-13.6519
G01 X6.2285 Y-13.6375
G01 X6.2454 Y-13.6284
G01 X6.2704 Y-13.6133
G01 X6.2784 Y-13.6079
G01 X6.3095 Y-13.5846
G01 X6.3383 Y-13.5586
G01 X6.3451 Y-13.5518
G01 X6.3648 Y-13.5301
G01 X6.3769 Y-13.5153
G01 X6.3970 Y-13.4878
G01 X6.4194 Y-13.4503
G01 X6.4380 Y-13.4108
G01 X6.4497 Y-13.3788
G01 X6.4552 Y-13.3605
G01 X6.4622 Y-13.3321
G01 X6.4641 Y-13.3227
G01 X6.4696 Y-13.2842
G01 X6.4715 Y-13.2502
G01 X6.4716 Y-13.2358
G01 X6.4702 Y-13.2066
G01 X6.4684 Y-13.1875
G01 X6.4640 Y-13.1586
G01 X6.4621 Y-13.1492
G01 X6.4538 Y-13.1161
G01 X6.4495 Y-13.1025
G01 X6.4378 Y-13.0704
G01 X6.4191 Y-13.0310
G01 X6.3966 Y-12.9936
G01 X6.3706 Y-12.9585
G01 X6.3413 Y-12.9262
G01 X5.5406 Y-12.1254
G01 X5.5082 Y-12.0961
G01 X5.4770 Y-12.0727
G01 X5.4650 Y-12.0649
G01 X5.4356 Y-12.0476
G01 X5.4049 Y-12.0328
G01 X5.3917 Y-12.0271
G01 X5.3550 Y-12.0142
G01 X5.3126 Y-12.0036
G01 X5.2694 Y-11.9972
G01 X5.2354 Y-11.9953
G01 X4.9989 Y-11.9950
G01 X4.9368 Y-11.9889
G01 X4.8982 Y-11.9772
G01 X4.8626 Y-11.9582
G01 X4.8314 Y-11.9326
G01 X4.8058 Y-11.9014
G01 X4.7868 Y-11.8658
G01 X4.7751 Y-11.8272
G01 X4.7690 Y-11.7651
G01 X4.7690 Y-10.5869
G01 X4.7751 Y-10.5248
G01 X4.7868 Y-10.4862
G01 X4.8058 Y-10.4506
G01 X4.8314 Y-10.4194
G01 X4.8626 Y-10.3938
G01 X4.8982 Y-10.3748
G01 X4.9368 Y-10.3631
G01 X4.9989 Y-10.3570
G01 X6.1771 Y-10.3570
G01 X6.2392 Y-10.3631
G01 X6.2778 Y-10.3748
G01 X6.3134 Y-10.3938
G01 X6.3446 Y-10.4194
G01 X6.3702 Y-10.4506
G01 X6.3892 Y-10.4862
G01 X6.4009 Y-10.5248
G01 X6.4070 Y-10.5869
G01 X6.4073 Y-10.8234
G01 X6.4092 Y-10.8574
G01 X6.4156 Y-10.9006
G01 X6.4249 Y-10.9384
G01 X6.4292 Y-10.9521
G01 X6.4409 Y-10.9841
G01 X6.4553 Y-11.0151
G01 X6.4619 Y-11.0278
G01 X6.4820 Y-11.0611
G01 X6.5022 Y-11.0886
G01 X6.5111 Y-11.0998
G01 X6.5374 Y-11.1286
G01 X9.3787 Y-13.9698
G01 X9.4074 Y-13.9961
G01 X9.4186 Y-14.0051
G01 X9.4461 Y-14.0252
G01 X9.4836 Y-14.0476
G01 X9.5231 Y-14.0663
G01 X9.5642 Y-14.0810
G01 X9.6066 Y-14.0916
G01 X9.6498 Y-14.0981
G01 X9.6934 Y-14.1002
G01 X9.7371 Y-14.0981
G01 X9.7803 Y-14.0916
G01 X9.8226 Y-14.0810
G01 X9.8638 Y-14.0663
G01 X9.8947 Y-14.0519
G01 X9.9074 Y-14.0453
G01 X9.9407 Y-14.0252
G01 X9.9683 Y-14.0051
G01 X9.9795 Y-13.9961
G01 X10.0047 Y-13.9732
G01 X10.0669 Y-13.9111
G01 X10.2705 Y-13.9111
G01 X10.2766 Y-13.9332
G01 X10.2864 Y-13.9609
G01 X10.2918 Y-13.9742
G01 X10.3085 Y-14.0093
G01 X10.3259 Y-14.0386
G01 X10.3337 Y-14.0507
G01 X10.3570 Y-14.0818
G01 X10.3863 Y-14.1142
G01 X10.4187 Y-14.1435
G01 X10.4459 Y-14.1640
G01 X10.4578 Y-14.1721
G01 X10.4829 Y-14.1872
G01 X10.4998 Y-14.1963
G01 X10.5263 Y-14.2087
G01 X10.5351 Y-14.2124
G01 X10.5627 Y-14.2223
G01 X10.5764 Y-14.2267
G01 X10.6142 Y-14.2359
G01 X10.6526 Y-14.2418
G01 X10.6669 Y-14.2431
G01 X10.6962 Y-14.2444
G01 X10.7269 Y-14.2445
G01 X10.7269 Y-14.3641
G01 X10.4713 Y-14.3659
G01 X10.3758 Y-14.3565
G01 X10.3471 Y-14.3522
G01 X10.3329 Y-14.3506
G01 X10.2940 Y-14.3489
G01 X10.2599 Y-14.3503
G01 X10.2456 Y-14.3515
G01 X10.2072 Y-14.3574
G01 X10.1648 Y-14.3680
G01 X10.1237 Y-14.3827
G01 X10.0927 Y-14.3971
G01 X10.0800 Y-14.4037
G01 X10.0507 Y-14.4213
G01 X10.0389 Y-14.4294
G01 X10.0116 Y-14.4499
G01 X9.9862 Y-14.4726
G01 X9.9759 Y-14.4827
G01 X9.9499 Y-14.5116
G01 X9.9239 Y-14.5467
G01 X9.9037 Y-14.5800
G01 X9.8971 Y-14.5927
G01 X9.8828 Y-14.6236
G01 X9.8710 Y-14.6557
G01 X9.8667 Y-14.6694
G01 X9.8574 Y-14.7071
G01 X9.8522 Y-14.7409
G01 X9.8506 Y-14.7551
G01 X9.8489 Y-14.7940
G01 X9.8489 Y-15.6017
G01 X9.8506 Y-15.6406
G01 X9.8522 Y-15.6549
G01 X9.8574 Y-15.6886
G01 X9.8667 Y-15.7263
G01 X9.8710 Y-15.7400
G01 X9.8828 Y-15.7721
G01 X9.8971 Y-15.8030
G01 X9.9037 Y-15.8158
G01 X9.9239 Y-15.8490
G01 X9.9499 Y-15.8841
G01 X9.9793 Y-15.9165
G01 X10.0116 Y-15.9458
G01 X10.0467 Y-15.9718
G01 X10.0842 Y-15.9943
G01 X10.1237 Y-16.0130
G01 X10.1648 Y-16.0277
G01 X10.2072 Y-16.0383
G01 X10.2456 Y-16.0442
G01 X10.2599 Y-16.0454
G01 X10.2940 Y-16.0469
G01 X10.3329 Y-16.0451
G01 X10.3424 Y-16.0442
G01 X10.3714 Y-16.0399
G01 X10.3855 Y-16.0373
G01 X10.4186 Y-16.0290
G01 X10.4827 Y-16.0097
G01 X10.5639 Y-16.0017
G01 X10.6949 Y-16.0028
G01 X10.6949 Y-16.1344
G01 X10.6648 Y-16.1422
G01 X10.6237 Y-16.1569
G01 X10.5842 Y-16.1755
G01 X10.5549 Y-16.1929
G01 X10.5389 Y-16.2035
G01 X10.5154 Y-16.2210
G01 X10.5080 Y-16.2271
G01 X10.4793 Y-16.2533
G01 X10.4563 Y-16.2784
G01 X10.4441 Y-16.2932
G01 X10.4267 Y-16.3168
G01 X10.4214 Y-16.3248
G01 X10.4015 Y-16.3582
G01 X10.3848 Y-16.3933
G01 X10.3811 Y-16.4021
G01 X10.3712 Y-16.4297
G01 X10.3656 Y-16.4480
G01 X10.3576 Y-16.4812
G01 X10.3517 Y-16.5196
G01 X10.3504 Y-16.5339
G01 X10.3490 Y-16.5680
G01 X10.3490 Y-17.4680
G01 X10.3511 Y-17.5116
G01 X10.3576 Y-17.5548
G01 X10.3656 Y-17.5880
G01 X10.3712 Y-17.6063
G01 X10.3811 Y-17.6339
G01 X10.3848 Y-17.6427
G01 X10.4015 Y-17.6778
G01 X10.4214 Y-17.7112
G01 X10.4295 Y-17.7231
G01 X10.4470 Y-17.7466
G01 X10.4531 Y-17.7540
G01 X10.4651 Y-17.7674
G01 X10.3096 Y-17.9229
G01 X10.3059 Y-17.9229
G01 X10.2923 Y-17.9087
G01 X10.2671 Y-17.8858
G01 X10.2597 Y-17.8798
G01 X10.2361 Y-17.8622
G01 X10.2202 Y-17.8516
G01 X10.1950 Y-17.8366
G01 X10.1823 Y-17.8300
G01 X10.1557 Y-17.8175
G01 X10.1469 Y-17.8138
G01 X10.1193 Y-17.8039
G01 X10.1056 Y-17.7995
G01 X10.0678 Y-17.7903
G01 X10.0341 Y-17.7850
G01 X10.0199 Y-17.7834
G01 X9.9810 Y-17.7817
G01 X9.9374 Y-17.7838
G01 X9.8942 Y-17.7903
G01 X9.8564 Y-17.7995
G01 X9.8427 Y-17.8039
G01 X9.8151 Y-17.8138
G01 X9.8063 Y-17.8175
G01 X9.7797 Y-17.8300
G01 X9.6685 Y-17.8892
G01 X9.5829 Y-17.9151
G01 X9.5040 Y-17.9229
G01 X8.7840 Y-17.9229
G01 X8.7051 Y-17.9151
G01 X8.6195 Y-17.8892
G01 X8.5407 Y-17.8470
G01 X8.4717 Y-17.7903
G01 X8.4150 Y-17.7213
G01 X8.3728 Y-17.6425
G01 X8.3469 Y-17.5569
G01 X8.3360 Y-17.4461
G01 X8.3360 Y-16.5899
G01 X8.3469 Y-16.4791
G01 X8.3728 Y-16.3935
G01 X8.3888 Y-16.3636
G01 X8.4034 Y-16.3328
G01 X8.4087 Y-16.3194
G01 X8.4200 Y-16.2872
G01 X8.4296 Y-16.2495
G01 X8.4322 Y-16.2354
G01 X8.4370 Y-16.2017
G01 X8.4391 Y-16.1628
G01 X8.4389 Y-15.1988
G01 X8.4370 Y-15.1647
G01 X8.4322 Y-15.1309
G01 X8.4296 Y-15.1168
G01 X8.4225 Y-15.0884
G01 X8.4185 Y-15.0746
G01 X8.4052 Y-15.0380
G01 X8.3866 Y-14.9985
G01 X8.3667 Y-14.9651
G01 X8.3586 Y-14.9532
G01 X8.3381 Y-14.9260
G01 X8.3088 Y-14.8936
G01 X7.3938 Y-13.9787
G01 X7.3687 Y-13.9556
G01 X7.3578 Y-13.9464
G01 X7.3304 Y-13.9261
G01 X7.3184 Y-13.9182
G01 X7.2890 Y-13.9009
G01 X7.2583 Y-13.8861
G01 X7.2451 Y-13.8805
G01 X7.2085 Y-13.8675
G01 X7.1661 Y-13.8569
G01 X7.1230 Y-13.8505
G01 X7.0842 Y-13.8484
G01 X7.0698 Y-13.8485
G01 X7.0358 Y-13.8504
G01 X7.0020 Y-13.8551
G01 X6.9879 Y-13.8578
G01 X6.9503 Y-13.8673
G01 X6.9136 Y-13.8802
G01 X6.9004 Y-13.8859
G01 X6.8697 Y-13.9006
G01 X6.8403 Y-13.9179
G01 X6.8283 Y-13.9257
G01 X6.7971 Y-13.9490
G01 X6.7648 Y-13.9782
G01 X6.7385 Y-14.0069
G01 X6.7295 Y-14.0181
G01 X6.7093 Y-14.0456
G01 X6.6916 Y-14.0746
G01 X6.6846 Y-14.0872
G01 X6.6681 Y-14.1224
G01 X6.6548 Y-14.1589
G01 X6.6508 Y-14.1727
G01 X6.6427 Y-14.2058
G01 X6.6374 Y-14.2394
G01 X6.6358 Y-14.2537
G01 X6.6340 Y-14.2925
G01 X6.6314 Y-15.5529
G01 X6.5130 Y-15.5529
G01 X6.5130 Y-14.0020
G01 X6.5121 Y-13.9829
G01 X6.5093 Y-13.9640
G01 X6.5046 Y-13.9454
G01 X6.4982 Y-13.9274
G01 X6.4922 Y-13.9143
G01 X6.4827 Y-13.8977
G01 X6.4746 Y-13.8858
G01 X6.4657 Y-13.8746
G01 X6.4525 Y-13.8608
G01 X6.4417 Y-13.8513
G01 X6.4263 Y-13.8399
G01 X6.4099 Y-13.8300
G01 X6.3926 Y-13.8218
G01 X6.3792 Y-13.8168
G01 X6.3607 Y-13.8117
G01 X6.3466 Y-13.8091
G01 X6.3276 Y-13.8072
G00 Z1.0000
G00 X6.5130 Y-16.4511
G01 F60.00
G01 Z-0.0450
G01 F150.00
G01 X6.6314 Y-16.4511
G01 X6.6325 Y-17.0170
G01 X6.5130 Y-16.8975
G01 X6.5130 Y-16.4511
G00 Z1.0000
G00 X2.0669 Y-18.1959
G01 F60.00
G01 Z-0.0450
G01 F150.00
G01 X2.0275 Y-18.1223
G01 X2.0097 Y-18.0633
G01 X2.0015 Y-17.9806
G01 X2.0046 Y-16.4511
G01 X2.1230 Y-16.4511
G01 X2.1232 Y-18.0116
G01 X2.1245 Y-18.0259
G01 X2.1259 Y-18.0353
G01 X2.1288 Y-18.0494
G01 X2.1328 Y-18.0632
G01 X2.1378 Y-18.0766
G01 X2.1417 Y-18.0854
G01 X2.1483 Y-18.0981
G01 X2.1533 Y-18.1063
G01 X2.1614 Y-18.1182
G01 X2.1703 Y-18.1294
G01 X2.1801 Y-18.1399
G01 X2.1870 Y-18.1465
G01 X2.1943 Y-18.1527
G01 X2.2057 Y-18.1614
G01 X2.2137 Y-18.1667
G01 X2.2261 Y-18.1740
G01 X2.2346 Y-18.1783
G01 X2.2478 Y-18.1839
G01 X2.2614 Y-18.1886
G01 X2.2706 Y-18.1912
G01 X2.2800 Y-18.1933
G01 X2.2941 Y-18.1955
G01 X2.3084 Y-18.1968
G01 X2.3180 Y-18.1970
G01 X6.3228 Y-18.1969
G01 X6.3419 Y-18.1955
G01 X6.3560 Y-18.1933
G01 X6.3654 Y-18.1912
G01 X6.3792 Y-18.1872
G01 X6.3882 Y-18.1839
G01 X6.3970 Y-18.1803
G01 X6.4099 Y-18.1740
G01 X6.4182 Y-18.1693
G01 X6.4303 Y-18.1614
G01 X6.4454 Y-18.1497
G01 X6.4559 Y-18.1399
G01 X6.4625 Y-18.1330
G01 X6.4746 Y-18.1181
G01 X6.5636 Y-18.2071
G01 X6.5504 Y-18.2354
G01 X6.5387 Y-18.2675
G01 X6.5344 Y-18.2812
G01 X6.5261 Y-18.3142
G01 X6.5235 Y-18.3284
G01 X6.5187 Y-18.3621
G01 X6.5168 Y-18.3962
G01 X6.5166 Y-18.4106
G01 X6.5183 Y-18.4446
G01 X6.5260 Y-18.5239
G01 X6.5261 Y-18.6068
G01 X6.5278 Y-18.6409
G01 X6.5293 Y-18.6551
G01 X6.5346 Y-18.6888
G01 X6.5452 Y-18.7312
G01 X6.5599 Y-18.7723
G01 X6.5743 Y-18.8033
G01 X6.5809 Y-18.8160
G01 X6.6010 Y-18.8493
G01 X6.6212 Y-18.8768
G01 X6.6301 Y-18.8880
G01 X6.6531 Y-18.9133
G01 X6.6633 Y-18.9234
G01 X6.6888 Y-18.9461
G01 X6.7199 Y-18.9694
G01 X6.7319 Y-18.9772
G01 X6.7613 Y-18.9946
G01 X6.7964 Y-19.0114
G01 X6.8097 Y-19.0167
G01 X6.8419 Y-19.0280
G01 X6.8750 Y-19.0365
G01 X6.8890 Y-19.0394
G01 X6.9228 Y-19.0445
G01 X6.9371 Y-19.0457
G01 X6.9711 Y-19.0471
G01 X21.2020 Y-19.0471
G01 X21.2456 Y-19.0450
G01 X21.2888 Y-19.0386
G01 X21.3312 Y-19.0280
G01 X21.3634 Y-19.0167
G01 X21.3767 Y-19.0114
G01 X21.4033 Y-18.9989
G01 X21.4202 Y-18.9898
G01 X21.4453 Y-18.9747
G01 X21.4532 Y-18.9694
G01 X21.4768 Y-18.9520
G01 X21.4880 Y-18.9430
G01 X21.5168 Y-18.9168
G01 X21.5461 Y-18.8844
G01 X21.5721 Y-18.8493
G01 X21.5946 Y-18.8118
G01 X21.6132 Y-18.7723
G01 X21.6280 Y-18.7312
G01 X21.6386 Y-18.6888
G01 X21.6450 Y-18.6456
G01 X21.6471 Y-18.6020
G01 X21.6471 Y-17.1472
G01 X21.6450 Y-17.1084
G01 X21.6402 Y-17.0746
G01 X21.6376 Y-17.0605
G01 X21.6280 Y-17.0228
G01 X21.6150 Y-16.9861
G01 X21.6094 Y-16.9729
G01 X21.5946 Y-16.9422
G01 X21.5772 Y-16.9128
G01 X21.5694 Y-16.9008
G01 X21.5461 Y-16.8696
G01 X21.5234 Y-16.8442
G01 X21.5133 Y-16.8339
G01 X21.4880 Y-16.8110
G01 X21.4768 Y-16.8020
G01 X21.4493 Y-16.7819
G01 X21.4160 Y-16.7617
G01 X21.4033 Y-16.7551
G01 X21.3723 Y-16.7408
G01 X21.3312 Y-16.7260
G01 X21.2888 Y-16.7154
G01 X21.2504 Y-16.7095
G01 X21.2361 Y-16.7083
G01 X21.2020 Y-16.7069
G01 X20.5148 Y-16.7069
G01 X20.4759 Y-16.7086
G01 X20.4617 Y-16.7102
G01 X20.4327 Y-16.7146
G01 X20.4233 Y-16.7164
G01 X20.3948 Y-16.7235
G01 X20.3810 Y-16.7275
G01 X20.3534 Y-16.7373
G01 X20.3357 Y-16.7446
G01 X20.3092 Y-16.7572
G01 X20.3008 Y-16.7617
G01 X20.2756 Y-16.7768
G01 X20.2635 Y-16.7846
G01 X20.2361 Y-16.8049
G01 X20.1738 Y-16.8560
G01 X20.0950 Y-16.8982
G01 X20.0094 Y-16.9241
G01 X19.8986 Y-16.9350
G01 X19.2674 Y-16.9350
G01 X19.1566 Y-16.9241
G01 X19.0710 Y-16.8982
G01 X18.9922 Y-16.8560
G01 X18.9753 Y-16.8422
G01 X18.9479 Y-16.8219
G01 X18.9359 Y-16.8141
G01 X18.9065 Y-16.7967
G01 X18.8670 Y-16.7781
G01 X18.8259 Y-16.7634
G01 X18.7835 Y-16.7527
G01 X18.7403 Y-16.7463
G01 X18.6967 Y-16.7442
G01 X18.6578 Y-16.7459
G01 X18.6435 Y-16.7475
G01 X18.6098 Y-16.7527
G01 X18.5675 Y-16.7634
G01 X18.5263 Y-16.7781
G01 X18.4954 Y-16.7924
G01 X18.4826 Y-16.7991
G01 X18.4575 Y-16.8141
G01 X18.4454 Y-16.8219
G01 X18.4180 Y-16.8422
G01 X18.4070 Y-16.8515
G01 X18.3853 Y-16.8712
G01 X18.3753 Y-16.8815
G01 X18.3557 Y-16.9033
G01 X18.3178 Y-16.9493
G01 X18.2702 Y-16.9884
G01 X18.2158 Y-17.0175
G01 X18.1568 Y-17.0353
G01 X18.1293 Y-17.0381
G01 X18.1503 Y-16.9931
G01 X18.1703 Y-16.9379
G01 X18.1746 Y-16.9242
G01 X18.1878 Y-16.8720
G01 X18.1915 Y-16.8532
G01 X18.1994 Y-16.7999
G01 X18.2006 Y-16.7856
G01 X18.2028 Y-16.7418
G01 X18.2128 Y-16.7282
G01 X18.2181 Y-16.7202
G01 X18.2356 Y-16.6910
G01 X18.2423 Y-16.6782
G01 X18.2547 Y-16.6517
G01 X18.2584 Y-16.6429
G01 X18.2713 Y-16.6062
G01 X18.2799 Y-16.5732
G01 X18.2828 Y-16.5591
G01 X18.2884 Y-16.5206
G01 X18.2905 Y-16.4770
G01 X18.2905 Y-15.5270
G01 X18.2888 Y-15.4882
G01 X18.2878 Y-15.4786
G01 X18.2836 Y-15.4496
G01 X18.2799 Y-15.4308
G01 X18.2713 Y-15.3978
G01 X18.2566 Y-15.3567
G01 X18.2380 Y-15.3172
G01 X18.2206 Y-15.2879
G01 X18.2100 Y-15.2719
G01 X18.1925 Y-15.2484
G01 X18.1864 Y-15.2410
G01 X18.1602 Y-15.2123
G01 X18.1351 Y-15.1893
G01 X18.1203 Y-15.1771
G01 X18.0967 Y-15.1597
G01 X18.0887 Y-15.1544
G01 X18.0553 Y-15.1345
G01 X18.0202 Y-15.1178
G01 X18.0069 Y-15.1124
G01 X17.9792 Y-15.1026
G01 X17.9571 Y-15.0965
G01 X17.9571 Y-14.9618
G01 X18.0757 Y-14.9607
G01 X18.1568 Y-14.9687
G01 X18.2158 Y-14.9865
G01 X18.2702 Y-15.0156
G01 X18.3178 Y-15.0547
G01 X18.3557 Y-15.1007
G01 X18.3819 Y-15.1294
G01 X18.4143 Y-15.1588
G01 X18.4415 Y-15.1793
G01 X18.4534 Y-15.1874
G01 X18.4826 Y-15.2049
G01 X18.4954 Y-15.2116
G01 X18.5263 Y-15.2259
G01 X18.5584 Y-15.2376
G01 X18.5721 Y-15.2420
G01 X18.6098 Y-15.2513
G01 X18.6530 Y-15.2577
G01 X18.6967 Y-15.2598
G01 X18.7403 Y-15.2577
G01 X18.7835 Y-15.2513
G01 X18.8213 Y-15.2420
G01 X18.8350 Y-15.2376
G01 X18.8626 Y-15.2277
G01 X18.8714 Y-15.2240
G01 X18.8980 Y-15.2116
G01 X18.9107 Y-15.2049
G01 X18.9359 Y-15.1899
G01 X18.9479 Y-15.1821
G01 X18.9753 Y-15.1618
G01 X18.9922 Y-15.1480
G01 X19.0710 Y-15.1058
G01 X19.1566 Y-15.0799
G01 X19.2674 Y-15.0690
G01 X19.8986 Y-15.0690
G01 X20.0094 Y-15.0799
G01 X20.0950 Y-15.1058
G01 X20.1738 Y-15.1480
G01 X20.2361 Y-15.1991
G01 X20.2597 Y-15.2166
G01 X20.2756 Y-15.2272
G01 X20.3008 Y-15.2423
G01 X20.3092 Y-15.2468
G01 X20.3444 Y-15.2632
G01 X20.3856 Y-15.2780
G01 X20.4280 Y-15.2886
G01 X20.4617 Y-15.2938
G01 X20.4759 Y-15.2954
G01 X20.5148 Y-15.2971
G01 X21.4727 Y-15.2969
G01 X21.5020 Y-15.2954
G01 X21.5163 Y-15.2938
G01 X21.5500 Y-15.2886
G01 X21.5832 Y-15.2805
G01 X21.5969 Y-15.2765
G01 X21.6291 Y-15.2650
G01 X21.6423 Y-15.2594
G01 X21.6687 Y-15.2468
G01 X21.6813 Y-15.2398
G01 X21.7105 Y-15.2221
G01 X21.8901 Y-15.1021
G01 X21.9176 Y-15.0820
G01 X21.9288 Y-15.0730
G01 X21.9575 Y-15.0468
G01 X21.9868 Y-15.0144
G01 X22.0129 Y-14.9793
G01 X22.0353 Y-14.9418
G01 X22.0540 Y-14.9023
G01 X22.0687 Y-14.8612
G01 X22.0793 Y-14.8188
G01 X22.0852 Y-14.7804
G01 X22.0864 Y-14.7661
G01 X22.0879 Y-14.7320
G01 X22.0862 Y-14.6931
G01 X22.0846 Y-14.6789
G01 X22.0802 Y-14.6499
G01 X22.0783 Y-14.6405
G01 X22.0713 Y-14.6120
G01 X22.0673 Y-14.5982
G01 X22.0558 Y-14.5661
G01 X22.0521 Y-14.5573
G01 X22.0396 Y-14.5307
G01 X22.0330 Y-14.5180
G01 X22.0180 Y-14.4928
G01 X22.0074 Y-14.4769
G01 X21.9868 Y-14.4496
G01 X21.9609 Y-14.4207
G01 X21.9506 Y-14.4106
G01 X21.9288 Y-14.3910
G01 X21.9214 Y-14.3849
G01 X21.8901 Y-14.3619
G01 X21.7114 Y-14.2425
G01 X21.5715 Y-14.1026
G01 X21.4615 Y-13.9380
G01 X21.3857 Y-13.7551
G01 X21.3471 Y-13.5610
G01 X21.3471 Y-13.3630
G01 X21.3857 Y-13.1689
G01 X21.4615 Y-12.9860
G01 X21.5715 Y-12.8214
G01 X21.7114 Y-12.6815
G01 X21.8901 Y-12.5621
G01 X21.9176 Y-12.5420
G01 X21.9288 Y-12.5330
G01 X21.9541 Y-12.5101
G01 X21.9641 Y-12.4998
G01 X21.9838 Y-12.4780
G01 X21.9927 Y-12.4668
G01 X22.0129 Y-12.4393
G01 X22.0330 Y-12.4060
G01 X22.0396 Y-12.3933
G01 X22.0540 Y-12.3623
G01 X22.0673 Y-12.3258
G01 X22.0700 Y-12.3166
G01 X22.0772 Y-12.2882
G01 X22.0802 Y-12.2741
G01 X22.0857 Y-12.2356
G01 X22.0879 Y-12.1920
G01 X22.0857 Y-12.1484
G01 X22.0802 Y-12.1099
G01 X22.0772 Y-12.0958
G01 X22.0700 Y-12.0674
G01 X22.0673 Y-12.0582
G01 X22.0574 Y-12.0306
G01 X22.0521 Y-12.0173
G01 X22.0396 Y-11.9907
G01 X22.0306 Y-11.9738
G01 X22.0129 Y-11.9447
G01 X21.9868 Y-11.9096
G01 X21.9575 Y-11.8772
G01 X21.9324 Y-11.8542
G01 X21.9214 Y-11.8449
G01 X21.8940 Y-11.8246
G01 X21.7114 Y-11.7025
G01 X21.5715 Y-11.5626
G01 X21.4615 Y-11.3980
G01 X21.3857 Y-11.2151
G01 X21.3471 Y-11.0210
G01 X21.3471 Y-10.8230
G01 X21.3857 Y-10.6289
G01 X21.4615 Y-10.4460
G01 X21.5715 Y-10.2814
G01 X21.7114 Y-10.1415
G01 X21.8940 Y-10.0194
G01 X21.9251 Y-9.9961
G01 X21.9541 Y-9.9701
G01 X21.9641 Y-9.9598
G01 X21.9868 Y-9.9344
G01 X22.0129 Y-9.8993
G01 X22.0353 Y-9.8618
G01 X22.0521 Y-9.8267
G01 X22.0574 Y-9.8134
G01 X22.0687 Y-9.7812
G01 X22.0793 Y-9.7388
G01 X22.0857 Y-9.6956
G01 X22.0879 Y-9.6520
G01 X22.0857 Y-9.6084
G01 X22.0793 Y-9.5652
G01 X22.0687 Y-9.5228
G01 X22.0574 Y-9.4906
G01 X22.0521 Y-9.4773
G01 X22.0353 Y-9.4422
G01 X22.0129 Y-9.4047
G01 X21.9868 Y-9.3696
G01 X21.9641 Y-9.3442
G01 X21.9541 Y-9.3339
G01 X21.9251 Y-9.3079
G01 X21.8940 Y-9.2846
G01 X21.7114 Y-9.1625
G01 X21.5715 Y-9.0226
G01 X21.4615 Y-8.8580
G01 X21.3857 Y-8.6751
G01 X21.3459 Y-8.4751
G01 X21.3363 Y-8.4375
G01 X21.3250 Y-8.4053
G01 X21.3197 Y-8.3919
G01 X21.3072 Y-8.3654
G01 X21.2982 Y-8.3485
G01 X21.2830 Y-8.3234
G01 X21.2777 Y-8.3154
G01 X21.2603 Y-8.2918
G01 X21.2513 Y-8.2806
G01 X21.2251 Y-8.2519
G01 X19.6075 Y-6.6344
G01 X19.5824 Y-6.6113
G01 X19.5652 Y-6.5968
G01 X19.4771 Y-6.4895
G01 X19.4116 Y-6.3670
G01 X19.3713 Y-6.2342
G01 X19.3577 Y-6.0960
G01 X19.3597 Y-6.0736
G01 X19.3611 Y-6.0395
G01 X19.3611 Y-5.4509
G01 X19.3590 Y-5.4072
G01 X19.3534 Y-5.3687
G01 X19.3516 Y-5.3593
G01 X19.3445 Y-5.3309
G01 X19.3390 Y-5.3126
G01 X19.3272 Y-5.2805
G01 X19.3086 Y-5.2410
G01 X19.2887 Y-5.2076
G01 X19.2806 Y-5.1957
G01 X19.2601 Y-5.1685
G01 X19.2341 Y-5.1395
G01 X19.2238 Y-5.1295
G01 X19.1984 Y-5.1068
G01 X19.1633 Y-5.0808
G01 X19.1258 Y-5.0583
G01 X19.0908 Y-5.0415
G01 X19.0774 Y-5.0362
G01 X19.0498 Y-5.0263
G01 X19.0360 Y-5.0223
G01 X19.0029 Y-5.0143
G01 X18.9692 Y-5.0090
G01 X18.9549 Y-5.0075
G01 X18.9208 Y-5.0058
G01 X18.9065 Y-5.0060
G01 X18.8772 Y-5.0075
G01 X18.8629 Y-5.0090
G01 X18.8292 Y-5.0143
G01 X18.7868 Y-5.0249
G01 X18.7457 Y-5.0396
G01 X18.7104 Y-5.0561
G01 X18.6979 Y-5.0630
G01 X18.6727 Y-5.0781
G01 X18.6648 Y-5.0834
G01 X18.6412 Y-5.1009
G01 X18.6336 Y-5.1067
G01 X18.6233 Y-5.1158
G01 X18.5507 Y-5.1754
G01 X18.4963 Y-5.2045
G01 X18.4373 Y-5.2223
G01 X18.3554 Y-5.2304
G01 X17.9751 Y-5.2283
G01 X17.9751 Y-5.1090
G01 X18.3760 Y-5.1090
G01 X18.3951 Y-5.1081
G01 X18.4093 Y-5.1061
G01 X18.4187 Y-5.1043
G01 X18.4326 Y-5.1006
G01 X18.4417 Y-5.0976
G01 X18.4550 Y-5.0923
G01 X18.4637 Y-5.0882
G01 X18.4721 Y-5.0837
G01 X18.4843 Y-5.0761
G01 X18.4960 Y-5.0677
G01 X18.5034 Y-5.0617
G01 X18.5105 Y-5.0552
G01 X18.5205 Y-5.0450
G01 X18.5297 Y-5.0340
G01 X18.5354 Y-5.0263
G01 X18.5407 Y-5.0183
G01 X18.5480 Y-5.0059
G01 X18.5523 Y-4.9974
G01 X18.5579 Y-4.9842
G01 X18.5639 Y-4.9660
G01 X18.5681 Y-4.9473
G01 X18.5701 Y-4.9331
G01 X18.5710 Y-4.9140
G01 X18.5710 Y-3.6485
G01 X18.8903 Y-3.3292
G01 X18.9065 Y-3.3369
G01 X18.9153 Y-3.3405
G01 X18.9429 Y-3.3504
G01 X18.9566 Y-3.3548
G01 X18.9944 Y-3.3641
G01 X19.0281 Y-3.3693
G01 X19.0424 Y-3.3709
G01 X19.0812 Y-3.3726
G01 X19.1248 Y-3.3705
G01 X19.1680 Y-3.3641
G01 X19.2104 Y-3.3534
G01 X19.2471 Y-3.3405
G01 X19.2603 Y-3.3348
G01 X19.2910 Y-3.3200
G01 X19.3245 Y-3.3002
G01 X19.3363 Y-3.2921
G01 X19.3636 Y-3.2716
G01 X19.3934 Y-3.2448
G01 X19.5663 Y-3.1292
G01 X19.7583 Y-3.0497
G01 X19.9621 Y-3.0091
G01 X20.1699 Y-3.0091
G01 X20.3737 Y-3.0497
G01 X20.5657 Y-3.1292
G01 X20.7384 Y-3.2446
G01 X20.8854 Y-3.3916
G01 X21.0008 Y-3.5643
G01 X21.0803 Y-3.7563
G01 X21.1209 Y-3.9601
G01 X21.1209 Y-4.1679
G01 X21.0803 Y-4.3717
G01 X21.0008 Y-4.5637
G01 X20.8821 Y-4.7414
G01 X20.8689 Y-4.7567
G01 X20.8459 Y-4.7880
G01 X20.8282 Y-4.8172
G01 X20.8212 Y-4.8297
G01 X20.8048 Y-4.8650
G01 X20.7900 Y-4.9061
G01 X20.7794 Y-4.9485
G01 X20.7735 Y-4.9869
G01 X20.7723 Y-5.0012
G01 X20.7709 Y-5.0353
G01 X20.7709 Y-5.6197
G01 X20.7726 Y-5.6585
G01 X20.7742 Y-5.6728
G01 X20.7794 Y-5.7065
G01 X20.7887 Y-5.7443
G01 X20.7930 Y-5.7580
G01 X20.8048 Y-5.7900
G01 X20.8191 Y-5.8209
G01 X20.8257 Y-5.8337
G01 X20.8459 Y-5.8670
G01 X20.8719 Y-5.9020
G01 X20.9012 Y-5.9344
G01 X22.2219 Y-7.2551
G01 X22.2506 Y-7.2813
G01 X22.2618 Y-7.2903
G01 X22.2854 Y-7.3077
G01 X22.2934 Y-7.3130
G01 X22.3185 Y-7.3282
G01 X22.3354 Y-7.3372
G01 X22.3619 Y-7.3497
G01 X22.3753 Y-7.3550
G01 X22.4075 Y-7.3663
G01 X22.4451 Y-7.3759
G01 X22.6451 Y-7.4157
G01 X22.8280 Y-7.4915
G01 X22.9926 Y-7.6015
G01 X23.1325 Y-7.7414
G01 X23.2425 Y-7.9060
G01 X23.3183 Y-8.0889
G01 X23.3569 Y-8.2830
G01 X23.3569 Y-8.4810
G01 X23.3183 Y-8.6751
G01 X23.2425 Y-8.8580
G01 X23.1325 Y-9.0226
G01 X22.9926 Y-9.1625
G01 X22.8139 Y-9.2819
G01 X22.7826 Y-9.3049
G01 X22.7716 Y-9.3142
G01 X22.7465 Y-9.3372
G01 X22.7202 Y-9.3660
G01 X22.7113 Y-9.3772
G01 X22.6911 Y-9.4047
G01 X22.6710 Y-9.4380
G01 X22.6665 Y-9.4464
G01 X22.6539 Y-9.4729
G01 X22.6482 Y-9.4861
G01 X22.6353 Y-9.5228
G01 X22.6268 Y-9.5558
G01 X22.6230 Y-9.5746
G01 X22.6188 Y-9.6036
G01 X22.6178 Y-9.6131
G01 X22.6161 Y-9.6520
G01 X22.6183 Y-9.6956
G01 X22.6247 Y-9.7388
G01 X22.6353 Y-9.7812
G01 X22.6500 Y-9.8223
G01 X22.6687 Y-9.8618
G01 X22.6911 Y-9.8993
G01 X22.7142 Y-9.9306
G01 X22.7202 Y-9.9380
G01 X22.7399 Y-9.9598
G01 X22.7534 Y-9.9734
G01 X22.7789 Y-9.9961
G01 X22.8100 Y-10.0194
G01 X22.9975 Y-10.1447
G01 X23.0310 Y-10.1646
G01 X23.0661 Y-10.1814
G01 X23.0794 Y-10.1867
G01 X23.1116 Y-10.1980
G01 X23.1540 Y-10.2086
G01 X23.1972 Y-10.2150
G01 X23.2360 Y-10.2171
G01 X24.5815 Y-10.2171
G01 X24.6204 Y-10.2154
G01 X24.6555 Y-10.2120
G01 X24.6987 Y-10.2056
G01 X24.7365 Y-10.1963
G01 X24.7502 Y-10.1920
G01 X24.7822 Y-10.1803
G01 X24.8132 Y-10.1659
G01 X24.8259 Y-10.1593
G01 X24.8592 Y-10.1391
G01 X24.8943 Y-10.1131
G01 X24.9232 Y-10.0871
G01 X24.9332 Y-10.0768
G01 X24.9560 Y-10.0514
G01 X24.9765 Y-10.0241
G01 X24.9846 Y-10.0123
G01 X25.0021 Y-9.9830
G01 X25.0088 Y-9.9703
G01 X25.0231 Y-9.9394
G01 X25.0364 Y-9.9028
G01 X25.0404 Y-9.8890
G01 X25.0485 Y-9.8558
G01 X25.0537 Y-9.8221
G01 X25.0553 Y-9.8079
G01 X25.0570 Y-9.7690
G01 X25.0549 Y-9.7254
G01 X25.0485 Y-9.6822
G01 X25.0392 Y-9.6444
G01 X25.0109 Y-9.5509
G01 X25.0000 Y-9.4401
G01 X25.0000 Y-8.7839
G01 X25.0109 Y-8.6731
G01 X25.0368 Y-8.5875
G01 X25.0790 Y-8.5087
G01 X25.1401 Y-8.4342
G01 X25.1480 Y-8.4267
G01 X25.1546 Y-8.4198
G01 X25.1743 Y-8.3980
G01 X25.1803 Y-8.3906
G01 X25.1978 Y-8.3671
G01 X25.2060 Y-8.3553
G01 X25.2235 Y-8.3260
G01 X25.2301 Y-8.3133
G01 X25.2426 Y-8.2867
G01 X25.2479 Y-8.2734
G01 X25.2592 Y-8.2412
G01 X25.2677 Y-8.2082
G01 X25.2707 Y-8.1941
G01 X25.2762 Y-8.1556
G01 X25.2784 Y-8.1120
G01 X25.2762 Y-8.0684
G01 X25.2707 Y-8.0299
G01 X25.2677 Y-8.0158
G01 X25.2592 Y-7.9828
G01 X25.2479 Y-7.9506
G01 X25.2426 Y-7.9373
G01 X25.2301 Y-7.9107
G01 X25.2235 Y-7.8980
G01 X25.2060 Y-7.8687
G01 X25.1978 Y-7.8569
G01 X25.1803 Y-7.8334
G01 X25.1743 Y-7.8260
G01 X25.1546 Y-7.8042
G01 X25.1480 Y-7.7973
G01 X25.1401 Y-7.7898
G01 X25.0790 Y-7.7153
G01 X25.0368 Y-7.6365
G01 X25.0109 Y-7.5509
G01 X25.0000 Y-7.4401
G01 X25.0000 Y-6.7839
G01 X25.0109 Y-6.6731
G01 X25.0368 Y-6.5875
G01 X25.0790 Y-6.5087
G01 X25.1357 Y-6.4397
G01 X25.2047 Y-6.3830
G01 X25.2835 Y-6.3408
G01 X25.3691 Y-6.3149
G01 X25.4799 Y-6.3040
G01 X26.3361 Y-6.3040
G01 X26.4469 Y-6.3149
G01 X26.5325 Y-6.3408
G01 X26.5858 Y-6.3693
G01 X26.6123 Y-6.3819
G01 X26.6254 Y-6.3875
G01 X26.6576 Y-6.3990
G01 X26.6714 Y-6.4030
G01 X26.7045 Y-6.4111
G01 X26.7461 Y-6.4173
G01 X26.8790 Y-6.4576
G01 X27.0015 Y-6.5231
G01 X27.1088 Y-6.6112
G01 X27.1233 Y-6.6284
G01 X27.1464 Y-6.6535
G01 X27.6998 Y-7.2069
G01 X27.7287 Y-7.2329
G01 X27.7599 Y-7.2562
G01 X27.7678 Y-7.2615
G01 X27.7930 Y-7.2766
G01 X27.8099 Y-7.2857
G01 X27.8408 Y-7.3000
G01 X27.8819 Y-7.3147
G01 X27.9243 Y-7.3254
G01 X27.9580 Y-7.3306
G01 X27.9770 Y-7.3325
G01 X28.0063 Y-7.3339
G01 X28.0159 Y-7.3339
G01 X28.0548 Y-7.3318
G01 X28.0885 Y-7.3270
G01 X28.1073 Y-7.3233
G01 X28.1357 Y-7.3161
G01 X28.1449 Y-7.3133
G01 X28.1815 Y-7.3000
G01 X28.2167 Y-7.2836
G01 X28.2252 Y-7.2790
G01 X28.2503 Y-7.2640
G01 X28.2663 Y-7.2534
G01 X28.2935 Y-7.2329
G01 X28.3225 Y-7.2069
G01 X28.3325 Y-7.1966
G01 X28.3552 Y-7.1712
G01 X28.3812 Y-7.1361
G01 X28.4037 Y-7.0986
G01 X28.4205 Y-7.0635
G01 X28.4258 Y-7.0502
G01 X28.4356 Y-7.0226
G01 X28.4396 Y-7.0088
G01 X28.4477 Y-6.9756
G01 X28.4529 Y-6.9419
G01 X28.4545 Y-6.9277
G01 X28.4562 Y-6.8936
G01 X28.4560 Y-6.8792
G01 X28.4545 Y-6.8499
G01 X28.4529 Y-6.8357
G01 X28.4486 Y-6.8067
G01 X28.4467 Y-6.7973
G01 X28.4396 Y-6.7688
G01 X28.4341 Y-6.7505
G01 X28.4242 Y-6.7229
G01 X28.4205 Y-6.7140
G01 X28.4059 Y-6.6832
G01 X28.3646 Y-6.6059
G01 X28.3471 Y-6.5767
G01 X28.3167 Y-6.5311
G01 X28.2937 Y-6.4762
G01 X28.2811 Y-6.4498
G01 X28.2554 Y-6.4015
G01 X28.2394 Y-6.3491
G01 X28.2296 Y-6.3215
G01 X28.2070 Y-6.2664
G01 X28.1952 Y-6.2080
G01 X28.1880 Y-6.1796
G01 X28.1722 Y-6.1272
G01 X28.1668 Y-6.0727
G01 X28.1625 Y-6.0437
G01 X28.1511 Y-5.9853
G01 X28.1509 Y-5.9258
G01 X28.1494 Y-5.8965
G01 X28.1441 Y-5.8420
G01 X28.1494 Y-5.7875
G01 X28.1509 Y-5.7582
G01 X28.1511 Y-5.6987
G01 X28.1625 Y-5.6403
G01 X28.1668 Y-5.6113
G01 X28.1722 Y-5.5568
G01 X28.1880 Y-5.5044
G01 X28.1952 Y-5.4760
G01 X28.2070 Y-5.4176
G01 X28.2296 Y-5.3625
G01 X28.2394 Y-5.3349
G01 X28.2554 Y-5.2825
G01 X28.2811 Y-5.2342
G01 X28.2937 Y-5.2078
G01 X28.3167 Y-5.1529
G01 X28.3471 Y-5.1073
G01 X28.3622 Y-5.0822
G01 X28.3905 Y-5.0298
G01 X28.4280 Y-4.9836
G01 X28.4455 Y-4.9600
G01 X28.4759 Y-4.9146
G01 X28.5178 Y-4.8723
G01 X28.5375 Y-4.8505
G01 X28.5723 Y-4.8083
G01 X28.6145 Y-4.7735
G01 X28.6363 Y-4.7538
G01 X28.6786 Y-4.7119
G01 X28.7240 Y-4.6815
G01 X28.7476 Y-4.6640
G01 X28.7938 Y-4.6265
G01 X28.8462 Y-4.5982
G01 X28.8713 Y-4.5831
G01 X28.9169 Y-4.5527
G01 X28.9718 Y-4.5297
G01 X28.9982 Y-4.5171
G01 X29.0465 Y-4.4914
G01 X29.0989 Y-4.4754
G01 X29.1265 Y-4.4656
G01 X29.1816 Y-4.4430
G01 X29.2400 Y-4.4312
G01 X29.2684 Y-4.4240
G01 X29.3208 Y-4.4082
G01 X29.3753 Y-4.4028
G01 X29.4043 Y-4.3985
G01 X29.4627 Y-4.3871
G01 X35.4493 Y-4.3871
G01 X35.5077 Y-4.3985
G01 X35.5367 Y-4.4028
G01 X35.5912 Y-4.4082
G01 X35.6436 Y-4.4240
G01 X35.6720 Y-4.4312
G01 X35.7304 Y-4.4430
G01 X35.7855 Y-4.4656
G01 X35.8131 Y-4.4754
G01 X35.8655 Y-4.4914
G01 X35.9138 Y-4.5171
G01 X35.9402 Y-4.5297
G01 X35.9951 Y-4.5527
G01 X36.0407 Y-4.5831
G01 X36.0658 Y-4.5982
G01 X36.1182 Y-4.6265
G01 X36.1644 Y-4.6640
G01 X36.1880 Y-4.6815
G01 X36.2334 Y-4.7119
G01 X36.4361 Y-4.9146
G01 X36.4665 Y-4.9600
G01 X36.4840 Y-4.9836
G01 X36.5215 Y-5.0298
G01 X36.5498 Y-5.0822
G01 X36.5649 Y-5.1073
G01 X36.5953 Y-5.1529
G01 X36.6183 Y-5.2078
G01 X36.6309 Y-5.2342
G01 X36.6566 Y-5.2825
G01 X36.6726 Y-5.3349
G01 X36.6824 Y-5.3625
G01 X36.7050 Y-5.4176
G01 X36.7104 Y-5.4436
G01 X36.7175 Y-5.4720
G01 X36.7203 Y-5.4812
G01 X36.7336 Y-5.5177
G01 X36.7480 Y-5.5487
G01 X36.7570 Y-5.5655
G01 X36.7721 Y-5.5907
G01 X36.7774 Y-5.5986
G01 X36.8008 Y-5.6298
G01 X36.8235 Y-5.6552
G01 X40.4187 Y-9.2507
G01 X40.4474 Y-9.2770
G01 X40.4801 Y-9.3039
G01 X40.6307 Y-9.4874
G01 X40.7425 Y-9.6967
G01 X40.8114 Y-9.9238
G01 X40.8347 Y-10.1600
G01 X40.8306 Y-10.2022
G01 X40.8289 Y-10.2410
G01 X40.8289 Y-12.4678
G01 X40.8310 Y-12.5113
G01 X40.8358 Y-12.5451
G01 X40.8395 Y-12.5638
G01 X40.8467 Y-12.5922
G01 X40.8494 Y-12.6014
G01 X40.8627 Y-12.6379
G01 X40.8770 Y-12.6688
G01 X40.8836 Y-12.6816
G01 X40.9037 Y-12.7148
G01 X40.9267 Y-12.7461
G01 X40.9359 Y-12.7571
G01 X40.9590 Y-12.7822
G01 X40.9840 Y-12.8053
G01 X40.9950 Y-12.8146
G01 X41.0263 Y-12.8376
G01 X41.0595 Y-12.8578
G01 X41.0722 Y-12.8644
G01 X41.1031 Y-12.8788
G01 X41.1396 Y-12.8921
G01 X41.1534 Y-12.8961
G01 X41.1818 Y-12.9032
G01 X41.1912 Y-12.9051
G01 X41.2249 Y-12.9101
G01 X41.2392 Y-12.9114
G01 X41.2732 Y-12.9129
G01 X41.3073 Y-12.9115
G01 X41.3215 Y-12.9103
G01 X41.3600 Y-12.9045
G01 X41.4023 Y-12.8940
G01 X41.4434 Y-12.8794
G01 X41.4787 Y-12.8630
G01 X41.6833 Y-12.7543
G01 X41.7149 Y-12.7448
G01 X41.7149 Y-12.8623
G01 X41.6978 Y-12.8694
G01 X41.6004 Y-12.9157
G01 X41.4998 Y-12.9760
G01 X41.4056 Y-13.0459
G01 X41.3187 Y-13.1247
G01 X41.2399 Y-13.2116
G01 X41.1700 Y-13.3058
G01 X41.1097 Y-13.4064
G01 X41.0634 Y-13.5038
G01 X41.0561 Y-13.5214
G01 X41.0230 Y-13.6139
G01 X41.0174 Y-13.6322
G01 X40.9915 Y-13.7368
G01 X40.9748 Y-13.8481
G01 X40.9736 Y-13.8624
G01 X40.9686 Y-13.9652
G01 X40.9685 Y-14.3289
G01 X40.4312 Y-14.8662
G01 X40.2966 Y-14.9767
G01 X40.0873 Y-15.0885
G01 X39.8602 Y-15.1574
G01 X39.6240 Y-15.1807
G01 X39.3878 Y-15.1574
G01 X39.1607 Y-15.0885
G01 X38.9514 Y-14.9767
G01 X38.8900 Y-14.9264
G01 X38.8586 Y-14.9033
G01 X38.8212 Y-14.8809
G01 X38.7817 Y-14.8622
G01 X38.7405 Y-14.8475
G01 X38.6982 Y-14.8369
G01 X38.6550 Y-14.8305
G01 X38.6113 Y-14.8283
G01 X38.5725 Y-14.8300
G01 X38.5582 Y-14.8316
G01 X38.5245 Y-14.8369
G01 X38.4913 Y-14.8449
G01 X38.4776 Y-14.8489
G01 X38.4410 Y-14.8622
G01 X38.4058 Y-14.8787
G01 X38.3932 Y-14.8856
G01 X38.3640 Y-14.9033
G01 X38.3327 Y-14.9264
G01 X38.3253 Y-14.9324
G01 X38.3035 Y-14.9521
G01 X38.2932 Y-14.9621
G01 X38.2672 Y-14.9911
G01 X38.2439 Y-15.0222
G01 X38.2386 Y-15.0302
G01 X38.2235 Y-15.0553
G01 X38.2077 Y-15.0844
G01 X38.1821 Y-15.1156
G01 X38.1509 Y-15.1412
G01 X38.1153 Y-15.1602
G01 X38.0767 Y-15.1719
G01 X38.0146 Y-15.1780
G01 X37.4608 Y-15.1780
G01 X37.4219 Y-15.1798
G01 X37.4124 Y-15.1807
G01 X37.3834 Y-15.1849
G01 X37.3646 Y-15.1887
G01 X37.3362 Y-15.1959
G01 X37.2582 Y-15.2194
G01 X37.0220 Y-15.2427
G01 X36.9798 Y-15.2386
G01 X36.9410 Y-15.2369
G01 X33.4688 Y-15.2369
G01 X33.2918 Y-15.2194
G01 X33.0647 Y-15.1505
G01 X32.8554 Y-15.0387
G01 X32.6719 Y-14.8881
G01 X32.5213 Y-14.7046
G01 X32.4095 Y-14.4953
G01 X32.3406 Y-14.2682
G01 X32.3170 Y-14.0286
G01 X32.3179 Y-14.0080
G01 X32.3179 Y-13.9984
G01 X32.3158 Y-13.9596
G01 X32.3094 Y-13.9164
G01 X32.3014 Y-13.8832
G01 X32.2974 Y-13.8694
G01 X32.2859 Y-13.8373
G01 X32.2802 Y-13.8241
G01 X32.2654 Y-13.7934
G01 X32.2481 Y-13.7640
G01 X32.2403 Y-13.7520
G01 X32.2169 Y-13.7208
G01 X32.1876 Y-13.6884
G01 X27.5725 Y-9.0734
G01 X27.5435 Y-9.0474
G01 X27.5163 Y-9.0269
G01 X27.5044 Y-9.0188
G01 X27.4710 Y-8.9989
G01 X27.4359 Y-8.9821
G01 X27.4226 Y-8.9768
G01 X27.3904 Y-8.9655
G01 X27.3573 Y-8.9570
G01 X27.3433 Y-8.9540
G01 X27.3048 Y-8.9485
G01 X27.2659 Y-8.9464
G01 X27.2516 Y-8.9466
G01 X27.2175 Y-8.9485
G01 X27.1790 Y-8.9540
G01 X27.1696 Y-8.9559
G01 X27.1412 Y-8.9630
G01 X27.1274 Y-8.9670
G01 X27.0908 Y-8.9802
G01 X27.0513 Y-8.9989
G01 X27.0138 Y-9.0214
G01 X26.9788 Y-9.0474
G01 X26.9464 Y-9.0767
G01 X26.9171 Y-9.1091
G01 X26.8910 Y-9.1442
G01 X26.8733 Y-9.1733
G01 X26.8664 Y-9.1859
G01 X26.8499 Y-9.2211
G01 X26.8382 Y-9.2532
G01 X26.8339 Y-9.2669
G01 X26.8246 Y-9.3046
G01 X26.8193 Y-9.3384
G01 X26.8178 Y-9.3526
G01 X26.8161 Y-9.3867
G01 X26.8160 Y-9.4401
G01 X26.8051 Y-9.5509
G01 X26.7792 Y-9.6365
G01 X26.7370 Y-9.7153
G01 X26.7109 Y-9.7472
G01 X26.6879 Y-9.7785
G01 X26.6654 Y-9.8160
G01 X26.6486 Y-9.8511
G01 X26.6433 Y-9.8644
G01 X26.6320 Y-9.8966
G01 X26.6224 Y-9.9343
G01 X26.6198 Y-9.9484
G01 X26.6155 Y-9.9774
G01 X26.6146 Y-9.9870
G01 X26.6131 Y-10.0163
G01 X26.6129 Y-11.2782
G01 X26.6150 Y-11.3218
G01 X26.6214 Y-11.3650
G01 X26.6320 Y-11.4074
G01 X26.6468 Y-11.4485
G01 X26.6611 Y-11.4795
G01 X26.6702 Y-11.4963
G01 X26.6853 Y-11.5215
G01 X26.6906 Y-11.5294
G01 X26.7109 Y-11.5568
G01 X26.7370 Y-11.5887
G01 X26.7792 Y-11.6675
G01 X26.8051 Y-11.7531
G01 X26.8160 Y-11.8639
G01 X26.8160 Y-12.5201
G01 X26.8051 Y-12.6309
G01 X26.7792 Y-12.7165
G01 X26.7200 Y-12.8277
G01 X26.7056 Y-12.8587
G01 X26.6909 Y-12.8998
G01 X26.6803 Y-12.9422
G01 X26.6738 Y-12.9854
G01 X26.6717 Y-13.0290
G01 X26.6734 Y-13.0679
G01 X26.6750 Y-13.0821
G01 X26.6803 Y-13.1158
G01 X26.6909 Y-13.1582
G01 X26.7056 Y-13.1993
G01 X26.7200 Y-13.2303
G01 X26.7266 Y-13.2430
G01 X26.7467 Y-13.2763
G01 X26.7727 Y-13.3114
G01 X26.8021 Y-13.3438
G01 X26.8300 Y-13.3693
G01 X26.8694 Y-13.4173
G01 X26.8985 Y-13.4717
G01 X26.9163 Y-13.5307
G01 X26.9243 Y-13.6119
G01 X26.9232 Y-13.7429
G01 X26.7916 Y-13.7429
G01 X26.7838 Y-13.7128
G01 X26.7709 Y-13.6761
G01 X26.7652 Y-13.6630
G01 X26.7527 Y-13.6365
G01 X26.7481 Y-13.6280
G01 X26.7280 Y-13.5948
G01 X26.7079 Y-13.5672
G01 X26.6989 Y-13.5560
G01 X26.6727 Y-13.5273
G01 X26.6440 Y-13.5011
G01 X26.6328 Y-13.4921
G01 X26.6052 Y-13.4720
G01 X26.5678 Y-13.4495
G01 X26.5327 Y-13.4328
G01 X26.5194 Y-13.4274
G01 X26.4872 Y-13.4162
G01 X26.4495 Y-13.4065
G01 X26.4354 Y-13.4039
G01 X26.4016 Y-13.3991
G01 X26.3580 Y-13.3970
G01 X25.4580 Y-13.3970
G01 X25.4144 Y-13.3991
G01 X25.3806 Y-13.4039
G01 X25.3618 Y-13.4076
G01 X25.3334 Y-13.4148
G01 X25.3197 Y-13.4192
G01 X25.2877 Y-13.4309
G01 X25.2482 Y-13.4495
G01 X25.2108 Y-13.4720
G01 X25.1794 Y-13.4950
G01 X25.1720 Y-13.5011
G01 X25.1503 Y-13.5207
G01 X25.1367 Y-13.5343
G01 X25.1171 Y-13.5560
G01 X25.1110 Y-13.5634
G01 X25.0935 Y-13.5869
G01 X25.0854 Y-13.5988
G01 X25.0655 Y-13.6322
G01 X25.0469 Y-13.6717
G01 X25.0322 Y-13.7128
G01 X25.0244 Y-13.7429
G01 X24.8928 Y-13.7429
G01 X24.8917 Y-13.6119
G01 X24.8997 Y-13.5307
G01 X24.9175 Y-13.4717
G01 X24.9466 Y-13.4173
G01 X24.9860 Y-13.3693
G01 X25.0139 Y-13.3438
G01 X25.0433 Y-13.3114
G01 X25.0693 Y-13.2763
G01 X25.0894 Y-13.2430
G01 X25.0960 Y-13.2303
G01 X25.1104 Y-13.1993
G01 X25.1251 Y-13.1582
G01 X25.1357 Y-13.1158
G01 X25.1410 Y-13.0821
G01 X25.1426 Y-13.0679
G01 X25.1443 Y-13.0290
G01 X25.1422 Y-12.9854
G01 X25.1357 Y-12.9422
G01 X25.1251 Y-12.8998
G01 X25.1104 Y-12.8587
G01 X25.0960 Y-12.8277
G01 X25.0368 Y-12.7165
G01 X25.0109 Y-12.6309
G01 X25.0000 Y-12.5201
G01 X24.9999 Y-12.4604
G01 X24.9978 Y-12.4216
G01 X24.9914 Y-12.3784
G01 X24.9821 Y-12.3406
G01 X24.9778 Y-12.3269
G01 X24.9661 Y-12.2949
G01 X24.9496 Y-12.2596
G01 X24.9427 Y-12.2470
G01 X24.9250 Y-12.2179
G01 X24.9048 Y-12.1904
G01 X24.8959 Y-12.1792
G01 X24.8729 Y-12.1539
G01 X24.4695 Y-11.7506
G01 X24.4440 Y-11.7279
G01 X24.4090 Y-11.7019
G01 X24.3715 Y-11.6794
G01 X24.3320 Y-11.6608
G01 X24.2909 Y-11.6460
G01 X24.2485 Y-11.6354
G01 X24.2053 Y-11.6290
G01 X24.1664 Y-11.6269
G01 X23.2408 Y-11.6269
G01 X23.1972 Y-11.6290
G01 X23.1634 Y-11.6338
G01 X23.1493 Y-11.6364
G01 X23.1116 Y-11.6460
G01 X23.0794 Y-11.6573
G01 X23.0617 Y-11.6646
G01 X23.0353 Y-11.6772
G01 X23.0268 Y-11.6817
G01 X22.9935 Y-11.7019
G01 X22.8139 Y-11.8219
G01 X22.7826 Y-11.8449
G01 X22.7716 Y-11.8542
G01 X22.7465 Y-11.8772
G01 X22.7202 Y-11.9060
G01 X22.7113 Y-11.9172
G01 X22.6911 Y-11.9447
G01 X22.6710 Y-11.9780
G01 X22.6665 Y-11.9864
G01 X22.6539 Y-12.0129
G01 X22.6482 Y-12.0261
G01 X22.6383 Y-12.0537
G01 X22.6340 Y-12.0674
G01 X22.6257 Y-12.1005
G01 X22.6230 Y-12.1146
G01 X22.6183 Y-12.1484
G01 X22.6164 Y-12.1824
G01 X22.6162 Y-12.1968
G01 X22.6176 Y-12.2261
G01 X22.6188 Y-12.2404
G01 X22.6247 Y-12.2788
G01 X22.6353 Y-12.3212
G01 X22.6500 Y-12.3623
G01 X22.6687 Y-12.4018
G01 X22.6911 Y-12.4393
G01 X22.7172 Y-12.4744
G01 X22.7465 Y-12.5068
G01 X22.7716 Y-12.5298
G01 X22.7826 Y-12.5391
G01 X22.8100 Y-12.5594
G01 X22.9926 Y-12.6815
G01 X23.1325 Y-12.8214
G01 X23.2425 Y-12.9860
G01 X23.3183 Y-13.1689
G01 X23.3569 Y-13.3630
G01 X23.3569 Y-13.5610
G01 X23.3183 Y-13.7551
G01 X23.2425 Y-13.9380
G01 X23.1325 Y-14.1026
G01 X22.9926 Y-14.2425
G01 X22.8139 Y-14.3619
G01 X22.7864 Y-14.3820
G01 X22.7752 Y-14.3910
G01 X22.7465 Y-14.4172
G01 X22.7234 Y-14.4424
G01 X22.7142 Y-14.4534
G01 X22.6911 Y-14.4847
G01 X22.6687 Y-14.5222
G01 X22.6500 Y-14.5617
G01 X22.6383 Y-14.5937
G01 X22.6327 Y-14.6120
G01 X22.6257 Y-14.6405
G01 X22.6230 Y-14.6546
G01 X22.6183 Y-14.6884
G01 X22.6161 Y-14.7320
G01 X22.6183 Y-14.7756
G01 X22.6230 Y-14.8094
G01 X22.6257 Y-14.8235
G01 X22.6327 Y-14.8520
G01 X22.6383 Y-14.8703
G01 X22.6500 Y-14.9023
G01 X22.6687 Y-14.9418
G01 X22.6911 Y-14.9793
G01 X22.7142 Y-15.0106
G01 X22.7234 Y-15.0216
G01 X22.7465 Y-15.0468
G01 X22.7752 Y-15.0730
G01 X22.7864 Y-15.0820
G01 X22.8139 Y-15.1021
G01 X22.9926 Y-15.2215
G01 X23.1325 Y-15.3614
G01 X23.2425 Y-15.5260
G01 X23.3183 Y-15.7089
G01 X23.3569 Y-15.9030
G01 X23.3569 Y-16.1010
G01 X23.3183 Y-16.2951
G01 X23.2425 Y-16.4780
G01 X23.1293 Y-16.6475
G01 X23.1094 Y-16.6810
G01 X23.0926 Y-16.7161
G01 X23.0873 Y-16.7294
G01 X23.0760 Y-16.7616
G01 X23.0654 Y-16.8040
G01 X23.0590 Y-16.8472
G01 X23.0569 Y-16.8860
G01 X23.0569 Y-18.6020
G01 X23.0590 Y-18.6456
G01 X23.0646 Y-18.6841
G01 X23.0675 Y-18.6982
G01 X23.0760 Y-18.7312
G01 X23.0873 Y-18.7634
G01 X23.0926 Y-18.7767
G01 X23.1094 Y-18.8118
G01 X23.1319 Y-18.8493
G01 X23.1579 Y-18.8844
G01 X23.1839 Y-18.9133
G01 X23.1942 Y-18.9234
G01 X23.2196 Y-18.9461
G01 X23.2469 Y-18.9666
G01 X23.2587 Y-18.9747
G01 X23.2880 Y-18.9923
G01 X23.3007 Y-18.9989
G01 X23.3317 Y-19.0132
G01 X23.3682 Y-19.0265
G01 X23.3820 Y-19.0305
G01 X23.4152 Y-19.0386
G01 X23.4489 Y-19.0438
G01 X23.4631 Y-19.0454
G01 X23.5020 Y-19.0471
G01 X27.2250 Y-19.0471
G01 X27.2686 Y-19.0450
G01 X27.3024 Y-19.0402
G01 X27.3165 Y-19.0376
G01 X27.3496 Y-19.0293
G01 X27.3633 Y-19.0250
G01 X27.3953 Y-19.0132
G01 X27.4263 Y-18.9989
G01 X27.4390 Y-18.9923
G01 X27.4723 Y-18.9721
G01 X27.4998 Y-18.9520
G01 X27.5110 Y-18.9430
G01 X27.5397 Y-18.9168
G01 X27.8612 Y-18.5952
G01 X27.8875 Y-18.5665
G01 X27.9223 Y-18.5243
G01 X28.1393 Y-18.3461
G01 X28.1682 Y-18.3196
G01 X28.1946 Y-18.2907
G01 X28.2036 Y-18.2794
G01 X28.2239 Y-18.2516
G01 X28.2441 Y-18.2180
G01 X28.2507 Y-18.2052
G01 X28.2651 Y-18.1740
G01 X28.2767 Y-18.1416
G01 X28.2810 Y-18.1278
G01 X28.2892 Y-18.0945
G01 X28.2918 Y-18.0802
G01 X28.2964 Y-18.0462
G01 X28.2981 Y-18.0118
G01 X28.2982 Y-17.9974
G01 X28.2966 Y-17.9679
G01 X28.2953 Y-17.9535
G01 X28.2900 Y-17.9195
G01 X28.2880 Y-17.9101
G01 X28.2847 Y-17.8970
G01 X28.2999 Y-17.9071
G01 X28.3841 Y-17.9576
G01 X28.4010 Y-17.9666
G01 X28.4985 Y-18.0125
G01 X28.6090 Y-18.0520
G01 X28.7228 Y-18.0805
G01 X28.8293 Y-18.0966
G01 X28.8484 Y-18.0984
G01 X28.9560 Y-18.1035
G01 X46.6229 Y-18.1031
G01 X46.6617 Y-18.1014
G01 X46.6760 Y-18.0998
G01 X46.7097 Y-18.0946
G01 X46.7428 Y-18.0865
G01 X46.7566 Y-18.0825
G01 X46.7843 Y-18.0727
G01 X46.8019 Y-18.0654
G01 X46.8327 Y-18.0506
G01 X46.8702 Y-18.0281
G01 X46.9052 Y-18.0021
G01 X46.9307 Y-17.9794
G01 X46.9409 Y-17.9693
G01 X46.9669 Y-17.9404
G01 X46.9903 Y-17.9092
G01 X46.9981 Y-17.8972
G01 X47.0154 Y-17.8678
G01 X47.0341 Y-17.8283
G01 X47.0488 Y-17.7872
G01 X47.0573 Y-17.7542
G01 X47.0611 Y-17.7354
G01 X47.0653 Y-17.7064
G01 X47.0665 Y-17.6921
G01 X47.0680 Y-17.6580
G01 X47.0680 Y-16.2379
G01 X47.0741 Y-16.1759
G01 X47.0999 Y-16.0906
G01 X47.1071 Y-16.0621
G01 X47.1101 Y-16.0480
G01 X47.1156 Y-16.0093
G01 X47.1177 Y-15.9655
G01 X47.1155 Y-15.9217
G01 X47.1099 Y-15.8831
G01 X47.1069 Y-15.8691
G01 X47.0996 Y-15.8403
G01 X47.0741 Y-15.7562
G01 X47.0680 Y-15.6941
G01 X47.0680 Y-11.7379
G01 X47.0741 Y-11.6758
G01 X47.0858 Y-11.6372
G01 X47.1048 Y-11.6016
G01 X47.1304 Y-11.5704
G01 X47.1616 Y-11.5448
G01 X47.1972 Y-11.5258
G01 X47.2358 Y-11.5141
G01 X47.2979 Y-11.5080
G01 X47.7060 Y-11.5080
G01 X47.7449 Y-11.5062
G01 X47.7591 Y-11.5047
G01 X47.7881 Y-11.5003
G01 X47.7975 Y-11.4984
G01 X47.8260 Y-11.4914
G01 X47.8398 Y-11.4874
G01 X47.8674 Y-11.4775
G01 X47.8851 Y-11.4702
G01 X47.9158 Y-11.4554
G01 X47.9452 Y-11.4381
G01 X47.9572 Y-11.4303
G01 X47.9808 Y-11.4128
G01 X47.9920 Y-11.4039
G01 X48.0173 Y-11.3809
G01 X48.0274 Y-11.3707
G01 X48.0470 Y-11.3489
G01 X48.0560 Y-11.3377
G01 X48.0761 Y-11.3102
G01 X48.0986 Y-11.2727
G01 X48.1172 Y-11.2332
G01 X48.1305 Y-11.1966
G01 X48.1345 Y-11.1828
G01 X48.1426 Y-11.1497
G01 X48.1478 Y-11.1160
G01 X48.1494 Y-11.1017
G01 X48.1511 Y-11.0629
G01 X48.1511 Y-7.7420
G01 X48.1490 Y-7.6984
G01 X48.1442 Y-7.6646
G01 X48.1405 Y-7.6458
G01 X48.1333 Y-7.6174
G01 X48.1305 Y-7.6082
G01 X48.1172 Y-7.5717
G01 X48.1029 Y-7.5407
G01 X48.0963 Y-7.5280
G01 X48.0761 Y-7.4947
G01 X48.0531 Y-7.4634
G01 X48.0438 Y-7.4524
G01 X48.0208 Y-7.4272
G01 X47.9884 Y-7.3979
G01 X47.9533 Y-7.3719
G01 X47.9242 Y-7.3542
G01 X47.9116 Y-7.3472
G01 X47.8763 Y-7.3308
G01 X47.8398 Y-7.3175
G01 X47.8260 Y-7.3135
G01 X47.7928 Y-7.3054
G01 X47.7496 Y-7.2990
G01 X47.7060 Y-7.2969
G01 X43.7627 Y-7.2969
G01 X43.7043 Y-7.2855
G01 X43.6753 Y-7.2812
G01 X43.6208 Y-7.2758
G01 X43.5684 Y-7.2600
G01 X43.5400 Y-7.2528
G01 X43.4816 Y-7.2410
G01 X43.4265 Y-7.2184
G01 X43.3989 Y-7.2086
G01 X43.3465 Y-7.1926
G01 X43.2982 Y-7.1669
G01 X43.2718 Y-7.1543
G01 X43.2169 Y-7.1313
G01 X43.1713 Y-7.1009
G01 X43.1462 Y-7.0858
G01 X43.0938 Y-7.0575
G01 X43.0476 Y-7.0200
G01 X43.0240 Y-7.0025
G01 X42.9786 Y-6.9721
G01 X42.9363 Y-6.9302
G01 X42.9145 Y-6.9105
G01 X42.8723 Y-6.8757
G01 X42.8375 Y-6.8335
G01 X42.8178 Y-6.8117
G01 X42.7759 Y-6.7694
G01 X42.7455 Y-6.7240
G01 X42.7280 Y-6.7004
G01 X42.6905 Y-6.6542
G01 X42.6622 Y-6.6018
G01 X42.6471 Y-6.5767
G01 X42.6167 Y-6.5311
G01 X42.5937 Y-6.4762
G01 X42.5811 Y-6.4498
G01 X42.5554 Y-6.4015
G01 X42.5394 Y-6.3491
G01 X42.5296 Y-6.3215
G01 X42.5070 Y-6.2664
G01 X42.4952 Y-6.2080
G01 X42.4880 Y-6.1796
G01 X42.4722 Y-6.1272
G01 X42.4668 Y-6.0727
G01 X42.4625 Y-6.0437
G01 X42.4511 Y-5.9853
G01 X42.4509 Y-5.9258
G01 X42.4494 Y-5.8965
G01 X42.4441 Y-5.8420
G01 X42.4494 Y-5.7875
G01 X42.4509 Y-5.7582
G01 X42.4511 Y-5.6987
G01 X42.4625 Y-5.6403
G01 X42.4668 Y-5.6113
G01 X42.4722 Y-5.5568
G01 X42.4880 Y-5.5044
G01 X42.4952 Y-5.4760
G01 X42.5070 Y-5.4176
G01 X42.5296 Y-5.3625
G01 X42.5394 Y-5.3349
G01 X42.5554 Y-5.2825
G01 X42.5811 Y-5.2342
G01 X42.5937 Y-5.2078
G01 X42.6167 Y-5.1529
G01 X42.6471 Y-5.1073
G01 X42.6622 Y-5.0822
G01 X42.6905 Y-5.0298
G01 X42.7280 Y-4.9836
G01 X42.7455 Y-4.9600
G01 X42.7759 Y-4.9146
G01 X42.8178 Y-4.8723
G01 X42.8375 Y-4.8505
G01 X42.8723 Y-4.8083
G01 X42.9145 Y-4.7735
G01 X42.9363 Y-4.7538
G01 X42.9786 Y-4.7119
G01 X43.0240 Y-4.6815
G01 X43.0476 Y-4.6640
G01 X43.0938 Y-4.6265
G01 X43.1462 Y-4.5982
G01 X43.1713 Y-4.5831
G01 X43.2169 Y-4.5527
G01 X43.2718 Y-4.5297
G01 X43.2982 Y-4.5171
G01 X43.3465 Y-4.4914
G01 X43.3989 Y-4.4754
G01 X43.4265 Y-4.4656
G01 X43.4816 Y-4.4430
G01 X43.5400 Y-4.4312
G01 X43.5684 Y-4.4240
G01 X43.6208 Y-4.4082
G01 X43.6753 Y-4.4028
G01 X43.7043 Y-4.3985
G01 X43.7627 Y-4.3871
G01 X49.5127 Y-4.3871
G01 X49.5515 Y-4.3854
G01 X49.6060 Y-4.3801
G01 X49.6605 Y-4.3854
G01 X49.6898 Y-4.3869
G01 X49.7493 Y-4.3871
G01 X49.8077 Y-4.3985
G01 X49.8367 Y-4.4028
G01 X49.8912 Y-4.4082
G01 X49.9436 Y-4.4240
G01 X49.9720 Y-4.4312
G01 X50.0304 Y-4.4430
G01 X50.0855 Y-4.4656
G01 X50.1131 Y-4.4754
G01 X50.1655 Y-4.4914
G01 X50.2138 Y-4.5171
G01 X50.2402 Y-4.5297
G01 X50.2951 Y-4.5527
G01 X50.3407 Y-4.5831
G01 X50.3658 Y-4.5982
G01 X50.4182 Y-4.6265
G01 X50.4644 Y-4.6640
G01 X50.4880 Y-4.6815
G01 X50.5334 Y-4.7119
G01 X50.5757 Y-4.7538
G01 X50.5975 Y-4.7735
G01 X50.6397 Y-4.8083
G01 X50.6745 Y-4.8505
G01 X50.6942 Y-4.8723
G01 X50.7361 Y-4.9146
G01 X50.7665 Y-4.9600
G01 X50.7840 Y-4.9836
G01 X50.8215 Y-5.0298
G01 X50.8498 Y-5.0822
G01 X50.8649 Y-5.1073
G01 X50.8953 Y-5.1529
G01 X50.9183 Y-5.2078
G01 X50.9309 Y-5.2342
G01 X50.9566 Y-5.2825
G01 X50.9726 Y-5.3349
G01 X50.9824 Y-5.3625
G01 X51.0050 Y-5.4176
G01 X51.0168 Y-5.4760
G01 X51.0240 Y-5.5044
G01 X51.0398 Y-5.5568
G01 X51.0452 Y-5.6113
G01 X51.0495 Y-5.6403
G01 X51.0609 Y-5.6987
G01 X51.0611 Y-5.7582
G01 X51.0626 Y-5.7875
G01 X51.0679 Y-5.8420
G01 X51.0626 Y-5.8965
G01 X51.0609 Y-5.9353
G01 X51.0609 Y-11.1065
G01 X51.0626 Y-11.1454
G01 X51.0642 Y-11.1597
G01 X51.0694 Y-11.1934
G01 X51.0787 Y-11.2311
G01 X51.0830 Y-11.2448
G01 X51.0948 Y-11.2769
G01 X51.1112 Y-11.3121
G01 X51.1157 Y-11.3205
G01 X51.1308 Y-11.3457
G01 X51.1386 Y-11.3578
G01 X51.1619 Y-11.3889
G01 X51.1879 Y-11.4178
G01 X51.1947 Y-11.4246
G01 X51.2164 Y-11.4444
G01 X51.2312 Y-11.4565
G01 X51.2587 Y-11.4766
G01 X51.2920 Y-11.4968
G01 X51.3047 Y-11.5034
G01 X51.3313 Y-11.5159
G01 X51.3494 Y-11.5229
G01 X51.3904 Y-11.5448
G01 X51.4216 Y-11.5704
G01 X51.4472 Y-11.6016
G01 X51.4662 Y-11.6372
G01 X51.4779 Y-11.6758
G01 X51.4840 Y-11.7379
G01 X51.4840 Y-15.6941
G01 X51.4779 Y-15.7561
G01 X51.4521 Y-15.8414
G01 X51.4449 Y-15.8699
G01 X51.4419 Y-15.8840
G01 X51.4364 Y-15.9227
G01 X51.4343 Y-15.9665
G01 X51.4365 Y-16.0103
G01 X51.4421 Y-16.0489
G01 X51.4451 Y-16.0629
G01 X51.4524 Y-16.0917
G01 X51.4779 Y-16.1758
G01 X51.4840 Y-16.2379
G01 X51.4840 Y-20.1941
G01 X51.4779 Y-20.2562
G01 X51.4662 Y-20.2948
G01 X51.4472 Y-20.3304
G01 X51.4216 Y-20.3616
G01 X51.3904 Y-20.3872
G01 X51.3548 Y-20.4062
G01 X51.3162 Y-20.4179
G01 X51.2541 Y-20.4240
G01 X49.3159 Y-20.4240
G01 X49.2723 Y-20.4262
G01 X49.2338 Y-20.4317
G01 X49.2197 Y-20.4347
G01 X49.1867 Y-20.4432
G01 X49.1456 Y-20.4579
G01 X49.1061 Y-20.4766
G01 X49.0726 Y-20.4964
G01 X49.0608 Y-20.5045
G01 X49.0372 Y-20.5221
G01 X49.0298 Y-20.5281
G01 X49.0081 Y-20.5478
G01 X48.9945 Y-20.5613
G01 X48.9749 Y-20.5831
G01 X48.9677 Y-20.5917
G01 X48.7462 Y-20.7735
G01 X48.4935 Y-20.9086
G01 X48.2192 Y-20.9918
G01 X47.9340 Y-21.0199
G01 X47.8795 Y-21.0146
G01 X47.8407 Y-21.0129
G01 X29.7430 Y-21.0129
G01 X29.7041 Y-21.0146
G01 X29.6946 Y-21.0155
G01 X29.6656 Y-21.0198
G01 X29.6468 Y-21.0235
G01 X29.6138 Y-21.0320
G01 X29.5727 Y-21.0468
G01 X29.5374 Y-21.0632
G01 X29.5248 Y-21.0702
G01 X29.4957 Y-21.0879
G01 X29.4644 Y-21.1109
G01 X29.4534 Y-21.1202
G01 X29.4283 Y-21.1432
G01 X29.1068 Y-21.4648
G01 X29.0805 Y-21.4935
G01 X29.0457 Y-21.5357
G01 X28.8242 Y-21.7175
G01 X28.5715 Y-21.8526
G01 X28.2972 Y-21.9358
G01 X28.0120 Y-21.9639
G01 X27.9575 Y-21.9586
G01 X27.9187 Y-21.9569
G01 X6.9616 Y-21.9571
G01 X6.9323 Y-21.9586
G01 X6.9228 Y-21.9595
G01 X6.8890 Y-21.9646
G01 X6.8750 Y-21.9675
G01 X6.8419 Y-21.9760
G01 X6.8097 Y-21.9873
G01 X6.7964 Y-21.9926
G01 X6.7699 Y-22.0051
G01 X6.7571 Y-22.0117
G01 X6.7238 Y-22.0319
G01 X6.6888 Y-22.0579
G01 X6.6564 Y-22.0872
G01 X6.6271 Y-22.1196
G01 X6.6010 Y-22.1547
G01 X6.5786 Y-22.1922
G01 X6.5599 Y-22.2317
G01 X6.5466 Y-22.2682
G01 X6.5426 Y-22.2820
G01 X6.5346 Y-22.3152
G01 X6.5282 Y-22.3584
G01 X6.5261 Y-22.3972
G01 X6.5260 Y-22.4801
G01 X6.5199 Y-22.5422
G01 X6.5082 Y-22.5808
G01 X6.4892 Y-22.6164
G01 X6.4636 Y-22.6476
G01 X6.4324 Y-22.6732
G01 X6.3968 Y-22.6922
G01 X6.3582 Y-22.7039
G01 X6.2961 Y-22.7100
G01 X2.3399 Y-22.7100
G01 X2.2778 Y-22.7039
G01 X2.2392 Y-22.6922
G01 X2.2036 Y-22.6732
G01 X2.1724 Y-22.6476
G01 X2.1468 Y-22.6164
G01 X2.1278 Y-22.5808
G01 X2.1161 Y-22.5422
G01 X2.1100 Y-22.4801
G01 X2.1100 Y-18.5239
G01 X2.1177 Y-18.4446
G01 X2.1195 Y-18.4058
G01 X2.1173 Y-18.3621
G01 X2.1118 Y-18.3236
G01 X2.1088 Y-18.3096
G01 X2.1003 Y-18.2766
G01 X2.0890 Y-18.2444
G01 X2.0837 Y-18.2310
G01 X2.0669 Y-18.1959
G00 Z1.0000
G00 X2.1232 Y-13.9924
G01 F60.00
G01 Z-0.0450
G01 F150.00
G01 X2.1230 Y-15.5529
G01 X2.0046 Y-15.5529
G01 X2.0015 Y-14.0234
G01 X2.0097 Y-13.9407
G01 X2.0275 Y-13.8817
G01 X2.0566 Y-13.8273
G01 X2.0957 Y-13.7797
G01 X2.1433 Y-13.7406
G01 X2.1977 Y-13.7115
G01 X2.2567 Y-13.6937
G01 X2.3394 Y-13.6855
G01 X3.8689 Y-13.6886
G01 X3.8689 Y-13.8070
G01 X2.3180 Y-13.8070
G01 X2.3037 Y-13.8075
G01 X2.2847 Y-13.8099
G01 X2.2660 Y-13.8141
G01 X2.2523 Y-13.8184
G01 X2.2346 Y-13.8257
G01 X2.2219 Y-13.8323
G01 X2.2097 Y-13.8399
G01 X2.1943 Y-13.8513
G01 X2.1835 Y-13.8608
G01 X2.1703 Y-13.8746
G01 X2.1586 Y-13.8897
G01 X2.1507 Y-13.9018
G01 X2.1438 Y-13.9143
G01 X2.1361 Y-13.9318
G01 X2.1314 Y-13.9454
G01 X2.1277 Y-13.9593
G01 X2.1245 Y-13.9781
G01 X2.1232 Y-13.9924
G00 Z1.0000
G00 X2.2989 Y-22.6961
G01 F60.00
G01 Z-0.0450
G01 F150.00
G01 X2.3180 Y-22.6970
G01 X6.3180 Y-22.6970
G01 X6.3371 Y-22.6961
G01 X6.3513 Y-22.6941
G01 X6.3654 Y-22.6912
G01 X6.3792 Y-22.6872
G01 X6.3926 Y-22.6822
G01 X6.4057 Y-22.6762
G01 X6.4182 Y-22.6693
G01 X6.4303 Y-22.6614
G01 X6.4417 Y-22.6527
G01 X6.4525 Y-22.6432
G01 X6.4625 Y-22.6330
G01 X6.4717 Y-22.6220
G01 X6.4801 Y-22.6103
G01 X6.4877 Y-22.5981
G01 X6.4943 Y-22.5854
G01 X6.4999 Y-22.5722
G01 X6.5046 Y-22.5586
G01 X6.5083 Y-22.5447
G01 X6.5115 Y-22.5259
G01 X6.5128 Y-22.5116
G01 X6.5130 Y-22.5020
G01 X6.5130 Y-21.9476
G01 X28.0120 Y-21.9476
G01 X28.1489 Y-21.9411
G01 X28.1632 Y-21.9395
G01 X28.2940 Y-21.9198
G01 X28.4224 Y-21.8879
G01 X28.4407 Y-21.8824
G01 X28.5652 Y-21.8376
G01 X28.6849 Y-21.7812
G01 X28.7018 Y-21.7722
G01 X28.8151 Y-21.7040
G01 X28.9291 Y-21.6195
G01 X29.0308 Y-21.5276
G01 X29.5548 Y-21.0036
G01 X47.9340 Y-21.0036
G01 X48.0662 Y-20.9974
G01 X48.0805 Y-20.9961
G01 X48.2160 Y-20.9758
G01 X48.3536 Y-20.9414
G01 X48.4872 Y-20.8936
G01 X48.6069 Y-20.8372
G01 X48.6197 Y-20.8306
G01 X48.7371 Y-20.7600
G01 X48.8511 Y-20.6755
G01 X48.9528 Y-20.5836
G01 X49.1254 Y-20.4110
G01 X51.2808 Y-20.4109
G01 X51.2999 Y-20.4095
G01 X51.3093 Y-20.4081
G01 X51.3234 Y-20.4052
G01 X51.3326 Y-20.4026
G01 X51.3462 Y-20.3979
G01 X51.3594 Y-20.3923
G01 X51.3679 Y-20.3880
G01 X51.3762 Y-20.3833
G01 X51.3883 Y-20.3754
G01 X51.4034 Y-20.3637
G01 X51.4139 Y-20.3539
G01 X51.4205 Y-20.3470
G01 X51.4297 Y-20.3360
G01 X51.4354 Y-20.3283
G01 X51.4433 Y-20.3162
G01 X51.4502 Y-20.3037
G01 X51.4562 Y-20.2906
G01 X51.4612 Y-20.2772
G01 X51.4652 Y-20.2634
G01 X51.4681 Y-20.2493
G01 X51.4701 Y-20.2351
G01 X51.4710 Y-20.2160
G01 X51.4710 Y-16.2160
G01 X51.4705 Y-16.2017
G01 X51.4695 Y-16.1921
G01 X51.4663 Y-16.1733
G01 X51.4626 Y-16.1594
G01 X51.4562 Y-16.1414
G01 X51.4502 Y-16.1283
G01 X51.4407 Y-16.1117
G01 X51.4326 Y-16.0998
G01 X51.4205 Y-16.0850
G01 X51.4070 Y-16.0715
G01 X51.3922 Y-16.0594
G01 X51.3762 Y-16.0487
G01 X51.3594 Y-16.0397
G01 X51.3462 Y-16.0341
G01 X51.3326 Y-16.0294
G01 X51.3140 Y-16.0247
G01 X51.2951 Y-16.0219
G01 X51.2808 Y-16.0211
G01 X47.2760 Y-16.0210
G01 X47.2569 Y-16.0219
G01 X47.2380 Y-16.0247
G01 X47.2286 Y-16.0268
G01 X47.2148 Y-16.0308
G01 X47.1970 Y-16.0377
G01 X47.1841 Y-16.0440
G01 X47.1717 Y-16.0513
G01 X47.1637 Y-16.0566
G01 X47.1523 Y-16.0653
G01 X47.1415 Y-16.0748
G01 X47.1348 Y-16.0815
G01 X47.1253 Y-16.0923
G01 X47.1166 Y-16.1037
G01 X47.1087 Y-16.1158
G01 X47.1018 Y-16.1283
G01 X47.0958 Y-16.1414
G01 X47.0908 Y-16.1548
G01 X47.0868 Y-16.1686
G01 X47.0839 Y-16.1827
G01 X47.0819 Y-16.1969
G01 X47.0812 Y-16.2064
G01 X47.0810 Y-18.1124
G01 X28.9464 Y-18.1126
G01 X28.8143 Y-18.1193
G01 X28.6834 Y-18.1385
G01 X28.6646 Y-18.1422
G01 X28.5364 Y-18.1746
G01 X28.4117 Y-18.2190
G01 X28.3940 Y-18.2263
G01 X28.2745 Y-18.2831
G01 X28.1609 Y-18.3509
G01 X28.1450 Y-18.3615
G01 X28.0389 Y-18.4405
G01 X27.9372 Y-18.5324
G01 X27.4132 Y-19.0564
G01 X23.0473 Y-19.0564
G01 X23.0473 Y-16.7134
G01 X23.0556 Y-16.7056
G01 X23.0622 Y-16.6986
G01 X23.1211 Y-16.6332
G01 X23.1793 Y-16.5548
G01 X23.2295 Y-16.4710
G01 X23.2713 Y-16.3828
G01 X23.3042 Y-16.2908
G01 X23.3279 Y-16.1961
G01 X23.3422 Y-16.0995
G01 X23.3470 Y-16.0020
G01 X23.3422 Y-15.9045
G01 X23.3279 Y-15.8079
G01 X23.3042 Y-15.7132
G01 X23.2713 Y-15.6212
G01 X23.2295 Y-15.5330
G01 X23.1793 Y-15.4492
G01 X23.1211 Y-15.3708
G01 X23.0589 Y-15.3019
G01 X23.0486 Y-15.2918
G01 X22.9832 Y-15.2329
G01 X22.9048 Y-15.1747
G01 X22.8210 Y-15.1245
G01 X22.7415 Y-15.0866
G01 X22.7238 Y-15.0793
G01 X22.6408 Y-15.0498
G01 X22.5555 Y-15.0282
G01 X22.5367 Y-15.0245
G01 X22.4590 Y-15.0130
G01 X22.4400 Y-15.0111
G01 X22.3616 Y-15.0072
G01 X22.3424 Y-15.0072
G01 X22.2545 Y-15.0118
G01 X22.1673 Y-15.0245
G01 X22.1485 Y-15.0282
G01 X22.0632 Y-15.0498
G01 X21.9802 Y-15.0793
G01 X21.9625 Y-15.0866
G01 X21.8830 Y-15.1245
G01 X21.7992 Y-15.1747
G01 X21.7208 Y-15.2329
G01 X21.6554 Y-15.2918
G01 X21.6484 Y-15.2984
G01 X21.6406 Y-15.3067
G01 X20.3069 Y-15.3067
G01 X20.2905 Y-15.2798
G01 X20.2704 Y-15.2522
G01 X20.2614 Y-15.2410
G01 X20.2418 Y-15.2193
G01 X20.2317 Y-15.2090
G01 X20.2065 Y-15.1861
G01 X20.1953 Y-15.1771
G01 X20.1717 Y-15.1597
G01 X20.1596 Y-15.1519
G01 X20.1303 Y-15.1345
G01 X20.0908 Y-15.1159
G01 X20.0497 Y-15.1012
G01 X20.0073 Y-15.0906
G01 X19.9641 Y-15.0841
G01 X19.9205 Y-15.0820
G01 X19.2455 Y-15.0820
G01 X19.2114 Y-15.0834
G01 X19.1971 Y-15.0847
G01 X19.1587 Y-15.0906
G01 X19.1163 Y-15.1012
G01 X19.0752 Y-15.1159
G01 X19.0443 Y-15.1302
G01 X19.0274 Y-15.1393
G01 X19.0023 Y-15.1544
G01 X18.9904 Y-15.1625
G01 X18.9632 Y-15.1830
G01 X18.9308 Y-15.2123
G01 X18.9015 Y-15.2447
G01 X18.8810 Y-15.2719
G01 X18.8729 Y-15.2838
G01 X18.8578 Y-15.3089
G01 X18.8487 Y-15.3258
G01 X18.8344 Y-15.3567
G01 X18.8197 Y-15.3978
G01 X18.8091 Y-15.4402
G01 X18.8032 Y-15.4786
G01 X18.8019 Y-15.4929
G01 X18.8005 Y-15.5270
G01 X18.8005 Y-16.4770
G01 X18.8022 Y-16.5158
G01 X18.8038 Y-16.5301
G01 X18.8082 Y-16.5591
G01 X18.8100 Y-16.5685
G01 X18.8183 Y-16.6016
G01 X18.8227 Y-16.6153
G01 X18.8326 Y-16.6429
G01 X18.8383 Y-16.6560
G01 X18.8530 Y-16.6868
G01 X18.8704 Y-16.7161
G01 X18.8782 Y-16.7282
G01 X18.9015 Y-16.7593
G01 X18.9308 Y-16.7917
G01 X18.9632 Y-16.8210
G01 X18.9983 Y-16.8470
G01 X19.0315 Y-16.8671
G01 X19.0443 Y-16.8738
G01 X19.0752 Y-16.8881
G01 X19.1072 Y-16.8998
G01 X19.1209 Y-16.9042
G01 X19.1587 Y-16.9134
G01 X19.1924 Y-16.9187
G01 X19.2067 Y-16.9203
G01 X19.2455 Y-16.9220
G01 X19.9205 Y-16.9220
G01 X19.9546 Y-16.9206
G01 X19.9689 Y-16.9193
G01 X20.0073 Y-16.9134
G01 X20.0405 Y-16.9054
G01 X20.0542 Y-16.9014
G01 X20.0908 Y-16.8881
G01 X20.1217 Y-16.8738
G01 X20.1345 Y-16.8671
G01 X20.1637 Y-16.8496
G01 X20.1756 Y-16.8415
G01 X20.2028 Y-16.8210
G01 X20.2282 Y-16.7983
G01 X20.2385 Y-16.7882
G01 X20.2614 Y-16.7630
G01 X20.2704 Y-16.7518
G01 X20.2905 Y-16.7242
G01 X20.3069 Y-16.6973
G01 X21.6406 Y-16.6973
G01 X21.6484 Y-16.7056
G01 X21.6567 Y-16.7134
G01 X21.6567 Y-19.0564
G01 X6.5130 Y-19.0564
G01 X6.5130 Y-18.5020
G01 X6.5128 Y-18.4924
G01 X6.5115 Y-18.4781
G01 X6.5083 Y-18.4593
G01 X6.5046 Y-18.4454
G01 X6.4999 Y-18.4318
G01 X6.4943 Y-18.4186
G01 X6.4877 Y-18.4059
G01 X6.4801 Y-18.3937
G01 X6.4717 Y-18.3820
G01 X6.4625 Y-18.3710
G01 X6.4525 Y-18.3608
G01 X6.4417 Y-18.3513
G01 X6.4303 Y-18.3426
G01 X6.4182 Y-18.3347
G01 X6.4057 Y-18.3278
G01 X6.3926 Y-18.3218
G01 X6.3792 Y-18.3168
G01 X6.3654 Y-18.3128
G01 X6.3513 Y-18.3099
G01 X6.3371 Y-18.3079
G01 X6.3180 Y-18.3070
G01 X2.3180 Y-18.3070
G01 X2.2989 Y-18.3079
G01 X2.2800 Y-18.3107
G01 X2.2614 Y-18.3154
G01 X2.2478 Y-18.3201
G01 X2.2346 Y-18.3257
G01 X2.2178 Y-18.3347
G01 X2.2018 Y-18.3454
G01 X2.1906 Y-18.3543
G01 X2.1801 Y-18.3641
G01 X2.1703 Y-18.3746
G01 X2.1614 Y-18.3858
G01 X2.1533 Y-18.3977
G01 X2.1438 Y-18.4143
G01 X2.1378 Y-18.4274
G01 X2.1328 Y-18.4408
G01 X2.1277 Y-18.4593
G01 X2.1245 Y-18.4781
G01 X2.1232 Y-18.4924
G01 X2.1230 Y-22.5020
G01 X2.1235 Y-22.5163
G01 X2.1259 Y-22.5353
G01 X2.1301 Y-22.5540
G01 X2.1361 Y-22.5722
G01 X2.1438 Y-22.5897
G01 X2.1533 Y-22.6063
G01 X2.1614 Y-22.6182
G01 X2.1735 Y-22.6330
G01 X2.1870 Y-22.6465
G01 X2.2018 Y-22.6586
G01 X2.2137 Y-22.6667
G01 X2.2303 Y-22.6762
G01 X2.2478 Y-22.6839
G01 X2.2660 Y-22.6899
G01 X2.2800 Y-22.6933
G01 X2.2989 Y-22.6961
G00 Z1.0000
G00 X11.6323 Y-16.1452
G01 F60.00
G01 Z-0.0450
G01 F150.00
G01 X11.6211 Y-16.1416
G01 X11.6211 Y-16.0026
G01 X11.7241 Y-16.0017
G01 X11.8053 Y-16.0097
G01 X11.8643 Y-16.0275
G01 X11.9187 Y-16.0566
G01 X11.9663 Y-16.0957
G01 X12.0054 Y-16.1433
G01 X12.0345 Y-16.1977
G01 X12.0523 Y-16.2567
G01 X12.0604 Y-16.3383
G01 X12.0587 Y-16.5689
G01 X11.9390 Y-16.5689
G01 X11.9376 Y-16.5339
G01 X11.9357 Y-16.5149
G01 X11.9304 Y-16.4812
G01 X11.9198 Y-16.4388
G01 X11.9051 Y-16.3977
G01 X11.8908 Y-16.3668
G01 X11.8841 Y-16.3540
G01 X11.8691 Y-16.3289
G01 X11.8585 Y-16.3129
G01 X11.8380 Y-16.2857
G01 X11.8120 Y-16.2568
G01 X11.8052 Y-16.2500
G01 X11.7836 Y-16.2303
G01 X11.7688 Y-16.2181
G01 X11.7412 Y-16.1980
G01 X11.7038 Y-16.1755
G01 X11.6643 Y-16.1569
G01 X11.6323 Y-16.1452
G00 Z1.0000
G00 X12.0757 Y-14.3109
G01 F60.00
G01 Z-0.0450
G01 F150.00
G01 X12.0213 Y-14.3400
G01 X11.9623 Y-14.3578
G01 X11.8807 Y-14.3659
G01 X11.6251 Y-14.3641
G01 X11.6251 Y-14.2445
G01 X11.6558 Y-14.2444
G01 X11.6898 Y-14.2428
G01 X11.7041 Y-14.2412
G01 X11.7331 Y-14.2368
G01 X11.7425 Y-14.2350
G01 X11.7802 Y-14.2253
G01 X11.8124 Y-14.2141
G01 X11.8300 Y-14.2067
G01 X11.8565 Y-14.1942
G01 X11.8650 Y-14.1896
G01 X11.8982 Y-14.1695
G01 X11.9333 Y-14.1435
G01 X11.9657 Y-14.1142
G01 X11.9887 Y-14.0891
G01 X11.9980 Y-14.0781
G01 X12.0210 Y-14.0467
G01 X12.0387 Y-14.0176
G01 X12.0457 Y-14.0050
G01 X12.0582 Y-13.9785
G01 X12.0639 Y-13.9654
G01 X12.0754 Y-13.9332
G01 X12.0815 Y-13.9111
G01 X12.2162 Y-13.9111
G01 X12.2173 Y-14.0297
G01 X12.2093 Y-14.1108
G01 X12.1915 Y-14.1698
G01 X12.1624 Y-14.2242
G01 X12.1233 Y-14.2718
G01 X12.0757 Y-14.3109
G00 Z1.0000
G00 X11.9968 Y-12.3978
G01 F60.00
G01 Z-0.0450
G01 F150.00
G01 X12.0037 Y-12.3943
G01 X12.2319 Y-12.3943
G01 X12.1942 Y-12.4219
G01 X12.1749 Y-12.4376
G01 X12.1656 Y-12.4457
G01 X12.1382 Y-12.4704
G01 X12.1293 Y-12.4790
G01 X12.1206 Y-12.4878
G01 X12.0971 Y-12.5132
G01 X12.0818 Y-12.5021
G01 X12.0611 Y-12.4883
G01 X12.0187 Y-12.4629
G01 X12.0078 Y-12.4569
G01 X11.9856 Y-12.4457
G01 X11.9521 Y-12.4300
G01 X11.9391 Y-12.4245
G01 X11.9634 Y-12.4138
G01 X11.9968 Y-12.3978
G00 Z1.0000
G00 X13.9129 Y-16.9961
G01 F60.00
G01 Z-0.0450
G01 F150.00
G01 X13.9320 Y-16.9970
G01 X15.5368 Y-16.9969
G01 X15.5463 Y-16.9965
G01 X15.5606 Y-16.9949
G01 X15.5794 Y-16.9912
G01 X15.5977 Y-16.9856
G01 X15.6154 Y-16.9783
G01 X15.6322 Y-16.9693
G01 X15.6482 Y-16.9586
G01 X15.6630 Y-16.9465
G01 X15.6765 Y-16.9330
G01 X15.6886 Y-16.9182
G01 X15.6967 Y-16.9063
G01 X15.7062 Y-16.8897
G01 X15.7122 Y-16.8766
G01 X15.7186 Y-16.8586
G01 X15.7223 Y-16.8447
G01 X15.7255 Y-16.8259
G01 X15.7269 Y-16.8068
G01 X15.7270 Y-15.2020
G01 X15.7261 Y-15.1829
G01 X15.7233 Y-15.1640
G01 X15.7199 Y-15.1500
G01 X15.7172 Y-15.1408
G01 X15.7103 Y-15.1230
G01 X15.7062 Y-15.1143
G01 X15.6993 Y-15.1018
G01 X15.6886 Y-15.0858
G01 X15.6765 Y-15.0710
G01 X15.6630 Y-15.0575
G01 X15.6482 Y-15.0454
G01 X15.6363 Y-15.0373
G01 X15.6197 Y-15.0278
G01 X15.6066 Y-15.0218
G01 X15.5932 Y-15.0168
G01 X15.5747 Y-15.0117
G01 X15.5559 Y-15.0085
G01 X15.5368 Y-15.0071
G01 X13.9320 Y-15.0070
G01 X13.9224 Y-15.0072
G01 X13.9081 Y-15.0085
G01 X13.8893 Y-15.0117
G01 X13.8708 Y-15.0168
G01 X13.8530 Y-15.0237
G01 X13.8359 Y-15.0323
G01 X13.8277 Y-15.0373
G01 X13.8158 Y-15.0454
G01 X13.8010 Y-15.0575
G01 X13.7875 Y-15.0710
G01 X13.7783 Y-15.0820
G01 X13.7673 Y-15.0977
G01 X13.7578 Y-15.1143
G01 X13.7501 Y-15.1318
G01 X13.7441 Y-15.1500
G01 X13.7407 Y-15.1640
G01 X13.7385 Y-15.1781
G01 X13.7371 Y-15.1972
G01 X13.7370 Y-16.8020
G01 X13.7375 Y-16.8163
G01 X13.7399 Y-16.8353
G01 X13.7428 Y-16.8494
G01 X13.7484 Y-16.8677
G01 X13.7537 Y-16.8810
G01 X13.7623 Y-16.8981
G01 X13.7699 Y-16.9103
G01 X13.7813 Y-16.9257
G01 X13.7941 Y-16.9399
G01 X13.8083 Y-16.9527
G01 X13.8197 Y-16.9614
G01 X13.8318 Y-16.9693
G01 X13.8486 Y-16.9783
G01 X13.8618 Y-16.9839
G01 X13.8800 Y-16.9899
G01 X13.8987 Y-16.9941
G01 X13.9129 Y-16.9961
G00 Z1.0000
G00 X16.0413 Y-16.1418
G01 F60.00
G01 Z-0.0450
G01 F150.00
G01 X16.0390 Y-16.1422
G01 X16.0390 Y-15.8618
G01 X16.0902 Y-15.8695
G01 X16.1026 Y-15.8709
G01 X16.1274 Y-15.8727
G01 X16.1644 Y-15.8744
G01 X16.1768 Y-15.8745
G01 X16.2017 Y-15.8739
G01 X16.2386 Y-15.8719
G01 X16.2510 Y-15.8709
G01 X16.2757 Y-15.8678
G01 X16.3123 Y-15.8622
G01 X16.3245 Y-15.8600
G01 X16.3488 Y-15.8545
G01 X16.3846 Y-15.8454
G01 X16.4135 Y-15.8364
G01 X16.4135 Y-16.1676
G01 X16.3846 Y-16.1586
G01 X16.3488 Y-16.1495
G01 X16.3245 Y-16.1440
G01 X16.3123 Y-16.1418
G01 X16.2757 Y-16.1362
G01 X16.2634 Y-16.1345
G01 X16.2386 Y-16.1321
G01 X16.1893 Y-16.1296
G01 X16.1768 Y-16.1295
G01 X16.1519 Y-16.1301
G01 X16.1150 Y-16.1321
G01 X16.1026 Y-16.1331
G01 X16.0779 Y-16.1362
G01 X16.0413 Y-16.1418
G00 Z1.0000
G00 X21.9625 Y-14.3774
G01 F60.00
G01 Z-0.0450
G01 F150.00
G01 X21.9802 Y-14.3847
G01 X22.0632 Y-14.4142
G01 X22.1579 Y-14.4379
G01 X22.2545 Y-14.4522
G01 X22.3520 Y-14.4570
G01 X22.4495 Y-14.4522
G01 X22.5461 Y-14.4379
G01 X22.6408 Y-14.4142
G01 X22.7328 Y-14.3813
G01 X22.8210 Y-14.3395
G01 X22.9048 Y-14.2893
G01 X22.9832 Y-14.2311
G01 X23.0556 Y-14.1656
G01 X23.1211 Y-14.0932
G01 X23.1793 Y-14.0148
G01 X23.2295 Y-13.9310
G01 X23.2713 Y-13.8428
G01 X23.3042 Y-13.7508
G01 X23.3279 Y-13.6561
G01 X23.3422 Y-13.5595
G01 X23.3470 Y-13.4620
G01 X23.3422 Y-13.3645
G01 X23.3279 Y-13.2679
G01 X23.3042 Y-13.1732
G01 X23.2713 Y-13.0812
G01 X23.2295 Y-12.9930
G01 X23.1793 Y-12.9092
G01 X23.1211 Y-12.8308
G01 X23.0556 Y-12.7584
G01 X22.9832 Y-12.6929
G01 X22.9048 Y-12.6347
G01 X22.8210 Y-12.5845
G01 X22.7328 Y-12.5427
G01 X22.6408 Y-12.5098
G01 X22.5461 Y-12.4861
G01 X22.4495 Y-12.4718
G01 X22.3520 Y-12.4670
G01 X22.2545 Y-12.4718
G01 X22.1579 Y-12.4861
G01 X22.0632 Y-12.5098
G01 X21.9712 Y-12.5427
G01 X21.8830 Y-12.5845
G01 X21.7992 Y-12.6347
G01 X21.7208 Y-12.6929
G01 X21.6484 Y-12.7584
G01 X21.5829 Y-12.8308
G01 X21.5247 Y-12.9092
G01 X21.4745 Y-12.9930
G01 X21.4327 Y-13.0812
G01 X21.3998 Y-13.1732
G01 X21.3761 Y-13.2679
G01 X21.3618 Y-13.3645
G01 X21.3570 Y-13.4620
G01 X21.3618 Y-13.5595
G01 X21.3761 Y-13.6561
G01 X21.3998 Y-13.7508
G01 X21.4327 Y-13.8428
G01 X21.4745 Y-13.9310
G01 X21.5247 Y-14.0148
G01 X21.5829 Y-14.0932
G01 X21.6484 Y-14.1656
G01 X21.7208 Y-14.2311
G01 X21.7992 Y-14.2893
G01 X21.8830 Y-14.3395
G01 X21.9625 Y-14.3774
G00 Z1.0000
G00 X21.9625 Y-11.8374
G01 F60.00
G01 Z-0.0450
G01 F150.00
G01 X21.9802 Y-11.8447
G01 X22.0632 Y-11.8742
G01 X22.1485 Y-11.8958
G01 X22.1673 Y-11.8995
G01 X22.2545 Y-11.9122
G01 X22.3424 Y-11.9168
G01 X22.3616 Y-11.9168
G01 X22.4495 Y-11.9122
G01 X22.5461 Y-11.8979
G01 X22.6408 Y-11.8742
G01 X22.7328 Y-11.8413
G01 X22.8125 Y-11.8038
G01 X22.8294 Y-11.7948
G01 X22.9048 Y-11.7493
G01 X22.9757 Y-11.6970
G01 X22.9905 Y-11.6849
G01 X23.0486 Y-11.6322
G01 X23.0556 Y-11.6256
G01 X23.0634 Y-11.6173
G01 X24.3500 Y-11.6173
G01 X25.0130 Y-12.2802
G01 X25.0130 Y-12.5420
G01 X25.0144 Y-12.5761
G01 X25.0157 Y-12.5904
G01 X25.0216 Y-12.6288
G01 X25.0308 Y-12.6666
G01 X25.0352 Y-12.6803
G01 X25.0469 Y-12.7123
G01 X25.0655 Y-12.7518
G01 X25.0880 Y-12.7892
G01 X25.1140 Y-12.8243
G01 X25.1433 Y-12.8567
G01 X25.1757 Y-12.8860
G01 X25.2108 Y-12.9120
G01 X25.2440 Y-12.9321
G01 X25.2568 Y-12.9388
G01 X25.2877 Y-12.9531
G01 X25.3197 Y-12.9648
G01 X25.3334 Y-12.9692
G01 X25.3665 Y-12.9775
G01 X25.3806 Y-12.9801
G01 X25.4144 Y-12.9849
G01 X25.4484 Y-12.9868
G01 X26.3628 Y-12.9869
G01 X26.4016 Y-12.9849
G01 X26.4354 Y-12.9801
G01 X26.4495 Y-12.9775
G01 X26.4872 Y-12.9678
G01 X26.5283 Y-12.9531
G01 X26.5592 Y-12.9388
G01 X26.5761 Y-12.9297
G01 X26.6012 Y-12.9146
G01 X26.6092 Y-12.9093
G01 X26.6366 Y-12.8890
G01 X26.6476 Y-12.8797
G01 X26.6727 Y-12.8567
G01 X26.6957 Y-12.8316
G01 X26.7050 Y-12.8206
G01 X26.7280 Y-12.7892
G01 X26.7505 Y-12.7518
G01 X26.7691 Y-12.7123
G01 X26.7824 Y-12.6757
G01 X26.7864 Y-12.6620
G01 X26.7944 Y-12.6288
G01 X26.7997 Y-12.5951
G01 X26.8013 Y-12.5809
G01 X26.8029 Y-12.5468
G01 X26.8030 Y-11.8420
G01 X26.8009 Y-11.7984
G01 X26.7953 Y-11.7599
G01 X26.7924 Y-11.7458
G01 X26.7838 Y-11.7128
G01 X26.7691 Y-11.6717
G01 X26.7505 Y-11.6322
G01 X26.7280 Y-11.5948
G01 X26.7020 Y-11.5597
G01 X26.6727 Y-11.5273
G01 X26.6403 Y-11.4980
G01 X26.6131 Y-11.4775
G01 X26.6033 Y-11.4707
G01 X26.6033 Y-9.8333
G01 X26.6131 Y-9.8265
G01 X26.6403 Y-9.8060
G01 X26.6692 Y-9.7800
G01 X26.6793 Y-9.7697
G01 X26.7020 Y-9.7443
G01 X26.7225 Y-9.7171
G01 X26.7306 Y-9.7052
G01 X26.7481 Y-9.6760
G01 X26.7548 Y-9.6632
G01 X26.7691 Y-9.6323
G01 X26.7808 Y-9.6003
G01 X26.7852 Y-9.5866
G01 X26.7935 Y-9.5535
G01 X26.7961 Y-9.5394
G01 X26.8009 Y-9.5056
G01 X26.8028 Y-9.4716
G01 X26.8030 Y-8.7620
G01 X26.8013 Y-8.7231
G01 X26.7997 Y-8.7089
G01 X26.7944 Y-8.6752
G01 X26.7852 Y-8.6374
G01 X26.7808 Y-8.6237
G01 X26.7691 Y-8.5917
G01 X26.7527 Y-8.5565
G01 X26.7481 Y-8.5480
G01 X26.7331 Y-8.5229
G01 X26.7253 Y-8.5108
G01 X26.7050 Y-8.4834
G01 X26.6957 Y-8.4724
G01 X26.6727 Y-8.4473
G01 X26.6476 Y-8.4243
G01 X26.6366 Y-8.4150
G01 X26.6052 Y-8.3920
G01 X26.5678 Y-8.3695
G01 X26.5283 Y-8.3509
G01 X26.4917 Y-8.3376
G01 X26.4780 Y-8.3336
G01 X26.4448 Y-8.3256
G01 X26.4111 Y-8.3203
G01 X26.3969 Y-8.3187
G01 X26.3628 Y-8.3171
G01 X25.4580 Y-8.3170
G01 X25.4239 Y-8.3184
G01 X25.4096 Y-8.3197
G01 X25.3712 Y-8.3256
G01 X25.3288 Y-8.3362
G01 X25.2877 Y-8.3509
G01 X25.2568 Y-8.3652
G01 X25.2440 Y-8.3719
G01 X25.2108 Y-8.3920
G01 X25.1832 Y-8.4121
G01 X25.1720 Y-8.4211
G01 X25.1503 Y-8.4407
G01 X25.1400 Y-8.4508
G01 X25.1171 Y-8.4760
G01 X25.1081 Y-8.4872
G01 X25.0880 Y-8.5148
G01 X25.0703 Y-8.5439
G01 X25.0633 Y-8.5565
G01 X25.0469 Y-8.5917
G01 X25.0336 Y-8.6283
G01 X25.0296 Y-8.6420
G01 X25.0216 Y-8.6752
G01 X25.0151 Y-8.7184
G01 X25.0130 Y-8.7620
G01 X25.0130 Y-9.4620
G01 X25.0144 Y-9.4961
G01 X25.0157 Y-9.5104
G01 X25.0216 Y-9.5488
G01 X25.0322 Y-9.5912
G01 X25.0469 Y-9.6323
G01 X25.0633 Y-9.6675
G01 X25.0703 Y-9.6801
G01 X25.0880 Y-9.7092
G01 X25.1081 Y-9.7368
G01 X25.1171 Y-9.7480
G01 X25.1400 Y-9.7732
G01 X25.1503 Y-9.7833
G01 X25.1757 Y-9.8060
G01 X25.2029 Y-9.8265
G01 X25.2127 Y-9.8333
G01 X25.2127 Y-10.5135
G01 X25.1262 Y-10.4270
G01 X25.0863 Y-10.3908
G01 X25.0715 Y-10.3787
G01 X25.0321 Y-10.3494
G01 X25.0202 Y-10.3413
G01 X24.9657 Y-10.3088
G01 X24.9041 Y-10.2797
G01 X24.8398 Y-10.2567
G01 X24.7736 Y-10.2401
G01 X24.7061 Y-10.2301
G01 X24.6380 Y-10.2267
G01 X23.0634 Y-10.2267
G01 X23.0556 Y-10.2184
G01 X23.0486 Y-10.2118
G01 X22.9905 Y-10.1591
G01 X22.9757 Y-10.1470
G01 X22.9048 Y-10.0947
G01 X22.8294 Y-10.0492
G01 X22.8125 Y-10.0402
G01 X22.7328 Y-10.0027
G01 X22.6408 Y-9.9698
G01 X22.5461 Y-9.9461
G01 X22.4543 Y-9.9323
G01 X22.4400 Y-9.9311
G01 X22.3520 Y-9.9270
G01 X22.2640 Y-9.9311
G01 X22.2450 Y-9.9330
G01 X22.1673 Y-9.9445
G01 X22.1485 Y-9.9482
G01 X22.0632 Y-9.9698
G01 X21.9712 Y-10.0027
G01 X21.8830 Y-10.0445
G01 X21.8073 Y-10.0896
G01 X21.7953 Y-10.0974
G01 X21.7208 Y-10.1529
G01 X21.6554 Y-10.2118
G01 X21.6418 Y-10.2254
G01 X21.5829 Y-10.2908
G01 X21.5302 Y-10.3614
G01 X21.5196 Y-10.3773
G01 X21.4745 Y-10.4530
G01 X21.4366 Y-10.5325
G01 X21.4293 Y-10.5502
G01 X21.3998 Y-10.6332
G01 X21.3782 Y-10.7185
G01 X21.3745 Y-10.7373
G01 X21.3618 Y-10.8245
G01 X21.3572 Y-10.9124
G01 X21.3572 Y-10.9316
G01 X21.3618 Y-11.0195
G01 X21.3745 Y-11.1067
G01 X21.3782 Y-11.1255
G01 X21.3998 Y-11.2108
G01 X21.4293 Y-11.2938
G01 X21.4366 Y-11.3115
G01 X21.4745 Y-11.3910
G01 X21.5196 Y-11.4667
G01 X21.5302 Y-11.4826
G01 X21.5829 Y-11.5532
G01 X21.6418 Y-11.6186
G01 X21.6554 Y-11.6322
G01 X21.7208 Y-11.6911
G01 X21.7914 Y-11.7438
G01 X21.8073 Y-11.7544
G01 X21.8830 Y-11.7995
G01 X21.9625 Y-11.8374
G00 Z1.0000
G00 X25.4589 Y-15.1067
G01 F60.00
G01 Z-0.0450
G01 F150.00
G01 X25.2283 Y-15.1084
G01 X25.1467 Y-15.1003
G01 X25.0877 Y-15.0825
G01 X25.0333 Y-15.0534
G01 X24.9857 Y-15.0143
G01 X24.9466 Y-14.9667
G01 X24.9175 Y-14.9123
G01 X24.8997 Y-14.8533
G01 X24.8917 Y-14.7721
G01 X24.8928 Y-14.6411
G01 X25.0244 Y-14.6411
G01 X25.0322 Y-14.6712
G01 X25.0469 Y-14.7123
G01 X25.0655 Y-14.7518
G01 X25.0854 Y-14.7852
G01 X25.0935 Y-14.7971
G01 X25.1110 Y-14.8206
G01 X25.1171 Y-14.8280
G01 X25.1367 Y-14.8497
G01 X25.1503 Y-14.8633
G01 X25.1720 Y-14.8829
G01 X25.1794 Y-14.8890
G01 X25.2108 Y-14.9120
G01 X25.2482 Y-14.9345
G01 X25.2877 Y-14.9531
G01 X25.3197 Y-14.9648
G01 X25.3334 Y-14.9692
G01 X25.3618 Y-14.9764
G01 X25.3806 Y-14.9801
G01 X25.4144 Y-14.9849
G01 X25.4484 Y-14.9868
G01 X25.4589 Y-14.9870
G01 X25.4589 Y-15.1067
G00 Z1.0000
G00 X25.2790 Y-7.8692
G01 F60.00
G01 Z-0.0450
G01 F150.00
G01 X25.2921 Y-7.8749
G01 X25.3243 Y-7.8864
G01 X25.3380 Y-7.8904
G01 X25.3665 Y-7.8975
G01 X25.3806 Y-7.9001
G01 X25.4144 Y-7.9049
G01 X25.4532 Y-7.9069
G01 X26.3580 Y-7.9070
G01 X26.3969 Y-7.9053
G01 X26.4158 Y-7.9030
G01 X32.3496 Y-13.8368
G01 X32.3383 Y-13.9148
G01 X32.3325 Y-14.0320
G01 X32.3383 Y-14.1492
G01 X32.3546 Y-14.2605
G01 X32.3576 Y-14.2746
G01 X32.3814 Y-14.3698
G01 X32.3870 Y-14.3881
G01 X32.4235 Y-14.4895
G01 X32.4715 Y-14.5913
G01 X32.4784 Y-14.6039
G01 X32.5289 Y-14.6881
G01 X32.5395 Y-14.7040
G01 X32.6039 Y-14.7904
G01 X32.6827 Y-14.8773
G01 X32.7623 Y-14.9499
G01 X32.7771 Y-14.9620
G01 X32.8638 Y-15.0260
G01 X32.9603 Y-15.0840
G01 X32.9730 Y-15.0906
G01 X33.0705 Y-15.1365
G01 X33.1719 Y-15.1730
G01 X33.1902 Y-15.1786
G01 X33.2948 Y-15.2045
G01 X33.4013 Y-15.2206
G01 X33.4204 Y-15.2224
G01 X33.5232 Y-15.2274
G01 X37.0220 Y-15.2275
G01 X37.1392 Y-15.2217
G01 X37.2505 Y-15.2054
G01 X37.2646 Y-15.2024
G01 X37.3644 Y-15.1774
G01 X37.3736 Y-15.1746
G01 X37.4005 Y-15.1650
G01 X38.0365 Y-15.1650
G01 X38.0508 Y-15.1645
G01 X38.0651 Y-15.1629
G01 X38.0792 Y-15.1603
G01 X38.0885 Y-15.1579
G01 X38.0977 Y-15.1552
G01 X38.1111 Y-15.1502
G01 X38.1284 Y-15.1420
G01 X38.1367 Y-15.1373
G01 X38.1488 Y-15.1294
G01 X38.1639 Y-15.1177
G01 X38.1710 Y-15.1112
G01 X38.1810 Y-15.1010
G01 X38.1931 Y-15.0862
G01 X38.1986 Y-15.0783
G01 X38.2062 Y-15.0661
G01 X38.2128 Y-15.0534
G01 X38.2167 Y-15.0446
G01 X38.2201 Y-15.0357
G01 X38.2244 Y-15.0220
G01 X38.2268 Y-15.0127
G01 X38.2294 Y-14.9986
G01 X38.2306 Y-14.9891
G01 X38.2314 Y-14.9748
G01 X38.2315 Y-14.3041
G01 X38.2565 Y-14.2032
G01 X38.2726 Y-14.0967
G01 X38.2744 Y-14.0776
G01 X38.2793 Y-13.9796
G01 X38.2794 Y-13.9652
G01 X38.2744 Y-13.8624
G01 X38.2726 Y-13.8433
G01 X38.2565 Y-13.7368
G01 X38.2315 Y-13.6359
G01 X38.2315 Y-12.9700
G01 X38.2306 Y-12.9509
G01 X38.2286 Y-12.9367
G01 X38.2268 Y-12.9273
G01 X38.2217 Y-12.9088
G01 X38.2148 Y-12.8910
G01 X38.2062 Y-12.8739
G01 X38.1959 Y-12.8577
G01 X38.1842 Y-12.8426
G01 X38.1777 Y-12.8355
G01 X38.1675 Y-12.8255
G01 X38.1527 Y-12.8134
G01 X38.1408 Y-12.8053
G01 X38.1284 Y-12.7980
G01 X38.1155 Y-12.7917
G01 X38.1022 Y-12.7864
G01 X38.0885 Y-12.7821
G01 X38.0745 Y-12.7787
G01 X38.0604 Y-12.7765
