(G-CODE GENERATED BY FLATCAM v8.994 - www.flatcam.org - Version Date: 2020/11/7)

(Name: voltage_cuttoff_1s_minimal_parts-PTH.drl_edit_cnc)
(Type: G-code from Geometry)
(Units: MM)

(Created on Monday, 03 January 2022 at 18:21)

(This preprocessor is the default preprocessor used by FlatCAM.)
(It is made to work with MACH3 compatible motion controllers.)


(TOOLS DIAMETER: )
(Tool: 1 -> Dia: 0.7)
(Tool: 2 -> Dia: 1.25)

(FEEDRATE Z: )
(Tool: 1 -> Feedrate: 100.0)
(Tool: 2 -> Feedrate: 300)

(FEEDRATE RAPIDS: )
(Tool: 1 -> Feedrate Rapids: 1500)
(Tool: 2 -> Feedrate Rapids: 1500)

(Z_CUT: )
(Tool: 1 -> Z_Cut: -1.8)
(Tool: 2 -> Z_Cut: -1.7)

(Tools Offset: )
(Tool: 1 -> Offset Z: 0.0)

(Z_MOVE: )
(Tool: 1 -> Z_Move: 1.0)
(Tool: 2 -> Z_Move: 2)

(Z Toolchange: 15 mm)
(X,Y Toolchange: 0.0000, 0.0000 mm)
(Z Start: None mm)
(Z End: 15.0 mm)
(X,Y End: 0.0000, 0.0000 mm)
(Steps per circle: 64)
(Preprocessor Excellon: mattwach)

(X range:    5.2380 ...   50.2310  mm)
(Y range:  -19.9080 ...   -3.7140  mm)

(Spindle Speed: 10000 RPM)
G21
G90
G94

G01 F100.00
(mattwach: Tool change disabled)
G01 F100.00
M03 S10000
G00 X5.5880 Y-6.0960
G01 Z-1.8000
G01 Z0
G00 Z1.0000
G00 X8.1280 Y-8.6360
G01 Z-1.8000
G01 Z0
G00 Z1.0000
G00 X14.7320 Y-10.9220
G01 Z-1.8000
G01 Z0
G00 Z1.0000
G00 X14.7320 Y-13.4620
G01 Z-1.8000
G01 Z0
G00 Z1.0000
G00 X14.7320 Y-16.0020
G01 Z-1.8000
G01 Z0
G00 Z1.0000
G00 X22.3520 Y-16.0020
G01 Z-1.8000
G01 Z0
G00 Z1.0000
G00 X28.9560 Y-17.0580
G01 Z-1.8000
G01 Z0
G00 Z1.0000
G00 X28.9560 Y-19.5580
G01 Z-1.8000
G01 Z0
G00 Z1.0000
G00 X22.3520 Y-13.4620
G01 Z-1.8000
G01 Z0
G00 Z1.0000
G00 X22.3520 Y-10.9220
G01 Z-1.8000
G01 Z0
G00 Z1.0000
G00 X22.3520 Y-8.3820
G01 Z-1.8000
G01 Z0
G00 Z1.0000
G00 X20.0660 Y-4.0640
G01 Z-1.8000
G01 Z0
G00 Z1.0000
G00 X17.5260 Y-4.0640
G01 Z-1.8000
G01 Z0
G00 Z1.0000
G00 X14.7320 Y-8.3820
G01 Z-1.8000
G01 Z0
G00 Z1.0000
G00 X5.5880 Y-11.1760
G01 Z-1.8000
G01 Z0
G00 Z1.0000
M05
G00 Z15.00
G00 X0.0 Y0.0


