(G-CODE GENERATED BY FLATCAM v8.994 - www.flatcam.org - Version Date: 2020/11/7)

(Name: voltage_cuttoff_1s_minimal_parts-Edge_Cuts.gbr_cutout_cnc)
(Type: G-code from Geometry)
(Units: MM)

(Created on Monday, 03 January 2022 at 18:14)

(This preprocessor is the default preprocessor used by FlatCAM.)
(It is made to work with MACH3 compatible motion controllers.)

(TOOL DIAMETER: 2.0 mm)
(Feedrate_XY: 120.0 mm/min)
(Feedrate_Z: 60.0 mm/min)
(Feedrate rapids 1500.0 mm/min)

(Z_Cut: -1.8 mm)
(DepthPerCut: 0.6 mm <=>3 passes)
(Z_Move: 2.0 mm)
(Z Start: None mm)
(Z End: 15.0 mm)
(X,Y End: 0.0000, 0.0000 mm)
(Steps per circle: 64)
(Preprocessor Geometry: mattwach)

(X range:   -0.6170 ...   54.6330  mm)
(Y range:  -25.6370 ...    0.6130  mm)

(Spindle Speed: 10000.0 RPM)
G21
G90
G94

G01 F120.00
(mattwach: Tool change disabled)
M03 S10000.0
G01 F120.00
G00 X-0.6157 Y-24.5660
G01 F60.00
G01 Z-0.6000
G01 F120.00
G01 X-0.6170 Y-24.5120
G01 X-0.6170 Y-0.5120
G01 X-0.6157 Y-0.4580
G01 X-0.6046 Y-0.3457
G01 X-0.5830 Y-0.2375
G01 X-0.5516 Y-0.1342
G01 X-0.5084 Y-0.0299
G01 X-0.4563 Y0.0674
G01 X-0.3963 Y0.1572
G01 X-0.3247 Y0.2444
G01 X-0.2484 Y0.3207
G01 X-0.1631 Y0.3909
G01 X-0.0714 Y0.4523
G01 X0.0281 Y0.5055
G01 X0.1302 Y0.5476
G01 X0.2358 Y0.5796
G01 X0.3441 Y0.6010
G01 X0.4516 Y0.6116
G01 X0.5080 Y0.6130
G01 X53.5080 Y0.6130
G01 X53.5644 Y0.6116
G01 X53.6719 Y0.6010
G01 X53.7825 Y0.5790
G01 X53.8858 Y0.5476
G01 X53.9879 Y0.5055
G01 X54.0874 Y0.4523
G01 X54.1772 Y0.3923
G01 X54.2626 Y0.3224
G01 X54.3424 Y0.2426
G01 X54.4123 Y0.1572
G01 X54.4723 Y0.0674
G01 X54.5255 Y-0.0321
G01 X54.5676 Y-0.1342
G01 X54.5996 Y-0.2398
G01 X54.6210 Y-0.3481
G01 X54.6316 Y-0.4556
G01 X54.6330 Y-0.5120
G01 X54.6330 Y-24.5120
G01 X54.6316 Y-24.5684
G01 X54.6210 Y-24.6759
G01 X54.5990 Y-24.7865
G01 X54.5668 Y-24.8922
G01 X54.5255 Y-24.9919
G01 X54.4723 Y-25.0914
G01 X54.4123 Y-25.1812
G01 X54.3424 Y-25.2666
G01 X54.2626 Y-25.3464
G01 X54.1772 Y-25.4163
G01 X54.0874 Y-25.4763
G01 X53.9879 Y-25.5295
G01 X53.8858 Y-25.5716
G01 X53.7802 Y-25.6036
G01 X53.6719 Y-25.6250
G01 X53.5644 Y-25.6356
G01 X53.5080 Y-25.6370
G01 X0.5080 Y-25.6370
G01 X0.4516 Y-25.6356
G01 X0.3417 Y-25.6246
G01 X0.2335 Y-25.6030
G01 X0.1278 Y-25.5708
G01 X0.0259 Y-25.5284
G01 X-0.0714 Y-25.4763
G01 X-0.1631 Y-25.4149
G01 X-0.2484 Y-25.3447
G01 X-0.3264 Y-25.2666
G01 X-0.3963 Y-25.1812
G01 X-0.4576 Y-25.0893
G01 X-0.5095 Y-24.9919
G01 X-0.5516 Y-24.8898
G01 X-0.5836 Y-24.7842
G01 X-0.6050 Y-24.6759
G01 X-0.6157 Y-24.5660
G00 X-0.6157 Y-24.5660
G01 F60.00
G01 Z-1.2000
G01 F120.00
G01 X-0.6050 Y-24.6759
G01 X-0.5836 Y-24.7842
G01 X-0.5516 Y-24.8898
G01 X-0.5095 Y-24.9919
G01 X-0.4576 Y-25.0893
G01 X-0.3963 Y-25.1812
G01 X-0.3264 Y-25.2666
G01 X-0.2484 Y-25.3447
G01 X-0.1631 Y-25.4149
G01 X-0.0714 Y-25.4763
G01 X0.0259 Y-25.5284
G01 X0.1278 Y-25.5708
G01 X0.2335 Y-25.6030
G01 X0.3417 Y-25.6246
G01 X0.4516 Y-25.6356
G01 X0.5080 Y-25.6370
G01 X53.5080 Y-25.6370
G01 X53.5644 Y-25.6356
G01 X53.6719 Y-25.6250
G01 X53.7802 Y-25.6036
G01 X53.8858 Y-25.5716
G01 X53.9879 Y-25.5295
G01 X54.0874 Y-25.4763
G01 X54.1772 Y-25.4163
G01 X54.2626 Y-25.3464
G01 X54.3424 Y-25.2666
G01 X54.4123 Y-25.1812
G01 X54.4723 Y-25.0914
G01 X54.5255 Y-24.9919
G01 X54.5668 Y-24.8922
G01 X54.5990 Y-24.7865
G01 X54.6210 Y-24.6759
G01 X54.6316 Y-24.5684
G01 X54.6330 Y-24.5120
G01 X54.6330 Y-0.5120
G01 X54.6316 Y-0.4556
G01 X54.6210 Y-0.3481
G01 X54.5996 Y-0.2398
G01 X54.5676 Y-0.1342
G01 X54.5255 Y-0.0321
G01 X54.4723 Y0.0674
G01 X54.4123 Y0.1572
G01 X54.3424 Y0.2426
G01 X54.2626 Y0.3224
G01 X54.1772 Y0.3923
G01 X54.0874 Y0.4523
G01 X53.9879 Y0.5055
G01 X53.8858 Y0.5476
G01 X53.7825 Y0.5790
G01 X53.6719 Y0.6010
G01 X53.5644 Y0.6116
G01 X53.5080 Y0.6130
G01 X0.5080 Y0.6130
G01 X0.4516 Y0.6116
G01 X0.3441 Y0.6010
G01 X0.2358 Y0.5796
G01 X0.1302 Y0.5476
G01 X0.0281 Y0.5055
G01 X-0.0714 Y0.4523
G01 X-0.1631 Y0.3909
G01 X-0.2484 Y0.3207
G01 X-0.3247 Y0.2444
G01 X-0.3963 Y0.1572
G01 X-0.4563 Y0.0674
G01 X-0.5084 Y-0.0299
G01 X-0.5516 Y-0.1342
G01 X-0.5830 Y-0.2375
G01 X-0.6046 Y-0.3457
G01 X-0.6157 Y-0.4580
G01 X-0.6170 Y-0.5120
G01 X-0.6170 Y-24.5120
G01 X-0.6157 Y-24.5660
G00 X-0.6157 Y-24.5660
G01 F60.00
G01 Z-1.8000
G01 F120.00
G01 X-0.6170 Y-24.5120
G01 X-0.6170 Y-0.5120
G01 X-0.6157 Y-0.4580
G01 X-0.6046 Y-0.3457
G01 X-0.5830 Y-0.2375
G01 X-0.5516 Y-0.1342
G01 X-0.5084 Y-0.0299
G01 X-0.4563 Y0.0674
G01 X-0.3963 Y0.1572
G01 X-0.3247 Y0.2444
G01 X-0.2484 Y0.3207
G01 X-0.1631 Y0.3909
G01 X-0.0714 Y0.4523
G01 X0.0281 Y0.5055
G01 X0.1302 Y0.5476
G01 X0.2358 Y0.5796
G01 X0.3441 Y0.6010
G01 X0.4516 Y0.6116
G01 X0.5080 Y0.6130
G01 X53.5080 Y0.6130
G01 X53.5644 Y0.6116
G01 X53.6719 Y0.6010
G01 X53.7825 Y0.5790
G01 X53.8858 Y0.5476
G01 X53.9879 Y0.5055
G01 X54.0874 Y0.4523
G01 X54.1772 Y0.3923
G01 X54.2626 Y0.3224
G01 X54.3424 Y0.2426
G01 X54.4123 Y0.1572
G01 X54.4723 Y0.0674
G01 X54.5255 Y-0.0321
G01 X54.5676 Y-0.1342
G01 X54.5996 Y-0.2398
G01 X54.6210 Y-0.3481
G01 X54.6316 Y-0.4556
G01 X54.6330 Y-0.5120
G01 X54.6330 Y-24.5120
G01 X54.6316 Y-24.5684
G01 X54.6210 Y-24.6759
G01 X54.5990 Y-24.7865
G01 X54.5668 Y-24.8922
G01 X54.5255 Y-24.9919
G01 X54.4723 Y-25.0914
G01 X54.4123 Y-25.1812
G01 X54.3424 Y-25.2666
G01 X54.2626 Y-25.3464
G01 X54.1772 Y-25.4163
G01 X54.0874 Y-25.4763
G01 X53.9879 Y-25.5295
G01 X53.8858 Y-25.5716
G01 X53.7802 Y-25.6036
G01 X53.6719 Y-25.6250
G01 X53.5644 Y-25.6356
G01 X53.5080 Y-25.6370
G01 X0.5080 Y-25.6370
G01 X0.4516 Y-25.6356
G01 X0.3417 Y-25.6246
G01 X0.2335 Y-25.6030
G01 X0.1278 Y-25.5708
G01 X0.0259 Y-25.5284
G01 X-0.0714 Y-25.4763
G01 X-0.1631 Y-25.4149
G01 X-0.2484 Y-25.3447
G01 X-0.3264 Y-25.2666
G01 X-0.3963 Y-25.1812
G01 X-0.4576 Y-25.0893
G01 X-0.5095 Y-24.9919
G01 X-0.5516 Y-24.8898
G01 X-0.5836 Y-24.7842
G01 X-0.6050 Y-24.6759
G01 X-0.6157 Y-24.5660
G00 Z2.0000
M05
G00 Z2.0000
G00 Z15.00
G00 X0.0 Y0.0


