(G-CODE GENERATED BY FLATCAM v8.994 - www.flatcam.org - Version Date: 2020/11/7)

(Name: voltage_cuttoff_1s_minimal_parts-PTH.drl_edit_cnc)
(Type: G-code from Geometry)
(Units: MM)

(Created on Monday, 03 January 2022 at 18:23)

(This preprocessor is the default preprocessor used by FlatCAM.)
(It is made to work with MACH3 compatible motion controllers.)


(TOOLS DIAMETER: )
(Tool: 1 -> Dia: 0.7)
(Tool: 2 -> Dia: 1.25)

(FEEDRATE Z: )
(Tool: 1 -> Feedrate: 100.0)
(Tool: 2 -> Feedrate: 100.0)

(FEEDRATE RAPIDS: )
(Tool: 1 -> Feedrate Rapids: 1500)
(Tool: 2 -> Feedrate Rapids: 1500)

(Z_CUT: )
(Tool: 1 -> Z_Cut: -1.8)
(Tool: 2 -> Z_Cut: -1.8)

(Tools Offset: )
(Tool: 2 -> Offset Z: 0.0)

(Z_MOVE: )
(Tool: 1 -> Z_Move: 1.0)
(Tool: 2 -> Z_Move: 1.0)

(Z Toolchange: 15 mm)
(X,Y Toolchange: 0.0000, 0.0000 mm)
(Z Start: None mm)
(Z End: 15.0 mm)
(X,Y End: 0.0000, 0.0000 mm)
(Steps per circle: 64)
(Preprocessor Excellon: mattwach)

(X range:    5.2380 ...   50.2310  mm)
(Y range:  -19.9080 ...   -3.7140  mm)

(Spindle Speed: 10000 RPM)
G21
G90
G94

G01 F100.00
(mattwach: Tool change disabled)
G01 F100.00
M03 S10000
G00 X29.6060 Y-5.8420
G01 Z-1.8000
G01 Z0
G00 Z1.0000
G00 X35.3060 Y-5.8420
G01 Z-1.8000
G01 Z0
G00 Z1.0000
G00 X43.9060 Y-5.8420
G01 Z-1.8000
G01 Z0
G00 Z1.0000
G00 X49.6060 Y-5.8420
G01 Z-1.8000
G01 Z0
G00 Z1.0000
G00 X42.1640 Y-13.9700
G01 Z-1.8000
G01 Z0
G00 Z1.0000
G00 X39.6240 Y-13.9700
G01 Z-1.8000
G01 Z0
G00 Z1.0000
G00 X37.0840 Y-13.9700
G01 Z-1.8000
G01 Z0
G00 Z1.0000
M05
G00 Z15.00
G00 X0.0 Y0.0


