(G-CODE GENERATED BY FLATCAM v8.994 - www.flatcam.org - Version Date: 2020/11/7)

(Name: backup_beeper_kicad-Edge_Cuts.gbr_cutout_cnc)
(Type: G-code from Geometry)
(Units: MM)

(Created on Wednesday, 18 January 2023 at 16:25)

(Specially modified by mattwach to work with the Sainsmart 3080 that I have.)

(TOOL DIAMETER: 2.4 mm)
(Feedrate_XY: 120.0 mm/min)
(Feedrate_Z: 60.0 mm/min)
(Feedrate rapids 1500.0 mm/min)

(Z_Cut: -1.7 mm)
(DepthPerCut: 0.6 mm <=>3 passes)
(Z_Move: 2.0 mm)
(Z Start: None mm)
(Z End: 10.0 mm)
(X,Y End: 0.0000, 0.0000 mm)
(Steps per circle: 64)
(Preprocessor Geometry: default)

(X range:   -1.3140 ...   14.7210  mm)
(Y range:  -57.4210 ...    1.2860  mm)

(Spindle Speed: 10000.0 RPM)
G21
G90
G17
G94


G01 F120.00

M5             
G00 Z15.0000
G00 X0.0000 Y0.0000                
G00 Z15.0000
        
M03 S10000.0
G01 F120.00
G00 X-0.0278 Y1.2845
G01 F60.00
G01 Z-0.6000
G01 F120.00
G01 X0.0360 Y1.2860 F120.00
G01 X13.3710 Y1.2860 F120.00
G01 X13.4397 Y1.2842 F120.00
G01 X13.5715 Y1.2710 F120.00
G01 X13.7014 Y1.2449 F120.00
G01 X13.8235 Y1.2079 F120.00
G01 X13.9460 Y1.1574 F120.00
G01 X14.0671 Y1.0926 F120.00
G01 X14.1771 Y1.0188 F120.00
G01 X14.2758 Y0.9379 F120.00
G01 X14.3729 Y0.8408 F120.00
G01 X14.4568 Y0.7382 F120.00
G01 X14.5276 Y0.6321 F120.00
G01 X14.5903 Y0.5154 F120.00
G01 X14.6412 Y0.3931 F120.00
G01 X14.6811 Y0.2616 F120.00
G01 X14.7067 Y0.1317 F120.00
G01 X14.7192 Y0.0047 F120.00
G01 X14.7210 Y-0.0640 F120.00
G01 X14.7210 Y-56.0710 F120.00
G01 X14.7192 Y-56.1397 F120.00
G01 X14.7060 Y-56.2715 F120.00
G01 X14.6811 Y-56.3966 F120.00
G01 X14.6429 Y-56.5235 F120.00
G01 X14.5924 Y-56.6460 F120.00
G01 X14.5302 Y-56.7629 F120.00
G01 X14.4538 Y-56.8771 F120.00
G01 X14.3696 Y-56.9794 F120.00
G01 X14.2794 Y-57.0696 F120.00
G01 X14.1771 Y-57.1538 F120.00
G01 X14.0671 Y-57.2276 F120.00
G01 X13.9460 Y-57.2924 F120.00
G01 X13.8235 Y-57.3429 F120.00
G01 X13.6966 Y-57.3811 F120.00
G01 X13.5667 Y-57.4067 F120.00
G01 X13.4397 Y-57.4192 F120.00
G01 X13.3710 Y-57.4210 F120.00
G01 X0.0360 Y-57.4210 F120.00
G01 X-0.0327 Y-57.4192 F120.00
G01 X-0.1645 Y-57.4060 F120.00
G01 X-0.2944 Y-57.3799 F120.00
G01 X-0.4165 Y-57.3429 F120.00
G01 X-0.5390 Y-57.2924 F120.00
G01 X-0.6601 Y-57.2276 F120.00
G01 X-0.7701 Y-57.1538 F120.00
G01 X-0.8688 Y-57.0729 F120.00
G01 X-0.9659 Y-56.9758 F120.00
G01 X-1.0498 Y-56.8732 F120.00
G01 X-1.1206 Y-56.7671 F120.00
G01 X-1.1833 Y-56.6504 F120.00
G01 X-1.2342 Y-56.5281 F120.00
G01 X-1.2741 Y-56.3966 F120.00
G01 X-1.2997 Y-56.2667 F120.00
G01 X-1.3122 Y-56.1397 F120.00
G01 X-1.3140 Y-56.0710 F120.00
G01 X-1.3140 Y-0.0640 F120.00
G01 X-1.3122 Y0.0047 F120.00
G01 X-1.2990 Y0.1365 F120.00
G01 X-1.2729 Y0.2664 F120.00
G01 X-1.2342 Y0.3931 F120.00
G01 X-1.1833 Y0.5154 F120.00
G01 X-1.1206 Y0.6321 F120.00
G01 X-1.0468 Y0.7421 F120.00
G01 X-0.9626 Y0.8444 F120.00
G01 X-0.8688 Y0.9379 F120.00
G01 X-0.7662 Y1.0218 F120.00
G01 X-0.6559 Y1.0952 F120.00
G01 X-0.5390 Y1.1574 F120.00
G01 X-0.4165 Y1.2079 F120.00
G01 X-0.2896 Y1.2461 F120.00
G01 X-0.1597 Y1.2717 F120.00
G01 X-0.0278 Y1.2845 F120.00
G00 X-0.0278 Y1.2845
G01 F60.00
G01 Z-1.2000
G01 F120.00
G01 X-0.1597 Y1.2717 F120.00
G01 X-0.2896 Y1.2461 F120.00
G01 X-0.4165 Y1.2079 F120.00
G01 X-0.5390 Y1.1574 F120.00
G01 X-0.6559 Y1.0952 F120.00
G01 X-0.7662 Y1.0218 F120.00
G01 X-0.8688 Y0.9379 F120.00
G01 X-0.9626 Y0.8444 F120.00
G01 X-1.0468 Y0.7421 F120.00
G01 X-1.1206 Y0.6321 F120.00
G01 X-1.1833 Y0.5154 F120.00
G01 X-1.2342 Y0.3931 F120.00
G01 X-1.2729 Y0.2664 F120.00
G01 X-1.2990 Y0.1365 F120.00
G01 X-1.3122 Y0.0047 F120.00
G01 X-1.3140 Y-0.0640 F120.00
G01 X-1.3140 Y-56.0710 F120.00
G01 X-1.3122 Y-56.1397 F120.00
G01 X-1.2997 Y-56.2667 F120.00
G01 X-1.2741 Y-56.3966 F120.00
G01 X-1.2342 Y-56.5281 F120.00
G01 X-1.1833 Y-56.6504 F120.00
G01 X-1.1206 Y-56.7671 F120.00
G01 X-1.0498 Y-56.8732 F120.00
G01 X-0.9659 Y-56.9758 F120.00
G01 X-0.8688 Y-57.0729 F120.00
G01 X-0.7701 Y-57.1538 F120.00
G01 X-0.6601 Y-57.2276 F120.00
G01 X-0.5390 Y-57.2924 F120.00
G01 X-0.4165 Y-57.3429 F120.00
G01 X-0.2944 Y-57.3799 F120.00
G01 X-0.1645 Y-57.4060 F120.00
G01 X-0.0327 Y-57.4192 F120.00
G01 X0.0360 Y-57.4210 F120.00
G01 X13.3710 Y-57.4210 F120.00
G01 X13.4397 Y-57.4192 F120.00
G01 X13.5667 Y-57.4067 F120.00
G01 X13.6966 Y-57.3811 F120.00
G01 X13.8235 Y-57.3429 F120.00
G01 X13.9460 Y-57.2924 F120.00
G01 X14.0671 Y-57.2276 F120.00
G01 X14.1771 Y-57.1538 F120.00
G01 X14.2794 Y-57.0696 F120.00
G01 X14.3696 Y-56.9794 F120.00
G01 X14.4538 Y-56.8771 F120.00
G01 X14.5302 Y-56.7629 F120.00
G01 X14.5924 Y-56.6460 F120.00
G01 X14.6429 Y-56.5235 F120.00
G01 X14.6811 Y-56.3966 F120.00
G01 X14.7060 Y-56.2715 F120.00
G01 X14.7192 Y-56.1397 F120.00
G01 X14.7210 Y-56.0710 F120.00
G01 X14.7210 Y-0.0640 F120.00
G01 X14.7192 Y0.0047 F120.00
G01 X14.7067 Y0.1317 F120.00
G01 X14.6811 Y0.2616 F120.00
G01 X14.6412 Y0.3931 F120.00
G01 X14.5903 Y0.5154 F120.00
G01 X14.5276 Y0.6321 F120.00
G01 X14.4568 Y0.7382 F120.00
G01 X14.3729 Y0.8408 F120.00
G01 X14.2758 Y0.9379 F120.00
G01 X14.1771 Y1.0188 F120.00
G01 X14.0671 Y1.0926 F120.00
G01 X13.9460 Y1.1574 F120.00
G01 X13.8235 Y1.2079 F120.00
G01 X13.7014 Y1.2449 F120.00
G01 X13.5715 Y1.2710 F120.00
G01 X13.4397 Y1.2842 F120.00
G01 X13.3710 Y1.2860 F120.00
G01 X0.0360 Y1.2860 F120.00
G01 X-0.0278 Y1.2845 F120.00
G00 X-0.0278 Y1.2845
G01 F60.00
G01 Z-1.7000
G01 F120.00
G01 X0.0360 Y1.2860 F120.00
G01 X13.3710 Y1.2860 F120.00
G01 X13.4397 Y1.2842 F120.00
G01 X13.5715 Y1.2710 F120.00
G01 X13.7014 Y1.2449 F120.00
G01 X13.8235 Y1.2079 F120.00
G01 X13.9460 Y1.1574 F120.00
G01 X14.0671 Y1.0926 F120.00
G01 X14.1771 Y1.0188 F120.00
G01 X14.2758 Y0.9379 F120.00
G01 X14.3729 Y0.8408 F120.00
G01 X14.4568 Y0.7382 F120.00
G01 X14.5276 Y0.6321 F120.00
G01 X14.5903 Y0.5154 F120.00
G01 X14.6412 Y0.3931 F120.00
G01 X14.6811 Y0.2616 F120.00
G01 X14.7067 Y0.1317 F120.00
G01 X14.7192 Y0.0047 F120.00
G01 X14.7210 Y-0.0640 F120.00
G01 X14.7210 Y-56.0710 F120.00
G01 X14.7192 Y-56.1397 F120.00
G01 X14.7060 Y-56.2715 F120.00
G01 X14.6811 Y-56.3966 F120.00
G01 X14.6429 Y-56.5235 F120.00
G01 X14.5924 Y-56.6460 F120.00
G01 X14.5302 Y-56.7629 F120.00
G01 X14.4538 Y-56.8771 F120.00
G01 X14.3696 Y-56.9794 F120.00
G01 X14.2794 Y-57.0696 F120.00
G01 X14.1771 Y-57.1538 F120.00
G01 X14.0671 Y-57.2276 F120.00
G01 X13.9460 Y-57.2924 F120.00
G01 X13.8235 Y-57.3429 F120.00
G01 X13.6966 Y-57.3811 F120.00
G01 X13.5667 Y-57.4067 F120.00
G01 X13.4397 Y-57.4192 F120.00
G01 X13.3710 Y-57.4210 F120.00
G01 X0.0360 Y-57.4210 F120.00
G01 X-0.0327 Y-57.4192 F120.00
G01 X-0.1645 Y-57.4060 F120.00
G01 X-0.2944 Y-57.3799 F120.00
G01 X-0.4165 Y-57.3429 F120.00
G01 X-0.5390 Y-57.2924 F120.00
G01 X-0.6601 Y-57.2276 F120.00
G01 X-0.7701 Y-57.1538 F120.00
G01 X-0.8688 Y-57.0729 F120.00
G01 X-0.9659 Y-56.9758 F120.00
G01 X-1.0498 Y-56.8732 F120.00
G01 X-1.1206 Y-56.7671 F120.00
G01 X-1.1833 Y-56.6504 F120.00
G01 X-1.2342 Y-56.5281 F120.00
G01 X-1.2741 Y-56.3966 F120.00
G01 X-1.2997 Y-56.2667 F120.00
G01 X-1.3122 Y-56.1397 F120.00
G01 X-1.3140 Y-56.0710 F120.00
G01 X-1.3140 Y-0.0640 F120.00
G01 X-1.3122 Y0.0047 F120.00
G01 X-1.2990 Y0.1365 F120.00
G01 X-1.2729 Y0.2664 F120.00
G01 X-1.2342 Y0.3931 F120.00
G01 X-1.1833 Y0.5154 F120.00
G01 X-1.1206 Y0.6321 F120.00
G01 X-1.0468 Y0.7421 F120.00
G01 X-0.9626 Y0.8444 F120.00
G01 X-0.8688 Y0.9379 F120.00
G01 X-0.7662 Y1.0218 F120.00
G01 X-0.6559 Y1.0952 F120.00
G01 X-0.5390 Y1.1574 F120.00
G01 X-0.4165 Y1.2079 F120.00
G01 X-0.2896 Y1.2461 F120.00
G01 X-0.1597 Y1.2717 F120.00
G01 X-0.0278 Y1.2845 F120.00
G00 Z2.0000
M05
G00 Z2.0000
G00 Z10.00
G00 X0.0 Y0.0


