(G-CODE GENERATED BY FLATCAM v8.994 - www.flatcam.org - Version Date: 2020/11/7)

(Name: backup_beeper_kicad-F_Cu.gbr_iso_combined_cnc)
(Type: G-code from Geometry)
(Units: MM)

(Created on Wednesday, 18 January 2023 at 16:24)

(Specially modified by mattwach to work with the Sainsmart 3080 that I have.)

(TOOL DIAMETER: 0.39 mm)
(Feedrate_XY: 160.0 mm/min)
(Feedrate_Z: 60.0 mm/min)
(Feedrate rapids 1500.0 mm/min)

(Z_Cut: -0.05 mm)
(Z_Move: 2.0 mm)
(Z Start: None mm)
(Z End: 10.0 mm)
(X,Y End: 0.0000, 0.0000 mm)
(Steps per circle: 64)
(Preprocessor Geometry: default)

(X range:    0.2651 ...   13.1419  mm)
(Y range:  -55.6731 ...   -0.2931  mm)

(Spindle Speed: 10000.0 RPM)
G21
G90
G17
G94


G01 F160.00

M5             
G00 Z15.0000
G00 X0.0000 Y0.0000                
G00 Z15.0000
        
M03 S10000.0
G01 F160.00
G00 X3.6544 Y-3.8901
G01 F60.00
G01 Z-0.0500
G01 F160.00
G01 X3.6639 Y-3.8994 F160.00
G01 X3.6639 Y-15.0087 F160.00
G01 X3.5848 Y-15.0803 F160.00
G01 X3.5189 Y-15.1527 F160.00
G01 X3.5068 Y-15.1675 F160.00
G01 X3.4487 Y-15.2463 F160.00
G01 X3.3981 Y-15.3301 F160.00
G01 X3.3891 Y-15.3470 F160.00
G01 X3.3475 Y-15.4356 F160.00
G01 X3.3113 Y-15.5368 F160.00
G01 X3.2873 Y-15.6317 F160.00
G01 X3.2835 Y-15.6504 F160.00
G01 X3.2694 Y-15.7473 F160.00
G01 X3.2641 Y-15.8546 F160.00
G01 X3.2694 Y-15.9620 F160.00
G01 X3.2835 Y-16.0588 F160.00
G01 X3.2873 Y-16.0776 F160.00
G01 X3.3087 Y-16.1633 F160.00
G01 X3.3127 Y-16.1770 F160.00
G01 X3.3475 Y-16.2737 F160.00
G01 X3.3891 Y-16.3623 F160.00
G01 X3.3981 Y-16.3791 F160.00
G01 X3.4487 Y-16.4630 F160.00
G01 X3.5068 Y-16.5417 F160.00
G01 X3.5189 Y-16.5565 F160.00
G01 X3.5848 Y-16.6289 F160.00
G01 X3.6639 Y-16.7006 F160.00
G01 X3.6639 Y-17.0871 F160.00
G01 X3.6665 Y-17.1457 F160.00
G01 X3.6678 Y-17.1600 F160.00
G01 X3.6772 Y-17.2228 F160.00
G01 X3.6938 Y-17.2889 F160.00
G01 X3.7168 Y-17.3532 F160.00
G01 X3.7417 Y-17.4063 F160.00
G01 X3.7507 Y-17.4232 F160.00
G01 X3.7810 Y-17.4734 F160.00
G01 X3.8158 Y-17.5206 F160.00
G01 X3.8279 Y-17.5354 F160.00
G01 X3.8642 Y-17.5753 F160.00
G01 X4.4384 Y-18.1496 F160.00
G01 X4.4856 Y-18.1921 F160.00
G01 X4.5325 Y-18.2272 F160.00
G01 X4.5485 Y-18.2378 F160.00
G01 X4.5947 Y-18.2655 F160.00
G01 X4.6074 Y-18.2721 F160.00
G01 X4.6606 Y-18.2970 F160.00
G01 X4.7202 Y-18.3185 F160.00
G01 X4.7340 Y-18.3225 F160.00
G01 X4.7816 Y-18.3344 F160.00
G01 X4.8004 Y-18.3382 F160.00
G01 X4.8585 Y-18.3465 F160.00
G01 X4.9171 Y-18.3496 F160.00
G01 X7.4167 Y-18.3499 F160.00
G01 X10.4639 Y-21.3970 F160.00
G01 X10.4639 Y-25.6024 F160.00
G01 X10.4487 Y-25.6071 F160.00
G01 X10.3659 Y-25.6370 F160.00
G01 X10.2776 Y-25.6788 F160.00
G01 X10.1938 Y-25.7290 F160.00
G01 X10.1229 Y-25.7813 F160.00
G01 X10.1082 Y-25.7934 F160.00
G01 X10.0500 Y-25.8461 F160.00
G01 X10.0365 Y-25.8597 F160.00
G01 X9.9775 Y-25.9251 F160.00
G01 X9.9248 Y-25.9957 F160.00
G01 X9.9142 Y-26.0116 F160.00
G01 X9.8691 Y-26.0873 F160.00
G01 X9.8274 Y-26.1755 F160.00
G01 X9.7945 Y-26.2675 F160.00
G01 X9.7707 Y-26.3622 F160.00
G01 X9.7564 Y-26.4588 F160.00
G01 X9.7516 Y-26.5563 F160.00
G01 X9.7564 Y-26.6538 F160.00
G01 X9.7699 Y-26.7457 F160.00
G01 X9.7728 Y-26.7597 F160.00
G01 X9.7919 Y-26.8359 F160.00
G01 X9.7975 Y-26.8542 F160.00
G01 X9.8274 Y-26.9371 F160.00
G01 X9.8691 Y-27.0253 F160.00
G01 X9.9193 Y-27.1091 F160.00
G01 X9.9716 Y-27.1800 F160.00
G01 X9.9837 Y-27.1948 F160.00
G01 X10.0365 Y-27.2529 F160.00
G01 X10.0500 Y-27.2665 F160.00
G01 X10.1154 Y-27.3254 F160.00
G01 X10.1938 Y-27.3836 F160.00
G01 X10.2776 Y-27.4338 F160.00
G01 X10.3659 Y-27.4756 F160.00
G01 X10.4578 Y-27.5084 F160.00
G01 X10.5525 Y-27.5322 F160.00
G01 X10.6491 Y-27.5465 F160.00
G01 X10.7371 Y-27.5511 F160.00
G01 X10.7466 Y-27.5513 F160.00
G01 X10.7581 Y-27.5510 F160.00
G01 X11.7514 Y-28.5443 F160.00
G01 X11.7514 Y-47.3946 F160.00
G01 X6.7417 Y-52.4043 F160.00
G01 X6.6922 Y-52.4019 F160.00
G01 X6.6778 Y-52.4017 F160.00
G01 X6.5850 Y-52.4062 F160.00
G01 X6.5707 Y-52.4078 F160.00
G01 X6.4882 Y-52.4201 F160.00
G01 X6.4741 Y-52.4227 F160.00
G01 X6.3793 Y-52.4466 F160.00
G01 X6.2917 Y-52.4777 F160.00
G01 X6.2740 Y-52.4850 F160.00
G01 X6.1943 Y-52.5228 F160.00
G01 X6.1817 Y-52.5297 F160.00
G01 X6.1021 Y-52.5777 F160.00
G01 X6.0272 Y-52.6329 F160.00
G01 X6.0124 Y-52.6451 F160.00
G01 X5.9437 Y-52.7077 F160.00
G01 X5.8811 Y-52.7764 F160.00
G01 X5.8689 Y-52.7912 F160.00
G01 X5.8164 Y-52.8621 F160.00
G01 X5.8086 Y-52.8741 F160.00
G01 X5.7657 Y-52.9457 F160.00
G01 X5.7567 Y-52.9626 F160.00
G01 X5.7172 Y-53.0467 F160.00
G01 X5.6826 Y-53.1433 F160.00
G01 X5.6598 Y-53.2334 F160.00
G01 X5.6561 Y-53.2522 F160.00
G01 X5.6427 Y-53.3442 F160.00
G01 X5.6379 Y-53.4371 F160.00
G01 X5.6379 Y-53.4562 F160.00
G01 X5.6420 Y-53.5395 F160.00
G01 X5.6438 Y-53.5586 F160.00
G01 X5.6577 Y-53.6505 F160.00
G01 X5.6801 Y-53.7407 F160.00
G01 X5.6856 Y-53.7591 F160.00
G01 X5.7172 Y-53.8465 F160.00
G01 X5.7567 Y-53.9307 F160.00
G01 X5.7657 Y-53.9476 F160.00
G01 X5.8137 Y-54.0272 F160.00
G01 X5.8689 Y-54.1020 F160.00
G01 X5.8811 Y-54.1168 F160.00
G01 X5.9437 Y-54.1856 F160.00
G01 X6.0124 Y-54.2482 F160.00
G01 X6.0272 Y-54.2603 F160.00
G01 X6.1021 Y-54.3155 F160.00
G01 X6.1900 Y-54.3682 F160.00
G01 X6.2740 Y-54.4082 F160.00
G01 X6.2917 Y-54.4155 F160.00
G01 X6.3793 Y-54.4466 F160.00
G01 X6.4788 Y-54.4715 F160.00
G01 X6.5707 Y-54.4854 F160.00
G01 X6.5897 Y-54.4873 F160.00
G01 X6.6826 Y-54.4916 F160.00
G01 X6.7803 Y-54.4870 F160.00
G01 X6.7946 Y-54.4854 F160.00
G01 X6.8865 Y-54.4715 F160.00
G01 X6.9767 Y-54.4492 F160.00
G01 X6.9951 Y-54.4436 F160.00
G01 X7.0736 Y-54.4155 F160.00
G01 X7.0913 Y-54.4082 F160.00
G01 X7.1752 Y-54.3682 F160.00
G01 X7.2632 Y-54.3155 F160.00
G01 X7.3456 Y-54.2544 F160.00
G01 X7.4146 Y-54.1922 F160.00
G01 X7.4249 Y-54.1821 F160.00
G01 X7.4904 Y-54.1096 F160.00
G01 X7.5515 Y-54.0272 F160.00
G01 X7.6042 Y-53.9392 F160.00
G01 X7.6442 Y-53.8553 F160.00
G01 X7.6499 Y-53.8421 F160.00
G01 X7.6826 Y-53.7500 F160.00
G01 X7.7054 Y-53.6598 F160.00
G01 X7.7084 Y-53.6458 F160.00
G01 X7.7214 Y-53.5586 F160.00
G01 X7.7230 Y-53.5443 F160.00
G01 X7.7276 Y-53.4514 F160.00
G01 X7.7274 Y-53.4371 F160.00
G01 X7.7250 Y-53.3875 F160.00
G01 X12.9416 Y-48.1708 F160.00
G01 X12.9841 Y-48.1237 F160.00
G01 X13.0192 Y-48.0767 F160.00
G01 X13.0298 Y-48.0608 F160.00
G01 X13.0598 Y-48.0104 F160.00
G01 X13.0851 Y-47.9574 F160.00
G01 X13.0924 Y-47.9398 F160.00
G01 X13.1119 Y-47.8844 F160.00
G01 X13.1264 Y-47.8276 F160.00
G01 X13.1302 Y-47.8088 F160.00
G01 X13.1385 Y-47.7508 F160.00
G01 X13.1419 Y-47.6826 F160.00
G01 X13.1419 Y-28.2563 F160.00
G01 X13.1389 Y-28.1929 F160.00
G01 X13.1374 Y-28.1786 F160.00
G01 X13.1302 Y-28.1301 F160.00
G01 X13.1264 Y-28.1113 F160.00
G01 X13.1119 Y-28.0545 F160.00
G01 X13.0890 Y-27.9902 F160.00
G01 X13.0598 Y-27.9286 F160.00
G01 X13.0298 Y-27.8781 F160.00
G01 X13.0192 Y-27.8622 F160.00
G01 X12.9899 Y-27.8228 F160.00
G01 X12.9810 Y-27.8116 F160.00
G01 X12.9382 Y-27.7647 F160.00
G01 X11.7413 Y-26.5677 F160.00
G01 X11.7416 Y-26.5515 F160.00
G01 X11.7403 Y-26.5252 F160.00
G01 X11.7723 Y-26.4715 F160.00
G01 X11.7976 Y-26.4186 F160.00
G01 X11.8049 Y-26.4009 F160.00
G01 X11.8214 Y-26.3547 F160.00
G01 X11.8258 Y-26.3410 F160.00
G01 X11.8410 Y-26.2794 F160.00
G01 X11.8499 Y-26.2214 F160.00
G01 X11.8517 Y-26.2024 F160.00
G01 X11.8543 Y-26.1486 F160.00
G01 X11.8544 Y-21.1090 F160.00
G01 X11.8517 Y-21.0504 F160.00
G01 X11.8499 Y-21.0314 F160.00
G01 X11.8410 Y-20.9734 F160.00
G01 X11.8244 Y-20.9072 F160.00
G01 X11.8015 Y-20.8430 F160.00
G01 X11.7766 Y-20.7899 F160.00
G01 X11.7676 Y-20.7730 F160.00
G01 X11.7423 Y-20.7309 F160.00
G01 X11.7345 Y-20.7188 F160.00
G01 X11.6966 Y-20.6680 F160.00
G01 X11.6507 Y-20.6174 F160.00
G01 X8.1963 Y-17.1630 F160.00
G01 X8.1530 Y-17.1234 F160.00
G01 X8.1382 Y-17.1113 F160.00
G01 X8.0910 Y-17.0765 F160.00
G01 X8.0408 Y-17.0462 F160.00
G01 X8.0239 Y-17.0372 F160.00
G01 X7.9708 Y-17.0123 F160.00
G01 X7.9156 Y-16.9923 F160.00
G01 X7.8973 Y-16.9868 F160.00
G01 X7.8403 Y-16.9727 F160.00
G01 X7.7824 Y-16.9639 F160.00
G01 X7.7633 Y-16.9620 F160.00
G01 X7.7095 Y-16.9594 F160.00
G01 X5.2146 Y-16.9594 F160.00
G01 X5.0544 Y-16.7991 F160.00
G01 X5.0544 Y-16.7006 F160.00
G01 X5.1265 Y-16.6355 F160.00
G01 X5.1400 Y-16.6220 F160.00
G01 X5.2056 Y-16.5493 F160.00
G01 X5.2641 Y-16.4708 F160.00
G01 X5.2747 Y-16.4549 F160.00
G01 X5.3248 Y-16.3708 F160.00
G01 X5.3708 Y-16.2737 F160.00
G01 X5.4070 Y-16.1725 F160.00
G01 X5.4331 Y-16.0682 F160.00
G01 X5.4489 Y-15.9620 F160.00
G01 X5.4541 Y-15.8546 F160.00
G01 X5.4489 Y-15.7473 F160.00
G01 X5.4331 Y-15.6410 F160.00
G01 X5.4070 Y-15.5368 F160.00
G01 X5.3742 Y-15.4445 F160.00
G01 X5.3669 Y-15.4268 F160.00
G01 X5.3291 Y-15.3470 F160.00
G01 X5.3201 Y-15.3301 F160.00
G01 X5.2696 Y-15.2463 F160.00
G01 X5.2115 Y-15.1675 F160.00
G01 X5.1993 Y-15.1527 F160.00
G01 X5.1334 Y-15.0803 F160.00
G01 X5.0544 Y-15.0087 F160.00
G01 X5.0544 Y-3.9665 F160.00
G01 X5.0668 Y-3.9562 F160.00
G01 X5.1356 Y-3.8936 F160.00
G01 X5.2044 Y-3.8176 F160.00
G01 X5.2655 Y-3.7352 F160.00
G01 X5.3135 Y-3.6556 F160.00
G01 X5.3225 Y-3.6387 F160.00
G01 X5.3582 Y-3.5633 F160.00
G01 X5.3655 Y-3.5456 F160.00
G01 X5.3966 Y-3.4580 F160.00
G01 X5.4194 Y-3.3678 F160.00
G01 X5.4232 Y-3.3491 F160.00
G01 X5.4366 Y-3.2571 F160.00
G01 X5.4416 Y-3.1546 F160.00
G01 X5.4366 Y-3.0522 F160.00
G01 X5.4215 Y-2.9508 F160.00
G01 X5.3966 Y-2.8513 F160.00
G01 X5.3621 Y-2.7547 F160.00
G01 X5.3182 Y-2.6620 F160.00
G01 X5.2655 Y-2.5741 F160.00
G01 X5.2044 Y-2.4917 F160.00
G01 X5.1356 Y-2.4157 F160.00
G01 X5.0596 Y-2.3468 F160.00
G01 X4.9772 Y-2.2857 F160.00
G01 X4.8892 Y-2.2330 F160.00
G01 X4.7965 Y-2.1892 F160.00
G01 X4.7000 Y-2.1546 F160.00
G01 X4.6005 Y-2.1297 F160.00
G01 X4.4991 Y-2.1147 F160.00
G01 X4.3966 Y-2.1096 F160.00
G01 X4.2942 Y-2.1147 F160.00
G01 X4.1928 Y-2.1297 F160.00
G01 X4.0933 Y-2.1546 F160.00
G01 X3.9967 Y-2.1892 F160.00
G01 X3.9040 Y-2.2330 F160.00
G01 X3.8161 Y-2.2857 F160.00
G01 X3.7337 Y-2.3468 F160.00
G01 X3.6577 Y-2.4157 F160.00
G01 X3.5888 Y-2.4917 F160.00
G01 X3.5277 Y-2.5741 F160.00
G01 X3.4750 Y-2.6620 F160.00
G01 X3.4312 Y-2.7547 F160.00
G01 X3.3966 Y-2.8513 F160.00
G01 X3.3717 Y-2.9508 F160.00
G01 X3.3567 Y-3.0522 F160.00
G01 X3.3516 Y-3.1546 F160.00
G01 X3.3567 Y-3.2571 F160.00
G01 X3.3717 Y-3.3585 F160.00
G01 X3.3966 Y-3.4580 F160.00
G01 X3.4312 Y-3.5545 F160.00
G01 X3.4750 Y-3.6472 F160.00
G01 X3.5277 Y-3.7352 F160.00
G01 X3.5888 Y-3.8176 F160.00
G01 X3.6544 Y-3.8901 F160.00
G00 Z2.0000
G00 X5.6186 Y-3.6487
G01 F60.00
G01 Z-0.0500
G01 F160.00
G01 X5.6184 Y-3.6487 F160.00
G01 X5.6186 Y-3.6482 F160.00
G01 X5.6186 Y-3.6487 F160.00
G00 Z2.0000
G00 X7.9811 Y-4.0190
G01 F60.00
G01 Z-0.0500
G01 F160.00
G01 X7.9816 Y-4.0046 F160.00
G01 X7.9816 Y-3.6036 F160.00
G01 X8.0996 Y-3.6036 F160.00
G01 X8.0996 Y-4.0422 F160.00
G01 X8.0967 Y-4.0694 F160.00
G01 X8.0640 Y-4.1565 F160.00
G01 X8.0102 Y-4.2282 F160.00
G01 X7.9385 Y-4.2820 F160.00
G01 X7.8514 Y-4.3147 F160.00
G01 X7.8242 Y-4.3176 F160.00
G01 X7.6319 Y-4.3176 F160.00
G01 X7.6319 Y-4.1996 F160.00
G01 X7.7866 Y-4.1996 F160.00
G01 X7.8010 Y-4.1991 F160.00
G01 X7.8200 Y-4.1968 F160.00
G01 X7.8386 Y-4.1926 F160.00
G01 X7.8568 Y-4.1866 F160.00
G01 X7.8743 Y-4.1788 F160.00
G01 X7.8869 Y-4.1719 F160.00
G01 X7.8989 Y-4.1641 F160.00
G01 X7.9103 Y-4.1554 F160.00
G01 X7.9176 Y-4.1491 F160.00
G01 X7.9279 Y-4.1391 F160.00
G01 X7.9343 Y-4.1320 F160.00
G01 X7.9404 Y-4.1246 F160.00
G01 X7.9488 Y-4.1130 F160.00
G01 X7.9563 Y-4.1007 F160.00
G01 X7.9629 Y-4.0880 F160.00
G01 X7.9686 Y-4.0748 F160.00
G01 X7.9718 Y-4.0658 F160.00
G01 X7.9746 Y-4.0566 F160.00
G01 X7.9779 Y-4.0427 F160.00
G01 X7.9802 Y-4.0285 F160.00
G01 X7.9811 Y-4.0190 F160.00
G00 Z2.0000
G00 X7.7962 Y-2.1099
G01 F60.00
G01 Z-0.0500
G01 F160.00
G01 X7.3856 Y-2.1096 F160.00
G01 X7.3856 Y-1.9916 F160.00
G01 X7.8242 Y-1.9916 F160.00
G01 X7.8514 Y-1.9946 F160.00
G01 X7.9385 Y-2.0272 F160.00
G01 X8.0102 Y-2.0810 F160.00
G01 X8.0640 Y-2.1528 F160.00
G01 X8.0967 Y-2.2399 F160.00
G01 X8.0996 Y-2.2671 F160.00
G01 X8.0996 Y-2.7056 F160.00
G01 X7.9816 Y-2.7056 F160.00
G01 X7.9816 Y-2.2998 F160.00
G01 X7.9807 Y-2.2855 F160.00
G01 X7.9795 Y-2.2760 F160.00
G01 X7.9769 Y-2.2619 F160.00
G01 X7.9732 Y-2.2480 F160.00
G01 X7.9686 Y-2.2344 F160.00
G01 X7.9629 Y-2.2213 F160.00
G01 X7.9563 Y-2.2085 F160.00
G01 X7.9488 Y-2.1963 F160.00
G01 X7.9404 Y-2.1847 F160.00
G01 X7.9311 Y-2.1737 F160.00
G01 X7.9211 Y-2.1634 F160.00
G01 X7.9066 Y-2.1509 F160.00
G01 X7.8950 Y-2.1425 F160.00
G01 X7.8827 Y-2.1350 F160.00
G01 X7.8700 Y-2.1283 F160.00
G01 X7.8523 Y-2.1210 F160.00
G01 X7.8386 Y-2.1167 F160.00
G01 X7.8247 Y-2.1134 F160.00
G01 X7.8105 Y-2.1111 F160.00
G01 X7.7962 Y-2.1099 F160.00
G00 Z2.0000
G00 X7.7962 Y-7.1899
G01 F60.00
G01 Z-0.0500
G01 F160.00
G01 X7.6319 Y-7.1896 F160.00
G01 X7.6319 Y-7.0716 F160.00
G01 X7.8242 Y-7.0716 F160.00
G01 X7.8514 Y-7.0746 F160.00
G01 X7.9385 Y-7.1072 F160.00
G01 X8.0102 Y-7.1610 F160.00
G01 X8.0640 Y-7.2328 F160.00
G01 X8.0967 Y-7.3199 F160.00
G01 X8.0996 Y-7.3471 F160.00
G01 X8.0996 Y-7.7856 F160.00
G01 X7.9816 Y-7.7856 F160.00
G01 X7.9816 Y-7.3798 F160.00
G01 X7.9811 Y-7.3703 F160.00
G01 X7.9795 Y-7.3560 F160.00
G01 X7.9769 Y-7.3419 F160.00
G01 X7.9732 Y-7.3280 F160.00
G01 X7.9686 Y-7.3144 F160.00
G01 X7.9629 Y-7.3013 F160.00
G01 X7.9563 Y-7.2885 F160.00
G01 X7.9488 Y-7.2763 F160.00
G01 X7.9374 Y-7.2609 F160.00
G01 X7.9279 Y-7.2502 F160.00
G01 X7.9176 Y-7.2401 F160.00
G01 X7.9066 Y-7.2309 F160.00
G01 X7.8909 Y-7.2199 F160.00
G01 X7.8785 Y-7.2127 F160.00
G01 X7.8656 Y-7.2064 F160.00
G01 X7.8523 Y-7.2010 F160.00
G01 X7.8386 Y-7.1967 F160.00
G01 X7.8247 Y-7.1934 F160.00
G01 X7.8105 Y-7.1911 F160.00
G01 X7.7962 Y-7.1899 F160.00
G00 Z2.0000
G00 X6.0866 Y-9.5526
G01 F60.00
G01 Z-0.0500
G01 F160.00
G01 X6.4431 Y-9.5526 F160.00
G01 X6.4322 Y-9.5570 F160.00
G01 X6.4112 Y-9.5663 F160.00
G01 X6.3358 Y-9.6019 F160.00
G01 X6.3255 Y-9.6070 F160.00
G01 X6.3053 Y-9.6178 F160.00
G01 X6.2238 Y-9.6665 F160.00
G01 X6.2044 Y-9.6787 F160.00
G01 X6.1856 Y-9.6920 F160.00
G01 X6.1186 Y-9.7417 F160.00
G01 X6.1005 Y-9.7558 F160.00
G01 X6.0831 Y-9.7708 F160.00
G01 X6.0213 Y-9.8268 F160.00
G01 X6.0047 Y-9.8427 F160.00
G01 X5.9888 Y-9.8593 F160.00
G01 X5.9328 Y-9.9211 F160.00
G01 X5.9178 Y-9.9385 F160.00
G01 X5.9037 Y-9.9566 F160.00
G01 X5.8540 Y-10.0236 F160.00
G01 X5.8407 Y-10.0424 F160.00
G01 X5.8285 Y-10.0618 F160.00
G01 X5.7798 Y-10.1433 F160.00
G01 X5.7743 Y-10.1533 F160.00
G01 X5.7639 Y-10.1738 F160.00
G01 X5.7283 Y-10.2492 F160.00
G01 X5.7190 Y-10.2702 F160.00
G01 X5.7147 Y-10.2809 F160.00
G01 X5.6826 Y-10.3702 F160.00
G01 X5.6754 Y-10.3920 F160.00
G01 X5.6693 Y-10.4142 F160.00
G01 X5.6490 Y-10.4951 F160.00
G01 X5.6440 Y-10.5175 F160.00
G01 X5.6400 Y-10.5401 F160.00
G01 X5.6278 Y-10.6226 F160.00
G01 X5.6250 Y-10.6454 F160.00
G01 X5.6240 Y-10.6569 F160.00
G01 X5.6192 Y-10.7517 F160.00
G01 X5.6186 Y-10.7746 F160.00
G01 X5.6192 Y-10.7976 F160.00
G01 X5.6233 Y-10.8809 F160.00
G01 X5.6250 Y-10.9038 F160.00
G01 X5.6278 Y-10.9266 F160.00
G01 X5.6400 Y-11.0091 F160.00
G01 X5.6440 Y-11.0318 F160.00
G01 X5.6490 Y-11.0542 F160.00
G01 X5.6693 Y-11.1351 F160.00
G01 X5.6754 Y-11.1572 F160.00
G01 X5.6788 Y-11.1682 F160.00
G01 X5.7107 Y-11.2576 F160.00
G01 X5.7190 Y-11.2790 F160.00
G01 X5.7283 Y-11.3000 F160.00
G01 X5.7639 Y-11.3754 F160.00
G01 X5.7743 Y-11.3959 F160.00
G01 X5.7798 Y-11.4060 F160.00
G01 X5.8285 Y-11.4875 F160.00
G01 X5.8407 Y-11.5069 F160.00
G01 X5.8472 Y-11.5163 F160.00
G01 X5.9037 Y-11.5926 F160.00
G01 X5.9178 Y-11.6108 F160.00
G01 X5.9328 Y-11.6281 F160.00
G01 X5.9683 Y-11.6673 F160.00
G01 X5.9670 Y-14.8184 F160.00
G01 X5.9084 Y-14.8715 F160.00
G01 X5.9000 Y-14.8793 F160.00
G01 X5.8838 Y-14.8955 F160.00
G01 X5.8090 Y-14.9780 F160.00
G01 X5.8016 Y-14.9868 F160.00
G01 X5.7875 Y-15.0049 F160.00
G01 X5.7282 Y-15.0851 F160.00
G01 X5.7217 Y-15.0946 F160.00
G01 X5.7094 Y-15.1140 F160.00
G01 X5.6640 Y-15.1898 F160.00
G01 X5.6527 Y-15.2098 F160.00
G01 X5.6423 Y-15.2303 F160.00
G01 X5.6091 Y-15.3005 F160.00
G01 X5.5759 Y-15.2303 F160.00
G01 X5.5656 Y-15.2098 F160.00
G01 X5.5543 Y-15.1898 F160.00
G01 X5.5089 Y-15.1140 F160.00
G01 X5.4966 Y-15.0946 F160.00
G01 X5.4833 Y-15.0758 F160.00
G01 X5.4307 Y-15.0049 F160.00
G01 X5.4166 Y-14.9868 F160.00
G01 X5.4016 Y-14.9694 F160.00
G01 X5.3423 Y-14.9039 F160.00
G01 X5.3274 Y-14.8883 F160.00
G01 X5.3274 Y-7.7266 F160.00
G01 X5.4022 Y-7.7430 F160.00
G01 X5.4250 Y-7.7475 F160.00
G01 X5.4365 Y-7.7492 F160.00
G01 X5.4595 Y-7.7519 F160.00
G01 X5.4827 Y-7.7535 F160.00
G01 X5.4944 Y-7.7538 F160.00
G01 X5.5176 Y-7.7537 F160.00
G01 X5.5292 Y-7.7531 F160.00
G01 X5.5524 Y-7.7512 F160.00
G01 X5.5639 Y-7.7498 F160.00
G01 X5.5869 Y-7.7462 F160.00
G01 X5.5983 Y-7.7440 F160.00
G01 X5.6186 Y-7.7392 F160.00
G01 X5.6188 Y-9.0961 F160.00
G01 X5.6199 Y-9.1191 F160.00
G01 X5.6221 Y-9.1419 F160.00
G01 X5.6237 Y-9.1533 F160.00
G01 X5.6276 Y-9.1759 F160.00
G01 X5.6327 Y-9.1983 F160.00
G01 X5.6388 Y-9.2205 F160.00
G01 X5.6460 Y-9.2423 F160.00
G01 X5.6542 Y-9.2637 F160.00
G01 X5.6636 Y-9.2847 F160.00
G01 X5.6686 Y-9.2950 F160.00
G01 X5.6794 Y-9.3153 F160.00
G01 X5.6852 Y-9.3252 F160.00
G01 X5.6975 Y-9.3446 F160.00
G01 X5.7040 Y-9.3541 F160.00
G01 X5.7177 Y-9.3726 F160.00
G01 X5.7249 Y-9.3815 F160.00
G01 X5.7323 Y-9.3903 F160.00
G01 X5.7477 Y-9.4073 F160.00
G01 X5.7557 Y-9.4156 F160.00
G01 X5.7723 Y-9.4314 F160.00
G01 X5.7809 Y-9.4390 F160.00
G01 X5.7987 Y-9.4536 F160.00
G01 X5.8171 Y-9.4673 F160.00
G01 X5.8266 Y-9.4738 F160.00
G01 X5.8460 Y-9.4860 F160.00
G01 X5.8559 Y-9.4918 F160.00
G01 X5.8762 Y-9.5027 F160.00
G01 X5.8865 Y-9.5077 F160.00
G01 X5.9075 Y-9.5170 F160.00
G01 X5.9182 Y-9.5213 F160.00
G01 X5.9398 Y-9.5290 F160.00
G01 X5.9508 Y-9.5325 F160.00
G01 X5.9729 Y-9.5386 F160.00
G01 X5.9841 Y-9.5413 F160.00
G01 X6.0066 Y-9.5457 F160.00
G01 X6.0180 Y-9.5476 F160.00
G01 X6.0293 Y-9.5491 F160.00
G01 X6.0522 Y-9.5514 F160.00
G01 X6.0637 Y-9.5521 F160.00
G01 X6.0866 Y-9.5526 F160.00
G00 Z2.0000
G00 X5.7214 Y-9.7294
G01 F60.00
G01 Z-0.0500
G01 F160.00
G01 X5.7326 Y-9.7355 F160.00
G01 X5.7185 Y-9.7514 F160.00
G01 X5.7068 Y-9.7653 F160.00
G01 X5.6844 Y-9.7940 F160.00
G01 X5.6240 Y-9.8757 F160.00
G01 X5.6138 Y-9.8907 F160.00
G01 X5.6004 Y-9.9116 F160.00
G01 X5.6004 Y-9.6437 F160.00
G01 X5.6165 Y-9.6574 F160.00
G01 X5.6307 Y-9.6688 F160.00
G01 X5.6600 Y-9.6905 F160.00
G01 X5.6902 Y-9.7107 F160.00
G01 X5.7214 Y-9.7294 F160.00
G00 Z2.0000
G00 X5.8917 Y-10.7698
G01 F60.00
G01 Z-0.0500
G01 F160.00
G01 X5.8919 Y-10.7842 F160.00
G01 X5.8967 Y-10.8771 F160.00
G01 X5.9117 Y-10.9785 F160.00
G01 X5.9366 Y-11.0780 F160.00
G01 X5.9677 Y-11.1656 F160.00
G01 X5.9731 Y-11.1789 F160.00
G01 X6.0150 Y-11.2672 F160.00
G01 X6.0626 Y-11.3471 F160.00
G01 X6.0704 Y-11.3591 F160.00
G01 X6.1229 Y-11.4300 F160.00
G01 X6.1319 Y-11.4412 F160.00
G01 X6.1944 Y-11.5101 F160.00
G01 X6.2046 Y-11.5202 F160.00
G01 X6.2413 Y-11.5534 F160.00
G01 X6.2399 Y-14.9519 F160.00
G01 X6.1645 Y-15.0082 F160.00
G01 X6.0918 Y-15.0737 F160.00
G01 X6.0782 Y-15.0873 F160.00
G01 X6.0127 Y-15.1600 F160.00
G01 X5.9487 Y-15.2463 F160.00
G01 X5.8981 Y-15.3301 F160.00
G01 X5.8891 Y-15.3470 F160.00
G01 X5.8475 Y-15.4356 F160.00
G01 X5.8143 Y-15.5277 F160.00
G01 X5.8087 Y-15.5460 F160.00
G01 X5.7852 Y-15.6410 F160.00
G01 X5.7694 Y-15.7473 F160.00
G01 X5.7644 Y-15.8451 F160.00
G01 X5.7644 Y-15.8642 F160.00
G01 X5.7694 Y-15.9620 F160.00
G01 X5.7852 Y-16.0682 F160.00
G01 X5.8113 Y-16.1725 F160.00
G01 X5.8475 Y-16.2737 F160.00
G01 X5.8934 Y-16.3708 F160.00
G01 X5.9487 Y-16.4630 F160.00
G01 X6.0127 Y-16.5493 F160.00
G01 X6.0848 Y-16.6289 F160.00
G01 X6.1645 Y-16.7011 F160.00
G01 X6.2508 Y-16.7651 F160.00
G01 X6.3429 Y-16.8203 F160.00
G01 X6.4401 Y-16.8663 F160.00
G01 X6.5413 Y-16.9025 F160.00
G01 X6.6455 Y-16.9286 F160.00
G01 X6.7518 Y-16.9444 F160.00
G01 X6.8591 Y-16.9496 F160.00
G01 X6.9665 Y-16.9444 F160.00
G01 X7.0727 Y-16.9286 F160.00
G01 X7.1678 Y-16.9050 F160.00
G01 X7.1861 Y-16.8995 F160.00
G01 X7.2782 Y-16.8663 F160.00
G01 X7.3753 Y-16.8203 F160.00
G01 X7.4675 Y-16.7651 F160.00
G01 X7.5462 Y-16.7070 F160.00
G01 X7.5610 Y-16.6948 F160.00
G01 X7.6265 Y-16.6355 F160.00
G01 X7.6400 Y-16.6220 F160.00
G01 X7.7056 Y-16.5493 F160.00
G01 X7.7641 Y-16.4708 F160.00
G01 X7.7747 Y-16.4549 F160.00
G01 X7.8201 Y-16.3791 F160.00
G01 X7.8291 Y-16.3623 F160.00
G01 X7.8708 Y-16.2737 F160.00
G01 X7.9070 Y-16.1725 F160.00
G01 X7.9331 Y-16.0682 F160.00
G01 X7.9477 Y-15.9715 F160.00
G01 X7.9496 Y-15.9524 F160.00
G01 X7.9541 Y-15.8546 F160.00
G01 X7.9489 Y-15.7473 F160.00
G01 X7.9331 Y-15.6410 F160.00
G01 X7.9095 Y-15.5460 F160.00
G01 X7.9040 Y-15.5277 F160.00
G01 X7.8708 Y-15.4356 F160.00
G01 X7.8291 Y-15.3470 F160.00
G01 X7.8201 Y-15.3301 F160.00
G01 X7.7747 Y-15.2544 F160.00
G01 X7.7641 Y-15.2385 F160.00
G01 X7.7056 Y-15.1600 F160.00
G01 X7.6400 Y-15.0873 F160.00
G01 X7.6319 Y-15.0788 F160.00
G01 X7.6319 Y-11.5535 F160.00
G01 X7.6686 Y-11.5202 F160.00
G01 X7.6789 Y-11.5101 F160.00
G01 X7.7413 Y-11.4412 F160.00
G01 X7.7503 Y-11.4300 F160.00
G01 X7.8000 Y-11.3630 F160.00
G01 X7.8081 Y-11.3512 F160.00
G01 X7.8582 Y-11.2672 F160.00
G01 X7.8982 Y-11.1833 F160.00
G01 X7.9055 Y-11.1656 F160.00
G01 X7.9352 Y-11.0825 F160.00
G01 X7.9392 Y-11.0687 F160.00
G01 X7.9615 Y-10.9785 F160.00
G01 X7.9754 Y-10.8866 F160.00
G01 X7.9773 Y-10.8675 F160.00
G01 X7.9816 Y-10.7746 F160.00
G01 X7.9773 Y-10.6817 F160.00
G01 X7.9754 Y-10.6627 F160.00
G01 X7.9615 Y-10.5708 F160.00
G01 X7.9366 Y-10.4713 F160.00
G01 X7.9021 Y-10.3747 F160.00
G01 X7.8582 Y-10.2820 F160.00
G01 X7.8106 Y-10.2021 F160.00
G01 X7.8000 Y-10.1862 F160.00
G01 X7.7503 Y-10.1192 F160.00
G01 X7.7382 Y-10.1044 F160.00
G01 X7.6756 Y-10.0357 F160.00
G01 X7.6068 Y-9.9731 F160.00
G01 X7.5920 Y-9.9609 F160.00
G01 X7.5172 Y-9.9057 F160.00
G01 X7.4292 Y-9.8530 F160.00
G01 X7.3365 Y-9.8092 F160.00
G01 X7.2400 Y-9.7746 F160.00
G01 X7.1405 Y-9.7497 F160.00
G01 X7.0391 Y-9.7347 F160.00
G01 X6.9366 Y-9.7296 F160.00
G01 X6.8342 Y-9.7347 F160.00
G01 X6.7328 Y-9.7497 F160.00
G01 X6.6333 Y-9.7746 F160.00
G01 X6.5367 Y-9.8092 F160.00
G01 X6.4526 Y-9.8487 F160.00
G01 X6.4357 Y-9.8577 F160.00
G01 X6.3561 Y-9.9057 F160.00
G01 X6.2812 Y-9.9609 F160.00
G01 X6.2664 Y-9.9731 F160.00
G01 X6.2046 Y-10.0291 F160.00
G01 X6.1911 Y-10.0426 F160.00
G01 X6.1288 Y-10.1117 F160.00
G01 X6.0677 Y-10.1941 F160.00
G01 X6.0150 Y-10.2820 F160.00
G01 X5.9712 Y-10.3747 F160.00
G01 X5.9366 Y-10.4713 F160.00
G01 X5.9117 Y-10.5708 F160.00
G01 X5.8967 Y-10.6722 F160.00
G01 X5.8917 Y-10.7698 F160.00
G00 Z2.0000
G00 X5.6737 Y-14.7206
G01 F60.00
G01 Z-0.0500
G01 F160.00
G01 X5.6091 Y-14.7920 F160.00
G01 X5.6004 Y-14.7822 F160.00
G01 X5.6004 Y-11.6377 F160.00
G01 X5.6138 Y-11.6585 F160.00
G01 X5.6240 Y-11.6735 F160.00
G01 X5.6952 Y-11.7695 F160.00
G01 X5.6940 Y-14.6991 F160.00
G01 X5.6737 Y-14.7206 F160.00
G00 Z2.0000
G00 X5.7282 Y-16.6241
G01 F60.00
G01 Z-0.0500
G01 F160.00
G01 X5.7742 Y-16.6864 F160.00
G01 X5.4441 Y-16.6864 F160.00
G01 X5.4833 Y-16.6334 F160.00
G01 X5.4966 Y-16.6146 F160.00
G01 X5.5089 Y-16.5952 F160.00
G01 X5.5543 Y-16.5195 F160.00
G01 X5.5656 Y-16.4995 F160.00
G01 X5.5709 Y-16.4893 F160.00
G01 X5.6091 Y-16.4088 F160.00
G01 X5.6423 Y-16.4790 F160.00
G01 X5.6527 Y-16.4995 F160.00
G01 X5.6582 Y-16.5096 F160.00
G01 X5.7094 Y-16.5952 F160.00
G01 X5.7217 Y-16.6146 F160.00
G01 X5.7282 Y-16.6241 F160.00
G00 Z2.0000
G00 X7.9833 Y-16.6334
G01 F60.00
G01 Z-0.0500
G01 F160.00
G01 X7.9911 Y-16.6226 F160.00
G01 X7.9911 Y-16.7298 F160.00
G01 X7.9747 Y-16.7249 F160.00
G01 X7.9248 Y-16.7122 F160.00
G01 X7.9833 Y-16.6334 F160.00
G00 Z2.0000
G00 X7.9810 Y-15.0355
G01 F60.00
G01 Z-0.0500
G01 F160.00
G01 X7.9911 Y-15.0376 F160.00
G01 X7.9911 Y-15.0867 F160.00
G01 X7.9481 Y-15.0284 F160.00
G01 X7.9810 Y-15.0355 F160.00
G00 Z2.0000
G00 X8.2651 Y-14.9355
G01 F60.00
G01 Z-0.0500
G01 F160.00
G01 X8.2641 Y-14.9546 F160.00
G01 X8.2642 Y-16.7594 F160.00
G01 X8.2656 Y-16.7785 F160.00
G01 X8.2689 Y-16.7973 F160.00
G01 X8.2740 Y-16.8158 F160.00
G01 X8.2809 Y-16.8336 F160.00
G01 X8.2895 Y-16.8507 F160.00
G01 X8.2970 Y-16.8630 F160.00
G01 X8.3025 Y-16.8708 F160.00
G01 X8.3146 Y-16.8856 F160.00
G01 X8.3282 Y-16.8991 F160.00
G01 X8.3392 Y-16.9084 F160.00
G01 X8.3548 Y-16.9194 F160.00
G01 X8.3672 Y-16.9266 F160.00
G01 X8.3845 Y-16.9348 F160.00
G01 X8.4025 Y-16.9412 F160.00
G01 X8.4164 Y-16.9449 F160.00
G01 X8.4353 Y-16.9482 F160.00
G01 X8.4543 Y-16.9496 F160.00
G01 X10.2591 Y-16.9496 F160.00
G01 X10.2782 Y-16.9487 F160.00
G01 X10.2925 Y-16.9468 F160.00
G01 X10.3018 Y-16.9449 F160.00
G01 X10.3203 Y-16.9398 F160.00
G01 X10.3381 Y-16.9329 F160.00
G01 X10.3468 Y-16.9288 F160.00
G01 X10.3594 Y-16.9219 F160.00
G01 X10.3753 Y-16.9113 F160.00
G01 X10.3901 Y-16.8991 F160.00
G01 X10.4036 Y-16.8856 F160.00
G01 X10.4158 Y-16.8708 F160.00
G01 X10.4264 Y-16.8549 F160.00
G01 X10.4354 Y-16.8380 F160.00
G01 X10.4411 Y-16.8248 F160.00
G01 X10.4471 Y-16.8066 F160.00
G01 X10.4504 Y-16.7927 F160.00
G01 X10.4532 Y-16.7737 F160.00
G01 X10.4541 Y-16.7594 F160.00
G01 X10.4541 Y-14.9546 F160.00
G01 X10.4532 Y-14.9355 F160.00
G01 X10.4504 Y-14.9166 F160.00
G01 X10.4457 Y-14.8980 F160.00
G01 X10.4427 Y-14.8889 F160.00
G01 X10.4374 Y-14.8756 F160.00
G01 X10.4333 Y-14.8670 F160.00
G01 X10.4264 Y-14.8544 F160.00
G01 X10.4158 Y-14.8385 F160.00
G01 X10.4036 Y-14.8237 F160.00
G01 X10.3901 Y-14.8101 F160.00
G01 X10.3753 Y-14.7980 F160.00
G01 X10.3594 Y-14.7874 F160.00
G01 X10.3425 Y-14.7783 F160.00
G01 X10.3293 Y-14.7727 F160.00
G01 X10.3111 Y-14.7667 F160.00
G01 X10.2972 Y-14.7634 F160.00
G01 X10.2782 Y-14.7606 F160.00
G01 X10.2639 Y-14.7597 F160.00
G01 X8.4496 Y-14.7599 F160.00
G01 X8.4353 Y-14.7611 F160.00
G01 X8.4164 Y-14.7644 F160.00
G01 X8.4025 Y-14.7680 F160.00
G01 X8.3845 Y-14.7745 F160.00
G01 X8.3715 Y-14.7804 F160.00
G01 X8.3548 Y-14.7899 F160.00
G01 X8.3392 Y-14.8009 F160.00
G01 X8.3247 Y-14.8134 F160.00
G01 X8.3115 Y-14.8273 F160.00
G01 X8.2997 Y-14.8423 F160.00
G01 X8.2919 Y-14.8544 F160.00
G01 X8.2828 Y-14.8713 F160.00
G01 X8.2772 Y-14.8844 F160.00
G01 X8.2712 Y-14.9026 F160.00
G01 X8.2679 Y-14.9166 F160.00
G01 X8.2651 Y-14.9355 F160.00
G00 Z2.0000
G00 X9.3496 Y-22.9494
G01 F60.00
G01 Z-0.0500
G01 F160.00
G01 X9.3687 Y-22.9494 F160.00
G01 X9.4665 Y-22.9444 F160.00
G01 X9.5727 Y-22.9286 F160.00
G01 X9.6770 Y-22.9025 F160.00
G01 X9.7782 Y-22.8663 F160.00
G01 X9.8753 Y-22.8203 F160.00
G01 X9.9675 Y-22.7651 F160.00
G01 X10.0538 Y-22.7011 F160.00
G01 X10.1334 Y-22.6289 F160.00
G01 X10.2056 Y-22.5493 F160.00
G01 X10.2696 Y-22.4630 F160.00
G01 X10.3248 Y-22.3708 F160.00
G01 X10.3708 Y-22.2737 F160.00
G01 X10.4070 Y-22.1725 F160.00
G01 X10.4331 Y-22.0682 F160.00
G01 X10.4489 Y-21.9620 F160.00
G01 X10.4541 Y-21.8546 F160.00
G01 X10.4489 Y-21.7473 F160.00
G01 X10.4331 Y-21.6410 F160.00
G01 X10.4070 Y-21.5368 F160.00
G01 X10.3708 Y-21.4356 F160.00
G01 X10.3248 Y-21.3384 F160.00
G01 X10.2696 Y-21.2463 F160.00
G01 X10.2056 Y-21.1600 F160.00
G01 X10.1334 Y-21.0803 F160.00
G01 X10.0538 Y-21.0082 F160.00
G01 X9.9675 Y-20.9442 F160.00
G01 X9.8753 Y-20.8889 F160.00
G01 X9.7782 Y-20.8430 F160.00
G01 X9.6770 Y-20.8068 F160.00
G01 X9.5727 Y-20.7807 F160.00
G01 X9.4665 Y-20.7649 F160.00
G01 X9.3591 Y-20.7596 F160.00
G01 X9.2518 Y-20.7649 F160.00
G01 X9.1455 Y-20.7807 F160.00
G01 X9.0413 Y-20.8068 F160.00
G01 X8.9401 Y-20.8430 F160.00
G01 X8.8429 Y-20.8889 F160.00
G01 X8.7508 Y-20.9442 F160.00
G01 X8.6645 Y-21.0082 F160.00
G01 X8.5848 Y-21.0803 F160.00
G01 X8.5127 Y-21.1600 F160.00
G01 X8.4487 Y-21.2463 F160.00
G01 X8.3934 Y-21.3384 F160.00
G01 X8.3475 Y-21.4356 F160.00
G01 X8.3113 Y-21.5368 F160.00
G01 X8.2852 Y-21.6410 F160.00
G01 X8.2694 Y-21.7473 F160.00
G01 X8.2641 Y-21.8546 F160.00
G01 X8.2694 Y-21.9620 F160.00
G01 X8.2852 Y-22.0682 F160.00
G01 X8.3113 Y-22.1725 F160.00
G01 X8.3475 Y-22.2737 F160.00
G01 X8.3934 Y-22.3708 F160.00
G01 X8.4487 Y-22.4630 F160.00
G01 X8.5127 Y-22.5493 F160.00
G01 X8.5848 Y-22.6289 F160.00
G01 X8.6645 Y-22.7011 F160.00
G01 X8.7508 Y-22.7651 F160.00
G01 X8.8429 Y-22.8203 F160.00
G01 X8.9401 Y-22.8663 F160.00
G01 X9.0413 Y-22.9025 F160.00
G01 X9.1455 Y-22.9286 F160.00
G01 X9.2518 Y-22.9444 F160.00
G01 X9.3496 Y-22.9494 F160.00
G00 Z2.0000
G00 X6.8496 Y-22.9494
G01 F60.00
G01 Z-0.0500
G01 F160.00
G01 X6.8687 Y-22.9494 F160.00
G01 X6.9665 Y-22.9444 F160.00
G01 X7.0727 Y-22.9286 F160.00
G01 X7.1770 Y-22.9025 F160.00
G01 X7.2782 Y-22.8663 F160.00
G01 X7.3753 Y-22.8203 F160.00
G01 X7.4675 Y-22.7651 F160.00
G01 X7.5538 Y-22.7011 F160.00
G01 X7.6334 Y-22.6289 F160.00
G01 X7.7056 Y-22.5493 F160.00
G01 X7.7696 Y-22.4630 F160.00
G01 X7.8248 Y-22.3708 F160.00
G01 X7.8708 Y-22.2737 F160.00
G01 X7.9070 Y-22.1725 F160.00
G01 X7.9331 Y-22.0682 F160.00
G01 X7.9489 Y-21.9620 F160.00
G01 X7.9541 Y-21.8546 F160.00
G01 X7.9489 Y-21.7473 F160.00
G01 X7.9331 Y-21.6410 F160.00
G01 X7.9070 Y-21.5368 F160.00
G01 X7.8708 Y-21.4356 F160.00
G01 X7.8248 Y-21.3384 F160.00
G01 X7.7696 Y-21.2463 F160.00
G01 X7.7056 Y-21.1600 F160.00
G01 X7.6334 Y-21.0803 F160.00
G01 X7.5538 Y-21.0082 F160.00
G01 X7.4675 Y-20.9442 F160.00
G01 X7.3753 Y-20.8889 F160.00
G01 X7.2782 Y-20.8430 F160.00
G01 X7.1770 Y-20.8068 F160.00
G01 X7.0727 Y-20.7807 F160.00
G01 X6.9665 Y-20.7649 F160.00
G01 X6.8591 Y-20.7596 F160.00
G01 X6.7518 Y-20.7649 F160.00
G01 X6.6455 Y-20.7807 F160.00
G01 X6.5413 Y-20.8068 F160.00
G01 X6.4401 Y-20.8430 F160.00
G01 X6.3429 Y-20.8889 F160.00
G01 X6.2508 Y-20.9442 F160.00
G01 X6.1645 Y-21.0082 F160.00
G01 X6.0848 Y-21.0803 F160.00
G01 X6.0127 Y-21.1600 F160.00
G01 X5.9487 Y-21.2463 F160.00
G01 X5.8934 Y-21.3384 F160.00
G01 X5.8475 Y-21.4356 F160.00
G01 X5.8113 Y-21.5368 F160.00
G01 X5.7852 Y-21.6410 F160.00
G01 X5.7694 Y-21.7473 F160.00
G01 X5.7641 Y-21.8546 F160.00
G01 X5.7694 Y-21.9620 F160.00
G01 X5.7852 Y-22.0682 F160.00
G01 X5.8113 Y-22.1725 F160.00
G01 X5.8475 Y-22.2737 F160.00
G01 X5.8934 Y-22.3708 F160.00
G01 X5.9487 Y-22.4630 F160.00
G01 X6.0127 Y-22.5493 F160.00
G01 X6.0848 Y-22.6289 F160.00
G01 X6.1645 Y-22.7011 F160.00
G01 X6.2508 Y-22.7651 F160.00
G01 X6.3429 Y-22.8203 F160.00
G01 X6.4401 Y-22.8663 F160.00
G01 X6.5413 Y-22.9025 F160.00
G01 X6.6455 Y-22.9286 F160.00
G01 X6.7518 Y-22.9444 F160.00
G01 X6.8496 Y-22.9494 F160.00
G00 Z2.0000
G00 X4.3496 Y-22.9494
G01 F60.00
G01 Z-0.0500
G01 F160.00
G01 X4.3687 Y-22.9494 F160.00
G01 X4.4665 Y-22.9444 F160.00
G01 X4.5727 Y-22.9286 F160.00
G01 X4.6770 Y-22.9025 F160.00
G01 X4.7782 Y-22.8663 F160.00
G01 X4.8753 Y-22.8203 F160.00
G01 X4.9675 Y-22.7651 F160.00
G01 X5.0538 Y-22.7011 F160.00
G01 X5.1334 Y-22.6289 F160.00
G01 X5.2056 Y-22.5493 F160.00
G01 X5.2696 Y-22.4630 F160.00
G01 X5.3248 Y-22.3708 F160.00
G01 X5.3708 Y-22.2737 F160.00
G01 X5.4070 Y-22.1725 F160.00
G01 X5.4331 Y-22.0682 F160.00
G01 X5.4489 Y-21.9620 F160.00
G01 X5.4541 Y-21.8546 F160.00
G01 X5.4489 Y-21.7473 F160.00
G01 X5.4331 Y-21.6410 F160.00
G01 X5.4070 Y-21.5368 F160.00
G01 X5.3708 Y-21.4356 F160.00
G01 X5.3248 Y-21.3384 F160.00
G01 X5.2696 Y-21.2463 F160.00
G01 X5.2056 Y-21.1600 F160.00
G01 X5.1334 Y-21.0803 F160.00
G01 X5.0538 Y-21.0082 F160.00
G01 X4.9675 Y-20.9442 F160.00
G01 X4.8753 Y-20.8889 F160.00
G01 X4.7782 Y-20.8430 F160.00
G01 X4.6770 Y-20.8068 F160.00
G01 X4.5727 Y-20.7807 F160.00
G01 X4.4665 Y-20.7649 F160.00
G01 X4.3591 Y-20.7596 F160.00
G01 X4.2518 Y-20.7649 F160.00
G01 X4.1455 Y-20.7807 F160.00
G01 X4.0413 Y-20.8068 F160.00
G01 X3.9401 Y-20.8430 F160.00
G01 X3.8429 Y-20.8889 F160.00
G01 X3.7508 Y-20.9442 F160.00
G01 X3.6645 Y-21.0082 F160.00
G01 X3.5848 Y-21.0803 F160.00
G01 X3.5127 Y-21.1600 F160.00
G01 X3.4487 Y-21.2463 F160.00
G01 X3.3934 Y-21.3384 F160.00
G01 X3.3475 Y-21.4356 F160.00
G01 X3.3113 Y-21.5368 F160.00
G01 X3.2852 Y-21.6410 F160.00
G01 X3.2694 Y-21.7473 F160.00
G01 X3.2641 Y-21.8546 F160.00
G01 X3.2694 Y-21.9620 F160.00
G01 X3.2852 Y-22.0682 F160.00
G01 X3.3113 Y-22.1725 F160.00
G01 X3.3475 Y-22.2737 F160.00
G01 X3.3934 Y-22.3708 F160.00
G01 X3.4487 Y-22.4630 F160.00
G01 X3.5127 Y-22.5493 F160.00
G01 X3.5848 Y-22.6289 F160.00
G01 X3.6645 Y-22.7011 F160.00
G01 X3.7508 Y-22.7651 F160.00
G01 X3.8429 Y-22.8203 F160.00
G01 X3.9401 Y-22.8663 F160.00
G01 X4.0413 Y-22.9025 F160.00
G01 X4.1455 Y-22.9286 F160.00
G01 X4.2518 Y-22.9444 F160.00
G01 X4.3496 Y-22.9494 F160.00
G00 Z2.0000
G00 X5.2018 Y-25.6766
G01 F60.00
G01 Z-0.0500
G01 F160.00
G01 X5.1893 Y-25.6835 F160.00
G01 X5.1138 Y-25.7290 F160.00
G01 X5.0354 Y-25.7871 F160.00
G01 X4.9631 Y-25.8527 F160.00
G01 X4.8975 Y-25.9251 F160.00
G01 X4.8393 Y-26.0035 F160.00
G01 X4.7891 Y-26.0873 F160.00
G01 X4.7474 Y-26.1755 F160.00
G01 X4.7145 Y-26.2675 F160.00
G01 X4.6907 Y-26.3622 F160.00
G01 X4.6764 Y-26.4588 F160.00
G01 X4.6716 Y-26.5563 F160.00
G01 X4.6764 Y-26.6538 F160.00
G01 X4.6907 Y-26.7504 F160.00
G01 X4.7145 Y-26.8451 F160.00
G01 X4.7474 Y-26.9371 F160.00
G01 X4.7891 Y-27.0253 F160.00
G01 X4.8393 Y-27.1091 F160.00
G01 X4.8975 Y-27.1875 F160.00
G01 X4.9631 Y-27.2599 F160.00
G01 X5.0354 Y-27.3254 F160.00
G01 X5.1138 Y-27.3836 F160.00
G01 X5.1976 Y-27.4338 F160.00
G01 X5.2859 Y-27.4756 F160.00
G01 X5.3778 Y-27.5084 F160.00
G01 X5.4725 Y-27.5322 F160.00
G01 X5.5691 Y-27.5465 F160.00
G01 X5.6666 Y-27.5513 F160.00
G01 X5.7642 Y-27.5465 F160.00
G01 X5.8607 Y-27.5322 F160.00
G01 X5.9555 Y-27.5084 F160.00
G01 X6.0474 Y-27.4756 F160.00
G01 X6.1357 Y-27.4338 F160.00
G01 X6.2194 Y-27.3836 F160.00
G01 X6.2978 Y-27.3254 F160.00
G01 X6.3702 Y-27.2599 F160.00
G01 X6.4358 Y-27.1875 F160.00
G01 X6.4939 Y-27.1091 F160.00
G01 X6.5441 Y-27.0253 F160.00
G01 X6.5859 Y-26.9371 F160.00
G01 X6.6188 Y-26.8451 F160.00
G01 X6.6425 Y-26.7504 F160.00
G01 X6.6568 Y-26.6538 F160.00
G01 X6.6616 Y-26.5563 F160.00
G01 X6.6568 Y-26.4588 F160.00
G01 X6.6425 Y-26.3622 F160.00
G01 X6.6188 Y-26.2675 F160.00
G01 X6.5859 Y-26.1755 F160.00
G01 X6.5441 Y-26.0873 F160.00
G01 X6.4939 Y-26.0035 F160.00
G01 X6.4358 Y-25.9251 F160.00
G01 X6.3702 Y-25.8527 F160.00
G01 X6.2978 Y-25.7871 F160.00
G01 X6.2194 Y-25.7290 F160.00
G01 X6.1357 Y-25.6788 F160.00
G01 X6.0474 Y-25.6370 F160.00
G01 X5.9555 Y-25.6041 F160.00
G01 X5.8607 Y-25.5804 F160.00
G01 X5.7642 Y-25.5661 F160.00
G01 X5.6666 Y-25.5613 F160.00
G01 X5.5691 Y-25.5661 F160.00
G01 X5.4725 Y-25.5804 F160.00
G01 X5.3778 Y-25.6041 F160.00
G01 X5.2859 Y-25.6370 F160.00
G01 X5.2018 Y-25.6766 F160.00
G00 Z2.0000
G00 X4.3914 Y-26.4794
G01 F60.00
G01 Z-0.0500
G01 F160.00
G01 X4.4018 Y-26.4794 F160.00
G01 X4.3992 Y-26.5333 F160.00
G01 X4.3986 Y-26.5563 F160.00
G01 X4.3992 Y-26.5793 F160.00
G01 X4.4018 Y-26.6331 F160.00
G01 X4.3914 Y-26.6332 F160.00
G01 X4.3941 Y-26.5793 F160.00
G01 X4.3946 Y-26.5563 F160.00
G01 X4.3941 Y-26.5333 F160.00
G01 X4.3914 Y-26.4794 F160.00
G00 Z2.0000
G00 X2.6661 Y-25.6745
G01 F60.00
G01 Z-0.0500
G01 F160.00
G01 X2.6493 Y-25.6835 F160.00
G01 X2.5738 Y-25.7290 F160.00
G01 X2.4954 Y-25.7871 F160.00
G01 X2.4231 Y-25.8527 F160.00
G01 X2.3575 Y-25.9251 F160.00
G01 X2.2993 Y-26.0035 F160.00
G01 X2.2491 Y-26.0873 F160.00
G01 X2.2074 Y-26.1755 F160.00
G01 X2.1745 Y-26.2675 F160.00
G01 X2.1507 Y-26.3622 F160.00
G01 X2.1364 Y-26.4588 F160.00
G01 X2.1316 Y-26.5563 F160.00
G01 X2.1364 Y-26.6538 F160.00
G01 X2.1507 Y-26.7504 F160.00
G01 X2.1745 Y-26.8451 F160.00
G01 X2.2074 Y-26.9371 F160.00
G01 X2.2491 Y-27.0253 F160.00
G01 X2.2993 Y-27.1091 F160.00
G01 X2.3575 Y-27.1875 F160.00
G01 X2.4231 Y-27.2599 F160.00
G01 X2.4954 Y-27.3254 F160.00
G01 X2.5738 Y-27.3836 F160.00
G01 X2.6576 Y-27.4338 F160.00
G01 X2.7459 Y-27.4756 F160.00
G01 X2.8378 Y-27.5084 F160.00
G01 X2.9325 Y-27.5322 F160.00
G01 X3.0291 Y-27.5465 F160.00
G01 X3.1266 Y-27.5513 F160.00
G01 X3.2242 Y-27.5465 F160.00
G01 X3.3207 Y-27.5322 F160.00
G01 X3.4155 Y-27.5084 F160.00
G01 X3.5074 Y-27.4756 F160.00
G01 X3.5957 Y-27.4338 F160.00
G01 X3.6794 Y-27.3836 F160.00
G01 X3.7578 Y-27.3254 F160.00
G01 X3.8302 Y-27.2599 F160.00
G01 X3.8958 Y-27.1875 F160.00
G01 X3.9539 Y-27.1091 F160.00
G01 X4.0041 Y-27.0253 F160.00
G01 X4.0459 Y-26.9371 F160.00
G01 X4.0788 Y-26.8451 F160.00
G01 X4.1025 Y-26.7504 F160.00
G01 X4.1168 Y-26.6538 F160.00
G01 X4.1216 Y-26.5563 F160.00
G01 X4.1168 Y-26.4588 F160.00
G01 X4.1025 Y-26.3622 F160.00
G01 X4.0788 Y-26.2675 F160.00
G01 X4.0459 Y-26.1755 F160.00
G01 X4.0041 Y-26.0873 F160.00
G01 X3.9539 Y-26.0035 F160.00
G01 X3.8958 Y-25.9251 F160.00
G01 X3.8302 Y-25.8527 F160.00
G01 X3.7578 Y-25.7871 F160.00
G01 X3.6794 Y-25.7290 F160.00
G01 X3.5957 Y-25.6788 F160.00
G01 X3.5074 Y-25.6370 F160.00
G01 X3.4155 Y-25.6041 F160.00
G01 X3.3207 Y-25.5804 F160.00
G01 X3.2242 Y-25.5661 F160.00
G01 X3.1266 Y-25.5613 F160.00
G01 X3.0291 Y-25.5661 F160.00
G01 X2.9325 Y-25.5804 F160.00
G01 X2.8378 Y-25.6041 F160.00
G01 X2.7459 Y-25.6370 F160.00
G01 X2.6661 Y-25.6745 F160.00
G00 Z2.0000
G00 X2.8051 Y-27.6229
G01 F60.00
G01 Z-0.0500
G01 F160.00
G01 X2.7603 Y-27.6109 F160.00
G01 X2.1219 Y-26.9725 F160.00
G01 X2.1219 Y-26.0762 F160.00
G01 X2.1586 Y-25.9974 F160.00
G01 X2.2704 Y-25.8378 F160.00
G01 X2.4081 Y-25.7000 F160.00
G01 X2.5678 Y-25.5883 F160.00
G01 X2.7443 Y-25.5059 F160.00
G01 X2.9325 Y-25.4555 F160.00
G01 X3.1266 Y-25.4385 F160.00
G01 X3.3207 Y-25.4555 F160.00
G01 X3.5089 Y-25.5059 F160.00
G01 X3.6855 Y-25.5883 F160.00
G01 X3.8451 Y-25.7000 F160.00
G01 X3.9829 Y-25.8378 F160.00
G01 X4.0946 Y-25.9974 F160.00
G01 X4.1101 Y-26.0300 F160.00
G01 X4.1175 Y-26.0427 F160.00
G01 X4.1258 Y-26.0549 F160.00
G01 X4.1351 Y-26.0664 F160.00
G01 X4.1835 Y-26.1222 F160.00
G01 X4.1970 Y-26.1357 F160.00
G01 X4.2080 Y-26.1449 F160.00
G01 X4.2196 Y-26.1533 F160.00
G01 X4.2360 Y-26.1631 F160.00
G01 X4.2533 Y-26.1712 F160.00
G01 X4.2667 Y-26.1762 F160.00
G01 X4.3392 Y-26.1982 F160.00
G01 X4.3533 Y-26.2018 F160.00
G01 X4.3723 Y-26.2051 F160.00
G01 X4.3868 Y-26.2063 F160.00
G01 X4.3965 Y-26.2065 F160.00
G01 X4.4110 Y-26.2059 F160.00
G01 X4.4206 Y-26.2049 F160.00
G01 X4.4397 Y-26.2014 F160.00
G01 X4.5266 Y-26.1767 F160.00
G01 X4.5446 Y-26.1696 F160.00
G01 X4.5618 Y-26.1607 F160.00
G01 X4.5781 Y-26.1501 F160.00
G01 X4.5932 Y-26.1380 F160.00
G01 X4.6037 Y-26.1280 F160.00
G01 X4.6103 Y-26.1209 F160.00
G01 X4.6572 Y-26.0676 F160.00
G01 X4.6688 Y-26.0531 F160.00
G01 X4.6765 Y-26.0416 F160.00
G01 X4.6834 Y-26.0295 F160.00
G01 X4.6986 Y-25.9974 F160.00
G01 X4.8104 Y-25.8378 F160.00
G01 X4.9481 Y-25.7000 F160.00
G01 X5.1078 Y-25.5883 F160.00
G01 X5.2843 Y-25.5059 F160.00
G01 X5.4725 Y-25.4555 F160.00
G01 X5.6666 Y-25.4385 F160.00
G01 X5.8607 Y-25.4555 F160.00
G01 X6.0489 Y-25.5059 F160.00
G01 X6.2255 Y-25.5883 F160.00
G01 X6.3851 Y-25.7000 F160.00
G01 X6.5229 Y-25.8378 F160.00
G01 X6.6346 Y-25.9974 F160.00
G01 X6.6501 Y-26.0300 F160.00
G01 X6.6575 Y-26.0427 F160.00
G01 X6.6658 Y-26.0549 F160.00
G01 X6.6751 Y-26.0664 F160.00
G01 X6.7235 Y-26.1222 F160.00
G01 X6.7301 Y-26.1291 F160.00
G01 X6.7406 Y-26.1389 F160.00
G01 X6.7557 Y-26.1506 F160.00
G01 X6.7677 Y-26.1584 F160.00
G01 X6.7845 Y-26.1673 F160.00
G01 X6.8022 Y-26.1746 F160.00
G01 X6.8885 Y-26.2007 F160.00
G01 X6.9028 Y-26.2037 F160.00
G01 X6.9123 Y-26.2051 F160.00
G01 X6.9268 Y-26.2063 F160.00
G01 X6.9365 Y-26.2065 F160.00
G01 X6.9510 Y-26.2059 F160.00
G01 X6.9606 Y-26.2049 F160.00
G01 X6.9797 Y-26.2014 F160.00
G01 X7.0666 Y-26.1767 F160.00
G01 X7.0846 Y-26.1696 F160.00
G01 X7.1018 Y-26.1607 F160.00
G01 X7.1181 Y-26.1501 F160.00
G01 X7.1332 Y-26.1380 F160.00
G01 X7.1437 Y-26.1280 F160.00
G01 X7.1503 Y-26.1209 F160.00
G01 X7.1972 Y-26.0676 F160.00
G01 X7.2088 Y-26.0531 F160.00
G01 X7.2165 Y-26.0416 F160.00
G01 X7.2234 Y-26.0295 F160.00
G01 X7.2386 Y-25.9974 F160.00
G01 X7.3504 Y-25.8378 F160.00
G01 X7.4881 Y-25.7000 F160.00
G01 X7.6478 Y-25.5883 F160.00
G01 X7.8243 Y-25.5059 F160.00
G01 X8.0125 Y-25.4555 F160.00
G01 X8.2066 Y-25.4385 F160.00
G01 X8.4007 Y-25.4555 F160.00
G01 X8.5889 Y-25.5059 F160.00
G01 X8.7655 Y-25.5883 F160.00
G01 X8.9251 Y-25.7000 F160.00
G01 X9.0629 Y-25.8378 F160.00
G01 X9.1746 Y-25.9974 F160.00
G01 X9.1901 Y-26.0300 F160.00
G01 X9.1975 Y-26.0427 F160.00
G01 X9.2058 Y-26.0549 F160.00
G01 X9.2151 Y-26.0664 F160.00
G01 X9.2635 Y-26.1222 F160.00
G01 X9.2701 Y-26.1291 F160.00
G01 X9.2806 Y-26.1389 F160.00
G01 X9.2957 Y-26.1506 F160.00
G01 X9.3118 Y-26.1608 F160.00
G01 X9.3289 Y-26.1693 F160.00
G01 X9.3467 Y-26.1762 F160.00
G01 X9.4192 Y-26.1982 F160.00
G01 X9.4333 Y-26.2018 F160.00
G01 X9.4428 Y-26.2037 F160.00
G01 X9.4572 Y-26.2056 F160.00
G01 X9.4717 Y-26.2065 F160.00
G01 X9.4813 Y-26.2064 F160.00
G01 X9.4910 Y-26.2059 F160.00
G01 X9.5054 Y-26.2042 F160.00
G01 X9.5244 Y-26.2003 F160.00
G01 X9.5974 Y-26.1796 F160.00
G01 X9.6157 Y-26.1733 F160.00
G01 X9.6333 Y-26.1653 F160.00
G01 X9.6460 Y-26.1582 F160.00
G01 X9.6541 Y-26.1529 F160.00
G01 X9.6695 Y-26.1412 F160.00
G01 X9.6837 Y-26.1280 F160.00
G01 X9.7372 Y-26.0676 F160.00
G01 X9.7488 Y-26.0531 F160.00
G01 X9.7565 Y-26.0416 F160.00
G01 X9.7634 Y-26.0295 F160.00
G01 X9.7786 Y-25.9974 F160.00
G01 X9.8904 Y-25.8378 F160.00
G01 X10.0281 Y-25.7000 F160.00
G01 X10.2094 Y-25.5728 F160.00
G01 X10.2239 Y-25.5604 F160.00
G01 X10.2652 Y-25.5208 F160.00
G01 X10.2754 Y-25.5103 F160.00
G01 X10.2817 Y-25.5029 F160.00
G01 X10.2932 Y-25.4873 F160.00
G01 X10.3008 Y-25.4748 F160.00
G01 X10.3094 Y-25.4574 F160.00
G01 X10.3148 Y-25.4438 F160.00
G01 X10.3401 Y-25.3575 F160.00
G01 X10.3436 Y-25.3393 F160.00
G01 X10.3454 Y-25.3208 F160.00
G01 X10.3456 Y-23.2386 F160.00
G01 X10.3450 Y-23.2230 F160.00
G01 X10.3439 Y-23.2126 F160.00
G01 X10.3379 Y-23.1698 F160.00
G01 X10.3335 Y-23.1511 F160.00
G01 X10.3272 Y-23.1329 F160.00
G01 X10.3214 Y-23.1198 F160.00
G01 X10.3146 Y-23.1070 F160.00
G01 X10.2748 Y-23.0425 F160.00
G01 X10.2638 Y-23.0266 F160.00
G01 X10.2546 Y-23.0153 F160.00
G01 X10.2410 Y-23.0015 F160.00
G01 X10.2261 Y-22.9891 F160.00
G01 X10.2142 Y-22.9808 F160.00
G01 X10.1974 Y-22.9712 F160.00
G01 X10.1247 Y-22.9363 F160.00
G01 X10.1066 Y-22.9293 F160.00
G01 X10.0880 Y-22.9241 F160.00
G01 X10.0689 Y-22.9207 F160.00
G01 X10.0496 Y-22.9193 F160.00
G01 X10.0351 Y-22.9195 F160.00
G01 X10.0206 Y-22.9208 F160.00
G01 X9.9502 Y-22.9296 F160.00
G01 X9.9319 Y-22.9328 F160.00
G01 X9.9184 Y-22.9363 F160.00
G01 X9.9009 Y-22.9424 F160.00
G01 X9.7515 Y-23.0073 F160.00
G01 X9.5580 Y-23.0559 F160.00
G01 X9.3535 Y-23.0728 F160.00
G01 X9.3052 Y-23.0716 F160.00
G01 X9.1018 Y-23.0448 F160.00
G01 X8.9109 Y-22.9868 F160.00
G01 X8.7320 Y-22.8984 F160.00
G01 X8.5699 Y-22.7819 F160.00
G01 X8.4291 Y-22.6406 F160.00
G01 X8.3661 Y-22.5527 F160.00
G01 X8.3489 Y-22.5318 F160.00
G01 X8.3422 Y-22.5245 F160.00
G01 X8.3315 Y-22.5142 F160.00
G01 X8.3201 Y-22.5047 F160.00
G01 X8.3120 Y-22.4989 F160.00
G01 X8.3037 Y-22.4935 F160.00
G01 X8.2381 Y-22.4553 F160.00
G01 X8.2252 Y-22.4485 F160.00
G01 X8.2119 Y-22.4427 F160.00
G01 X8.1936 Y-22.4365 F160.00
G01 X8.1747 Y-22.4321 F160.00
G01 X8.1555 Y-22.4296 F160.00
G01 X8.1410 Y-22.4290 F160.00
G01 X8.1313 Y-22.4292 F160.00
G01 X8.0604 Y-22.4325 F160.00
G01 X8.0459 Y-22.4337 F160.00
G01 X8.0316 Y-22.4359 F160.00
G01 X8.0222 Y-22.4380 F160.00
G01 X8.0036 Y-22.4436 F160.00
G01 X7.9946 Y-22.4471 F160.00
G01 X7.9814 Y-22.4532 F160.00
G01 X7.9646 Y-22.4628 F160.00
G01 X7.8986 Y-22.5092 F160.00
G01 X7.8875 Y-22.5177 F160.00
G01 X7.8805 Y-22.5238 F160.00
G01 X7.8705 Y-22.5335 F160.00
G01 X7.8613 Y-22.5439 F160.00
G01 X7.7497 Y-22.6851 F160.00
G01 X7.6021 Y-22.8194 F160.00
G01 X7.4345 Y-22.9278 F160.00
G01 X7.2515 Y-23.0073 F160.00
G01 X7.0580 Y-23.0559 F160.00
G01 X6.8535 Y-23.0728 F160.00
G01 X6.8052 Y-23.0716 F160.00
G01 X6.6018 Y-23.0448 F160.00
G01 X6.4109 Y-22.9868 F160.00
G01 X6.2320 Y-22.8984 F160.00
G01 X6.0699 Y-22.7819 F160.00
G01 X5.9291 Y-22.6406 F160.00
G01 X5.8661 Y-22.5527 F160.00
G01 X5.8489 Y-22.5318 F160.00
G01 X5.8422 Y-22.5245 F160.00
G01 X5.8352 Y-22.5175 F160.00
G01 X5.8240 Y-22.5078 F160.00
G01 X5.8120 Y-22.4989 F160.00
G01 X5.7995 Y-22.4910 F160.00
G01 X5.7339 Y-22.4530 F160.00
G01 X5.7164 Y-22.4445 F160.00
G01 X5.6983 Y-22.4379 F160.00
G01 X5.6842 Y-22.4341 F160.00
G01 X5.6747 Y-22.4321 F160.00
G01 X5.6555 Y-22.4296 F160.00
G01 X5.6362 Y-22.4291 F160.00
G01 X5.5508 Y-22.4331 F160.00
G01 X5.5411 Y-22.4343 F160.00
G01 X5.5269 Y-22.4369 F160.00
G01 X5.5082 Y-22.4421 F160.00
G01 X5.4901 Y-22.4490 F160.00
G01 X5.4771 Y-22.4554 F160.00
G01 X5.4687 Y-22.4602 F160.00
G01 X5.4565 Y-22.4682 F160.00
G01 X5.3986 Y-22.5092 F160.00
G01 X5.3875 Y-22.5177 F160.00
G01 X5.3805 Y-22.5238 F160.00
G01 X5.3705 Y-22.5335 F160.00
G01 X5.3613 Y-22.5439 F160.00
G01 X5.2497 Y-22.6851 F160.00
G01 X5.1021 Y-22.8194 F160.00
G01 X4.9345 Y-22.9278 F160.00
G01 X4.7515 Y-23.0073 F160.00
G01 X4.5580 Y-23.0559 F160.00
G01 X4.3535 Y-23.0728 F160.00
G01 X4.3052 Y-23.0716 F160.00
G01 X4.1018 Y-23.0448 F160.00
G01 X3.9109 Y-22.9868 F160.00
G01 X3.7320 Y-22.8984 F160.00
G01 X3.5699 Y-22.7819 F160.00
G01 X3.4291 Y-22.6406 F160.00
G01 X3.3132 Y-22.4781 F160.00
G01 X3.2254 Y-22.2989 F160.00
G01 X3.1681 Y-22.1078 F160.00
G01 X3.1427 Y-21.9099 F160.00
G01 X3.1500 Y-21.7104 F160.00
G01 X3.1898 Y-21.5149 F160.00
G01 X3.2610 Y-21.3285 F160.00
G01 X3.3617 Y-21.1562 F160.00
G01 X3.4891 Y-21.0027 F160.00
G01 X3.6400 Y-20.8720 F160.00
G01 X3.8101 Y-20.7677 F160.00
G01 X3.9950 Y-20.6927 F160.00
G01 X4.1897 Y-20.6488 F160.00
G01 X4.3889 Y-20.6373 F160.00
G01 X4.5873 Y-20.6585 F160.00
G01 X4.7796 Y-20.7119 F160.00
G01 X4.9606 Y-20.7959 F160.00
G01 X5.1254 Y-20.9083 F160.00
G01 X5.2697 Y-21.0462 F160.00
G01 X5.3556 Y-21.1603 F160.00
G01 X5.3661 Y-21.1730 F160.00
G01 X5.3763 Y-21.1838 F160.00
G01 X5.3873 Y-21.1939 F160.00
G01 X5.3991 Y-21.2031 F160.00
G01 X5.4114 Y-21.2113 F160.00
G01 X5.4761 Y-21.2509 F160.00
G01 X5.4890 Y-21.2577 F160.00
G01 X5.4978 Y-21.2617 F160.00
G01 X5.5160 Y-21.2684 F160.00
G01 X5.5347 Y-21.2732 F160.00
G01 X5.5538 Y-21.2762 F160.00
G01 X5.5683 Y-21.2771 F160.00
G01 X5.5780 Y-21.2772 F160.00
G01 X5.6490 Y-21.2757 F160.00
G01 X5.6635 Y-21.2748 F160.00
G01 X5.6827 Y-21.2720 F160.00
G01 X5.6921 Y-21.2699 F160.00
G01 X5.7061 Y-21.2659 F160.00
G01 X5.7241 Y-21.2589 F160.00
G01 X5.7329 Y-21.2547 F160.00
G01 X5.7456 Y-21.2477 F160.00
G01 X5.8165 Y-21.2002 F160.00
G01 X5.8239 Y-21.1947 F160.00
G01 X5.8346 Y-21.1857 F160.00
G01 X5.8446 Y-21.1760 F160.00
G01 X5.8508 Y-21.1692 F160.00
G01 X5.9891 Y-21.0027 F160.00
G01 X6.1400 Y-20.8720 F160.00
G01 X6.3101 Y-20.7677 F160.00
G01 X6.4950 Y-20.6927 F160.00
G01 X6.6897 Y-20.6488 F160.00
G01 X6.8889 Y-20.6373 F160.00
G01 X7.0873 Y-20.6585 F160.00
G01 X7.2796 Y-20.7119 F160.00
G01 X7.4606 Y-20.7959 F160.00
G01 X7.6254 Y-20.9083 F160.00
G01 X7.7697 Y-21.0462 F160.00
G01 X7.8529 Y-21.1569 F160.00
G01 X7.8661 Y-21.1730 F160.00
G01 X7.8763 Y-21.1838 F160.00
G01 X7.8873 Y-21.1939 F160.00
G01 X7.8951 Y-21.2001 F160.00
G01 X7.9031 Y-21.2059 F160.00
G01 X7.9761 Y-21.2509 F160.00
G01 X7.9933 Y-21.2598 F160.00
G01 X8.0114 Y-21.2669 F160.00
G01 X8.0300 Y-21.2722 F160.00
G01 X8.0490 Y-21.2756 F160.00
G01 X8.0587 Y-21.2766 F160.00
G01 X8.0732 Y-21.2772 F160.00
G01 X8.1587 Y-21.2752 F160.00
G01 X8.1779 Y-21.2729 F160.00
G01 X8.1968 Y-21.2687 F160.00
G01 X8.2152 Y-21.2626 F160.00
G01 X8.2329 Y-21.2547 F160.00
G01 X8.2414 Y-21.2502 F160.00
G01 X8.2538 Y-21.2425 F160.00
G01 X8.3127 Y-21.2029 F160.00
G01 X8.3275 Y-21.1918 F160.00
G01 X8.3380 Y-21.1826 F160.00
G01 X8.3508 Y-21.1692 F160.00
G01 X8.4891 Y-21.0027 F160.00
G01 X8.6400 Y-20.8720 F160.00
G01 X8.8101 Y-20.7678 F160.00
G01 X8.9805 Y-20.6983 F160.00
G01 X8.9938 Y-20.6914 F160.00
G01 X9.0301 Y-20.6707 F160.00
G01 X9.0419 Y-20.6626 F160.00
G01 X9.0566 Y-20.6506 F160.00
G01 X9.0700 Y-20.6372 F160.00
G01 X9.0793 Y-20.6264 F160.00
G01 X9.1276 Y-20.5619 F160.00
G01 X9.1355 Y-20.5497 F160.00
G01 X9.1403 Y-20.5413 F160.00
G01 X9.1486 Y-20.5238 F160.00
G01 X9.1537 Y-20.5102 F160.00
G01 X9.1565 Y-20.5009 F160.00
G01 X9.1599 Y-20.4868 F160.00
G01 X9.1615 Y-20.4773 F160.00
G01 X9.1631 Y-20.4628 F160.00
G01 X9.1684 Y-20.3872 F160.00
G01 X9.1686 Y-20.3726 F160.00
G01 X9.1681 Y-20.3630 F160.00
G01 X9.1656 Y-20.3438 F160.00
G01 X9.1613 Y-20.3249 F160.00
G01 X9.1568 Y-20.3111 F160.00
G01 X9.1532 Y-20.3021 F160.00
G01 X9.1448 Y-20.2846 F160.00
G01 X9.1061 Y-20.2143 F160.00
G01 X9.1011 Y-20.2065 F160.00
G01 X9.0929 Y-20.1952 F160.00
G01 X9.0808 Y-20.1812 F160.00
G01 X7.4618 Y-18.5621 F160.00
G01 X7.4503 Y-18.5515 F160.00
G01 X7.4177 Y-18.5255 F160.00
G01 X7.4098 Y-18.5200 F160.00
G01 X7.3975 Y-18.5126 F160.00
G01 X7.3803 Y-18.5042 F160.00
G01 X7.3624 Y-18.4974 F160.00
G01 X7.2853 Y-18.4748 F160.00
G01 X7.2762 Y-18.4726 F160.00
G01 X7.2625 Y-18.4701 F160.00
G01 X7.2533 Y-18.4690 F160.00
G01 X7.2394 Y-18.4682 F160.00
G01 X4.9806 Y-18.4681 F160.00
G01 X4.9550 Y-18.4692 F160.00
G01 X4.9238 Y-18.4721 F160.00
G01 X4.8997 Y-18.4696 F160.00
G01 X4.8830 Y-18.4684 F160.00
G01 X4.8395 Y-18.4635 F160.00
G01 X4.7608 Y-18.4555 F160.00
G01 X4.6852 Y-18.4316 F160.00
G01 X4.6083 Y-18.4080 F160.00
G01 X4.5389 Y-18.3698 F160.00
G01 X4.4681 Y-18.3319 F160.00
G01 X4.4073 Y-18.2809 F160.00
G01 X4.3783 Y-18.2571 F160.00
G01 X4.3664 Y-18.2465 F160.00
G01 X4.3426 Y-18.2266 F160.00
G01 X4.3275 Y-18.2079 F160.00
G01 X4.3077 Y-18.1861 F160.00
G01 X3.8221 Y-17.7005 F160.00
G01 X3.8032 Y-17.6831 F160.00
G01 X3.7791 Y-17.6631 F160.00
G01 X3.7638 Y-17.6444 F160.00
G01 X3.7529 Y-17.6317 F160.00
G01 X3.7256 Y-17.5976 F160.00
G01 X3.6755 Y-17.5361 F160.00
G01 X3.6385 Y-17.4648 F160.00
G01 X3.6013 Y-17.3948 F160.00
G01 X3.5789 Y-17.3177 F160.00
G01 X3.5560 Y-17.2418 F160.00
G01 X3.5491 Y-17.1629 F160.00
G01 X3.5454 Y-17.1254 F160.00
G01 X3.5444 Y-17.1095 F160.00
G01 X3.5417 Y-17.0786 F160.00
G01 X3.5442 Y-17.0547 F160.00
G01 X3.5456 Y-17.0306 F160.00
G01 X3.5456 Y-16.8902 F160.00
G01 X3.5453 Y-16.8798 F160.00
G01 X3.5417 Y-16.8429 F160.00
G01 X3.5397 Y-16.8288 F160.00
G01 X3.5353 Y-16.8102 F160.00
G01 X3.5309 Y-16.7965 F160.00
G01 X3.5255 Y-16.7833 F160.00
G01 X3.5191 Y-16.7705 F160.00
G01 X3.4852 Y-16.7081 F160.00
G01 X3.4756 Y-16.6922 F160.00
G01 X3.4674 Y-16.6810 F160.00
G01 X3.4584 Y-16.6703 F160.00
G01 X3.4291 Y-16.6406 F160.00
G01 X3.3132 Y-16.4781 F160.00
G01 X3.2254 Y-16.2989 F160.00
G01 X3.1681 Y-16.1078 F160.00
G01 X3.1427 Y-15.9099 F160.00
G01 X3.1500 Y-15.7104 F160.00
G01 X3.1898 Y-15.5149 F160.00
G01 X3.2610 Y-15.3285 F160.00
G01 X3.3617 Y-15.1562 F160.00
G01 X3.4753 Y-15.0192 F160.00
G01 X3.4935 Y-14.9941 F160.00
G01 X3.5033 Y-14.9775 F160.00
G01 X3.5095 Y-14.9645 F160.00
G01 X3.5163 Y-14.9464 F160.00
G01 X3.5390 Y-14.8692 F160.00
G01 X3.5421 Y-14.8556 F160.00
G01 X3.5436 Y-14.8465 F160.00
G01 X3.5451 Y-14.8326 F160.00
G01 X3.5456 Y-14.8187 F160.00
G01 X3.5456 Y-4.0634 F160.00
G01 X3.5447 Y-4.0495 F160.00
G01 X3.5436 Y-4.0403 F160.00
G01 X3.5421 Y-4.0311 F160.00
G01 X3.5390 Y-4.0175 F160.00
G01 X3.5115 Y-3.9310 F160.00
G01 X3.5064 Y-3.9180 F160.00
G01 X3.5026 Y-3.9096 F160.00
G01 X3.4960 Y-3.8973 F160.00
G01 X3.4886 Y-3.8855 F160.00
G01 X3.3938 Y-3.7524 F160.00
G01 X3.3096 Y-3.5806 F160.00
G01 X3.2546 Y-3.3974 F160.00
G01 X3.2303 Y-3.2076 F160.00
G01 X3.2373 Y-3.0164 F160.00
G01 X3.2755 Y-2.8289 F160.00
G01 X3.3434 Y-2.6511 F160.00
G01 X3.8900 Y-2.1045 F160.00
G01 X3.9014 Y-2.0999 F160.00
G01 X4.8880 Y-2.0999 F160.00
G01 X4.9079 Y-2.1091 F160.00
G01 X5.8916 Y-3.0929 F160.00
G01 X5.8916 Y-4.0046 F160.00
G01 X5.8922 Y-4.0190 F160.00
G01 X5.8937 Y-4.0332 F160.00
G01 X5.8964 Y-4.0473 F160.00
G01 X5.9000 Y-4.0612 F160.00
G01 X5.9065 Y-4.0792 F160.00
G01 X5.9124 Y-4.0923 F160.00
G01 X5.9170 Y-4.1007 F160.00
G01 X5.9272 Y-4.1169 F160.00
G01 X5.9359 Y-4.1283 F160.00
G01 X5.9421 Y-4.1356 F160.00
G01 X5.9557 Y-4.1491 F160.00
G01 X5.9667 Y-4.1584 F160.00
G01 X5.9743 Y-4.1641 F160.00
G01 X5.9905 Y-4.1743 F160.00
G01 X6.0033 Y-4.1809 F160.00
G01 X6.0120 Y-4.1848 F160.00
G01 X6.0255 Y-4.1898 F160.00
G01 X6.0392 Y-4.1938 F160.00
G01 X6.0580 Y-4.1975 F160.00
G01 X6.0723 Y-4.1991 F160.00
G01 X6.0866 Y-4.1996 F160.00
G01 X6.2414 Y-4.1996 F160.00
G01 X6.2414 Y-4.3176 F160.00
G01 X6.0491 Y-4.3176 F160.00
G01 X6.0219 Y-4.3147 F160.00
G01 X5.9348 Y-4.2820 F160.00
G01 X5.8630 Y-4.2282 F160.00
G01 X5.8092 Y-4.1565 F160.00
G01 X5.7906 Y-4.1074 F160.00
G01 X5.7820 Y-4.0899 F160.00
G01 X5.7744 Y-4.0775 F160.00
G01 X5.7306 Y-4.0148 F160.00
G01 X5.7183 Y-4.0004 F160.00
G01 X5.7047 Y-3.9872 F160.00
G01 X5.6974 Y-3.9811 F160.00
G01 X5.6860 Y-3.9727 F160.00
G01 X5.6740 Y-3.9651 F160.00
G01 X5.6657 Y-3.9606 F160.00
G01 X5.5837 Y-3.9231 F160.00
G01 X5.5653 Y-3.9169 F160.00
G01 X5.5465 Y-3.9125 F160.00
G01 X5.5273 Y-3.9100 F160.00
G01 X5.5079 Y-3.9094 F160.00
G01 X5.4886 Y-3.9107 F160.00
G01 X5.4087 Y-3.9222 F160.00
G01 X5.3898 Y-3.9263 F160.00
G01 X5.3806 Y-3.9291 F160.00
G01 X5.3669 Y-3.9342 F160.00
G01 X5.3581 Y-3.9381 F160.00
G01 X5.3452 Y-3.9448 F160.00
G01 X5.3328 Y-3.9524 F160.00
G01 X5.3249 Y-3.9580 F160.00
G01 X5.3136 Y-3.9671 F160.00
G01 X5.2563 Y-4.0168 F160.00
G01 X5.2427 Y-4.0305 F160.00
G01 X5.2334 Y-4.0417 F160.00
G01 X5.2276 Y-4.0495 F160.00
G01 X5.2174 Y-4.0659 F160.00
G01 X5.2108 Y-4.0788 F160.00
G01 X5.2069 Y-4.0877 F160.00
G01 X5.2005 Y-4.1060 F160.00
G01 X5.1793 Y-4.1786 F160.00
G01 X5.1753 Y-4.1967 F160.00
G01 X5.1731 Y-4.2151 F160.00
G01 X5.1726 Y-4.2290 F160.00
G01 X5.1726 Y-7.1602 F160.00
G01 X5.1736 Y-7.1796 F160.00
G01 X5.1765 Y-7.1988 F160.00
G01 X5.1940 Y-7.2685 F160.00
G01 X5.1995 Y-7.2866 F160.00
G01 X5.2068 Y-7.3041 F160.00
G01 X5.2158 Y-7.3208 F160.00
G01 X5.2263 Y-7.3365 F160.00
G01 X5.2383 Y-7.3512 F160.00
G01 X5.3019 Y-7.4150 F160.00
G01 X5.3093 Y-7.4214 F160.00
G01 X5.3208 Y-7.4302 F160.00
G01 X5.3372 Y-7.4405 F160.00
G01 X5.3457 Y-7.4451 F160.00
G01 X5.3590 Y-7.4511 F160.00
G01 X5.3726 Y-7.4561 F160.00
G01 X5.3819 Y-7.4589 F160.00
G01 X5.4701 Y-7.4782 F160.00
G01 X5.4894 Y-7.4805 F160.00
G01 X5.5087 Y-7.4808 F160.00
G01 X5.5280 Y-7.4792 F160.00
G01 X5.5424 Y-7.4768 F160.00
G01 X5.5518 Y-7.4745 F160.00
G01 X5.5657 Y-7.4703 F160.00
G01 X5.6368 Y-7.4440 F160.00
G01 X5.6502 Y-7.4385 F160.00
G01 X5.6632 Y-7.4319 F160.00
G01 X5.6756 Y-7.4244 F160.00
G01 X5.6913 Y-7.4131 F160.00
G01 X5.7023 Y-7.4035 F160.00
G01 X5.7125 Y-7.3932 F160.00
G01 X5.7219 Y-7.3822 F160.00
G01 X5.7729 Y-7.3140 F160.00
G01 X5.7803 Y-7.3022 F160.00
G01 X5.7888 Y-7.2857 F160.00
G01 X5.7942 Y-7.2729 F160.00
G01 X5.8092 Y-7.2328 F160.00
G01 X5.8630 Y-7.1610 F160.00
G01 X5.9348 Y-7.1072 F160.00
G01 X6.0219 Y-7.0746 F160.00
G01 X6.0491 Y-7.0716 F160.00
G01 X6.2414 Y-7.0716 F160.00
G01 X6.2414 Y-7.1896 F160.00
G01 X6.0866 Y-7.1896 F160.00
G01 X6.0723 Y-7.1902 F160.00
G01 X6.0533 Y-7.1925 F160.00
G01 X6.0392 Y-7.1955 F160.00
G01 X6.0209 Y-7.2010 F160.00
G01 X6.0033 Y-7.2083 F160.00
G01 X5.9947 Y-7.2127 F160.00
G01 X5.9823 Y-7.2199 F160.00
G01 X5.9743 Y-7.2252 F160.00
G01 X5.9629 Y-7.2339 F160.00
G01 X5.9557 Y-7.2401 F160.00
G01 X5.9454 Y-7.2502 F160.00
G01 X5.9390 Y-7.2573 F160.00
G01 X5.9300 Y-7.2685 F160.00
G01 X5.9219 Y-7.2803 F160.00
G01 X5.9170 Y-7.2885 F160.00
G01 X5.9103 Y-7.3013 F160.00
G01 X5.9065 Y-7.3100 F160.00
G01 X5.9030 Y-7.3189 F160.00
G01 X5.8987 Y-7.3326 F160.00
G01 X5.8964 Y-7.3419 F160.00
G01 X5.8937 Y-7.3560 F160.00
G01 X5.8922 Y-7.3703 F160.00
G01 X5.8916 Y-7.3846 F160.00
G01 X5.8917 Y-9.0894 F160.00
G01 X5.8926 Y-9.1037 F160.00
G01 X5.8937 Y-9.1132 F160.00
G01 X5.8964 Y-9.1273 F160.00
G01 X5.9000 Y-9.1412 F160.00
G01 X5.9047 Y-9.1548 F160.00
G01 X5.9103 Y-9.1680 F160.00
G01 X5.9170 Y-9.1807 F160.00
G01 X5.9219 Y-9.1889 F160.00
G01 X5.9329 Y-9.2046 F160.00
G01 X5.9421 Y-9.2156 F160.00
G01 X5.9487 Y-9.2225 F160.00
G01 X5.9557 Y-9.2291 F160.00
G01 X5.9667 Y-9.2384 F160.00
G01 X5.9743 Y-9.2441 F160.00
G01 X5.9864 Y-9.2519 F160.00
G01 X5.9990 Y-9.2588 F160.00
G01 X6.0076 Y-9.2629 F160.00
G01 X6.0164 Y-9.2666 F160.00
G01 X6.0300 Y-9.2712 F160.00
G01 X6.0392 Y-9.2738 F160.00
G01 X6.0533 Y-9.2768 F160.00
G01 X6.0675 Y-9.2787 F160.00
G01 X6.0771 Y-9.2794 F160.00
G01 X7.7866 Y-9.2796 F160.00
G01 X7.7962 Y-9.2794 F160.00
G01 X7.8105 Y-9.2782 F160.00
G01 X7.8293 Y-9.2749 F160.00
G01 X7.8386 Y-9.2726 F160.00
G01 X7.8523 Y-9.2682 F160.00
G01 X7.8656 Y-9.2629 F160.00
G01 X7.8785 Y-9.2566 F160.00
G01 X7.8869 Y-9.2519 F160.00
G01 X7.8989 Y-9.2441 F160.00
G01 X7.9103 Y-9.2354 F160.00
G01 X7.9211 Y-9.2259 F160.00
G01 X7.9311 Y-9.2156 F160.00
G01 X7.9404 Y-9.2046 F160.00
G01 X7.9461 Y-9.1969 F160.00
G01 X7.9539 Y-9.1849 F160.00
G01 X7.9608 Y-9.1723 F160.00
G01 X7.9668 Y-9.1592 F160.00
G01 X7.9718 Y-9.1458 F160.00
G01 X7.9758 Y-9.1320 F160.00
G01 X7.9779 Y-9.1227 F160.00
G01 X7.9802 Y-9.1085 F160.00
G01 X7.9816 Y-9.0894 F160.00
G01 X7.9816 Y-8.6836 F160.00
G01 X8.0996 Y-8.6836 F160.00
G01 X8.0996 Y-9.1222 F160.00
G01 X8.0967 Y-9.1494 F160.00
G01 X8.0640 Y-9.2365 F160.00
G01 X8.0102 Y-9.3082 F160.00
G01 X7.9385 Y-9.3620 F160.00
G01 X7.8455 Y-9.3969 F160.00
G01 X7.8363 Y-9.4006 F160.00
G01 X7.8273 Y-9.4048 F160.00
G01 X7.7849 Y-9.4283 F160.00
G01 X7.7727 Y-9.4357 F160.00
G01 X7.7574 Y-9.4470 F160.00
G01 X7.7433 Y-9.4597 F160.00
G01 X7.7335 Y-9.4701 F160.00
G01 X7.7217 Y-9.4850 F160.00
G01 X7.6777 Y-9.5468 F160.00
G01 X7.6677 Y-9.5633 F160.00
G01 X7.6633 Y-9.5720 F160.00
G01 X7.6575 Y-9.5853 F160.00
G01 X7.6514 Y-9.6037 F160.00
G01 X7.6471 Y-9.6225 F160.00
G01 X7.6457 Y-9.6321 F160.00
G01 X7.6444 Y-9.6466 F160.00
G01 X7.6408 Y-9.7223 F160.00
G01 X7.6410 Y-9.7369 F160.00
G01 X7.6423 Y-9.7513 F160.00
G01 X7.6456 Y-9.7704 F160.00
G01 X7.6494 Y-9.7844 F160.00
G01 X7.6560 Y-9.8026 F160.00
G01 X7.6644 Y-9.8201 F160.00
G01 X7.7045 Y-9.8898 F160.00
G01 X7.7122 Y-9.9015 F160.00
G01 X7.7177 Y-9.9089 F160.00
G01 X7.7236 Y-9.9161 F160.00
G01 X7.7331 Y-9.9263 F160.00
G01 X7.8097 Y-9.9995 F160.00
G01 X7.9246 Y-10.1525 F160.00
G01 X8.0129 Y-10.3222 F160.00
G01 X8.0723 Y-10.5041 F160.00
G01 X8.1013 Y-10.6932 F160.00
G01 X8.0989 Y-10.8845 F160.00
G01 X8.0654 Y-11.0729 F160.00
G01 X8.0015 Y-11.2532 F160.00
G01 X7.9091 Y-11.4207 F160.00
G01 X7.8163 Y-11.5382 F160.00
G01 X7.8012 Y-11.5597 F160.00
G01 X7.7940 Y-11.5717 F160.00
G01 X7.7898 Y-11.5800 F160.00
G01 X7.7841 Y-11.5928 F160.00
G01 X7.7794 Y-11.6059 F160.00
G01 X7.7568 Y-11.6830 F160.00
G01 X7.7528 Y-11.7011 F160.00
G01 X7.7506 Y-11.7195 F160.00
G01 X7.7501 Y-11.7334 F160.00
G01 X7.7501 Y-14.4524 F160.00
G01 X7.7504 Y-14.4622 F160.00
G01 X7.7516 Y-14.4768 F160.00
G01 X7.7540 Y-14.4912 F160.00
G01 X7.7562 Y-14.5007 F160.00
G01 X7.7742 Y-14.5703 F160.00
G01 X7.7807 Y-14.5882 F160.00
G01 X7.7867 Y-14.6011 F160.00
G01 X7.7936 Y-14.6136 F160.00
G01 X7.8014 Y-14.6255 F160.00
G01 X7.8100 Y-14.6368 F160.00
G01 X7.8194 Y-14.6475 F160.00
G01 X7.8800 Y-14.7077 F160.00
G01 X7.8950 Y-14.7200 F160.00
G01 X7.9111 Y-14.7307 F160.00
G01 X7.9239 Y-14.7376 F160.00
G01 X7.9371 Y-14.7436 F160.00
G01 X7.9508 Y-14.7486 F160.00
G01 X7.9647 Y-14.7525 F160.00
G01 X8.0436 Y-14.7697 F160.00
G01 X8.0579 Y-14.7718 F160.00
G01 X8.0773 Y-14.7731 F160.00
G01 X8.0870 Y-14.7730 F160.00
G01 X8.1014 Y-14.7720 F160.00
G01 X8.1158 Y-14.7698 F160.00
G01 X8.1300 Y-14.7667 F160.00
G01 X8.1484 Y-14.7608 F160.00
G01 X8.2149 Y-14.7359 F160.00
G01 X8.2320 Y-14.7286 F160.00
G01 X8.2443 Y-14.7221 F160.00
G01 X8.2522 Y-14.7173 F160.00
G01 X8.2636 Y-14.7093 F160.00
G01 X8.3070 Y-14.6768 F160.00
G01 X8.3943 Y-14.6441 F160.00
G01 X8.4216 Y-14.6411 F160.00
G01 X10.2967 Y-14.6411 F160.00
G01 X10.3240 Y-14.6441 F160.00
G01 X10.4112 Y-14.6768 F160.00
G01 X10.4831 Y-14.7307 F160.00
G01 X10.5370 Y-14.8025 F160.00
G01 X10.5697 Y-14.8898 F160.00
G01 X10.5726 Y-14.9171 F160.00
G01 X10.5726 Y-16.7922 F160.00
G01 X10.5697 Y-16.8195 F160.00
G01 X10.5370 Y-16.9067 F160.00
G01 X10.4831 Y-16.9786 F160.00
G01 X10.4112 Y-17.0325 F160.00
G01 X10.3240 Y-17.0652 F160.00
G01 X10.2967 Y-17.0681 F160.00
G01 X9.0436 Y-17.0681 F160.00
G01 X9.0229 Y-17.0688 F160.00
G01 X9.0085 Y-17.0702 F160.00
G01 X8.9942 Y-17.0727 F160.00
G01 X8.9802 Y-17.0762 F160.00
G01 X8.9665 Y-17.0807 F160.00
G01 X8.8910 Y-17.1092 F160.00
G01 X8.8822 Y-17.1132 F160.00
G01 X8.8694 Y-17.1201 F160.00
G01 X8.8532 Y-17.1307 F160.00
G01 X8.8455 Y-17.1366 F160.00
G01 X8.8346 Y-17.1462 F160.00
G01 X8.8277 Y-17.1530 F160.00
G01 X8.8180 Y-17.1638 F160.00
G01 X8.7639 Y-17.2361 F160.00
G01 X8.7539 Y-17.2527 F160.00
G01 X8.7475 Y-17.2657 F160.00
G01 X8.7437 Y-17.2747 F160.00
G01 X8.7376 Y-17.2931 F160.00
G01 X8.7343 Y-17.3072 F160.00
G01 X8.7327 Y-17.3167 F160.00
G01 X8.7311 Y-17.3312 F160.00
G01 X8.7256 Y-17.4117 F160.00
G01 X8.7256 Y-17.4214 F160.00
G01 X8.7265 Y-17.4358 F160.00
G01 X8.7295 Y-17.4550 F160.00
G01 X8.7329 Y-17.4691 F160.00
G01 X8.7374 Y-17.4829 F160.00
G01 X8.7429 Y-17.4964 F160.00
G01 X8.7494 Y-17.5094 F160.00
G01 X8.7834 Y-17.5717 F160.00
G01 X8.7905 Y-17.5836 F160.00
G01 X8.8013 Y-17.5988 F160.00
G01 X8.8072 Y-17.6059 F160.00
G01 X8.8167 Y-17.6161 F160.00
G01 X11.6962 Y-20.4956 F160.00
G01 X11.7150 Y-20.5130 F160.00
G01 X11.7392 Y-20.5330 F160.00
G01 X11.7544 Y-20.5517 F160.00
G01 X11.7654 Y-20.5645 F160.00
G01 X11.7926 Y-20.5985 F160.00
G01 X11.8427 Y-20.6600 F160.00
G01 X11.8797 Y-20.7314 F160.00
G01 X11.9169 Y-20.8013 F160.00
G01 X11.9390 Y-20.8775 F160.00
G01 X11.9622 Y-20.9544 F160.00
G01 X11.9692 Y-21.0333 F160.00
G01 X11.9728 Y-21.0708 F160.00
G01 X11.9738 Y-21.0866 F160.00
G01 X11.9765 Y-21.1176 F160.00
G01 X11.9740 Y-21.1415 F160.00
G01 X11.9726 Y-21.1709 F160.00
G01 X11.9726 Y-26.0898 F160.00
G01 X11.9737 Y-26.1154 F160.00
G01 X11.9766 Y-26.1466 F160.00
G01 X11.9741 Y-26.1707 F160.00
G01 X11.9729 Y-26.1874 F160.00
G01 X11.9680 Y-26.2309 F160.00
G01 X11.9600 Y-26.3096 F160.00
G01 X11.9419 Y-26.3675 F160.00
G01 X11.9388 Y-26.3810 F160.00
G01 X11.9367 Y-26.3947 F160.00
G01 X11.9356 Y-26.4085 F160.00
G01 X11.9324 Y-26.4782 F160.00
G01 X11.9329 Y-26.4976 F160.00
G01 X11.9346 Y-26.5120 F160.00
G01 X11.9373 Y-26.5263 F160.00
G01 X11.9411 Y-26.5403 F160.00
G01 X11.9459 Y-26.5540 F160.00
G01 X11.9539 Y-26.5716 F160.00
G01 X11.9948 Y-26.6463 F160.00
G01 X12.0052 Y-26.6616 F160.00
G01 X12.0171 Y-26.6759 F160.00
G01 X12.4251 Y-27.0843 F160.00
G01 X12.4403 Y-27.0985 F160.00
G01 X12.4553 Y-27.1106 F160.00
G01 X12.4715 Y-27.1211 F160.00
G01 X12.4842 Y-27.1279 F160.00
G01 X12.5532 Y-27.1595 F160.00
G01 X12.5666 Y-27.1650 F160.00
G01 X12.5804 Y-27.1695 F160.00
G01 X12.5898 Y-27.1720 F160.00
G01 X12.6040 Y-27.1747 F160.00
G01 X12.6136 Y-27.1760 F160.00
G01 X12.6233 Y-27.1768 F160.00
G01 X12.6378 Y-27.1771 F160.00
G01 X12.6571 Y-27.1757 F160.00
G01 X12.7370 Y-27.1642 F160.00
G01 X12.7465 Y-27.1624 F160.00
G01 X12.7606 Y-27.1587 F160.00
G01 X12.7743 Y-27.1540 F160.00
G01 X12.7877 Y-27.1483 F160.00
G01 X12.8047 Y-27.1392 F160.00
G01 X12.8169 Y-27.1313 F160.00
G01 X12.8322 Y-27.1194 F160.00
G01 X12.8894 Y-27.0696 F160.00
G01 X12.9031 Y-27.0559 F160.00
G01 X12.9124 Y-27.0448 F160.00
G01 X12.9181 Y-27.0369 F160.00
G01 X12.9235 Y-27.0289 F160.00
G01 X12.9307 Y-27.0163 F160.00
G01 X12.9370 Y-27.0032 F160.00
G01 X12.9406 Y-26.9942 F160.00
G01 X12.9452 Y-26.9804 F160.00
G01 X12.9676 Y-26.9033 F160.00
G01 X12.9696 Y-26.8943 F160.00
G01 X12.9717 Y-26.8805 F160.00
G01 X12.9726 Y-26.8713 F160.00
G01 X12.9731 Y-26.8574 F160.00
G01 X12.9731 Y-0.6141 F160.00
G01 X12.9722 Y-0.5956 F160.00
G01 X12.9704 Y-0.5818 F160.00
G01 X12.9550 Y-0.5109 F160.00
G01 X12.9506 Y-0.4969 F160.00
G01 X12.9453 Y-0.4833 F160.00
G01 X12.9389 Y-0.4702 F160.00
G01 X12.9315 Y-0.4575 F160.00
G01 X12.9233 Y-0.4455 F160.00
G01 X12.9141 Y-0.4341 F160.00
G01 X12.8676 Y-0.3804 F160.00
G01 X12.8542 Y-0.3664 F160.00
G01 X12.8395 Y-0.3539 F160.00
G01 X12.8236 Y-0.3428 F160.00
G01 X12.8067 Y-0.3333 F160.00
G01 X12.7890 Y-0.3256 F160.00
G01 X12.7752 Y-0.3210 F160.00
G01 X12.6981 Y-0.2986 F160.00
G01 X12.6845 Y-0.2958 F160.00
G01 X12.6753 Y-0.2945 F160.00
G01 X12.6614 Y-0.2933 F160.00
G01 X12.6521 Y-0.2931 F160.00
G01 X0.5815 Y-0.2932 F160.00
G01 X0.5676 Y-0.2940 F160.00
G01 X0.5538 Y-0.2958 F160.00
G01 X0.4923 Y-0.3090 F160.00
G01 X0.4735 Y-0.3141 F160.00
G01 X0.4643 Y-0.3173 F160.00
G01 X0.4509 Y-0.3230 F160.00
G01 X0.4422 Y-0.3274 F160.00
G01 X0.4295 Y-0.3347 F160.00
G01 X0.4136 Y-0.3459 F160.00
G01 X0.3524 Y-0.3986 F160.00
G01 X0.3418 Y-0.4085 F160.00
G01 X0.3289 Y-0.4229 F160.00
G01 X0.3174 Y-0.4386 F160.00
G01 X0.3075 Y-0.4552 F160.00
G01 X0.3013 Y-0.4683 F160.00
G01 X0.2976 Y-0.4773 F160.00
G01 X0.2930 Y-0.4911 F160.00
G01 X0.2706 Y-0.5682 F160.00
G01 X0.2686 Y-0.5772 F160.00
G01 X0.2665 Y-0.5910 F160.00
G01 X0.2656 Y-0.6002 F160.00
G01 X0.2651 Y-0.6141 F160.00
G01 X0.2651 Y-55.3521 F160.00
G01 X0.2656 Y-55.3660 F160.00
G01 X0.2678 Y-55.3845 F160.00
G01 X0.2810 Y-55.4459 F160.00
G01 X0.2861 Y-55.4647 F160.00
G01 X0.2930 Y-55.4829 F160.00
G01 X0.3017 Y-55.5004 F160.00
G01 X0.3121 Y-55.5168 F160.00
G01 X0.3241 Y-55.5322 F160.00
G01 X0.3738 Y-55.5894 F160.00
G01 X0.3876 Y-55.6031 F160.00
G01 X0.3987 Y-55.6124 F160.00
G01 X0.4146 Y-55.6235 F160.00
G01 X0.4272 Y-55.6307 F160.00
G01 X0.4403 Y-55.6370 F160.00
G01 X0.4584 Y-55.6438 F160.00
G01 X0.5402 Y-55.6676 F160.00
G01 X0.5538 Y-55.6704 F160.00
G01 X0.5630 Y-55.6717 F160.00
G01 X0.5815 Y-55.6731 F160.00
G01 X12.6521 Y-55.6731 F160.00
G01 X12.6707 Y-55.6722 F160.00
G01 X12.6890 Y-55.6696 F160.00
G01 X12.7507 Y-55.6562 F160.00
G01 X12.7693 Y-55.6506 F160.00
G01 X12.7874 Y-55.6432 F160.00
G01 X12.8004 Y-55.6365 F160.00
G01 X12.8128 Y-55.6289 F160.00
G01 X12.8246 Y-55.6203 F160.00
G01 X12.8930 Y-55.5611 F160.00
G01 X12.9063 Y-55.5470 F160.00
G01 X12.9181 Y-55.5317 F160.00
G01 X12.9260 Y-55.5195 F160.00
G01 X12.9329 Y-55.5067 F160.00
G01 X12.9389 Y-55.4935 F160.00
G01 X12.9438 Y-55.4798 F160.00
G01 X12.9676 Y-55.3981 F160.00
G01 X12.9696 Y-55.3890 F160.00
G01 X12.9717 Y-55.3753 F160.00
G01 X12.9731 Y-55.3568 F160.00
G01 X12.9731 Y-49.0815 F160.00
G01 X12.9724 Y-49.0608 F160.00
G01 X12.9703 Y-49.0416 F160.00
G01 X12.9663 Y-49.0228 F160.00
G01 X12.9621 Y-49.0089 F160.00
G01 X12.9357 Y-48.9379 F160.00
G01 X12.9301 Y-48.9245 F160.00
G01 X12.9236 Y-48.9115 F160.00
G01 X12.9187 Y-48.9032 F160.00
G01 X12.9133 Y-48.8951 F160.00
G01 X12.9046 Y-48.8834 F160.00
G01 X12.8984 Y-48.8761 F160.00
G01 X12.8883 Y-48.8656 F160.00
G01 X12.8737 Y-48.8529 F160.00
G01 X12.8130 Y-48.8074 F160.00
G01 X12.7970 Y-48.7966 F160.00
G01 X12.7843 Y-48.7895 F160.00
G01 X12.7755 Y-48.7854 F160.00
G01 X12.7575 Y-48.7784 F160.00
G01 X12.7388 Y-48.7732 F160.00
G01 X12.7197 Y-48.7699 F160.00
G01 X12.6393 Y-48.7639 F160.00
G01 X12.6247 Y-48.7634 F160.00
G01 X12.6102 Y-48.7640 F160.00
G01 X12.5958 Y-48.7657 F160.00
G01 X12.5863 Y-48.7674 F160.00
G01 X12.5721 Y-48.7708 F160.00
G01 X12.5583 Y-48.7753 F160.00
G01 X12.5405 Y-48.7829 F160.00
G01 X12.4696 Y-48.8213 F160.00
G01 X12.4576 Y-48.8284 F160.00
G01 X12.4462 Y-48.8363 F160.00
G01 X12.4353 Y-48.8451 F160.00
G01 X12.4285 Y-48.8513 F160.00
G01 X7.9354 Y-53.3444 F160.00
G01 X7.9256 Y-53.3555 F160.00
G01 X7.9067 Y-53.3788 F160.00
G01 X7.8959 Y-53.3942 F160.00
G01 X7.8888 Y-53.4064 F160.00
G01 X7.8845 Y-53.4148 F160.00
G01 X7.8807 Y-53.4233 F160.00
G01 X7.8758 Y-53.4365 F160.00
G01 X7.8539 Y-53.5072 F160.00
G01 X7.8489 Y-53.5266 F160.00
G01 X7.8466 Y-53.5405 F160.00
G01 X7.8452 Y-53.5553 F160.00
G01 X7.8114 Y-53.7449 F160.00
G01 X7.7475 Y-53.9252 F160.00
G01 X7.6551 Y-54.0927 F160.00
G01 X7.5365 Y-54.2429 F160.00
G01 X7.3950 Y-54.3716 F160.00
G01 X7.2343 Y-54.4755 F160.00
G01 X7.0589 Y-54.5518 F160.00
G01 X6.8733 Y-54.5984 F160.00
G01 X6.6770 Y-54.6146 F160.00
G01 X6.6312 Y-54.6135 F160.00
G01 X6.4359 Y-54.5878 F160.00
G01 X6.2528 Y-54.5321 F160.00
G01 X6.0813 Y-54.4474 F160.00
G01 X5.9259 Y-54.3357 F160.00
G01 X5.8259 Y-54.2357 F160.00
G01 X5.8153 Y-54.2267 F160.00
G01 X5.7830 Y-54.2023 F160.00
G01 X5.7750 Y-54.1966 F160.00
G01 X5.7624 Y-54.1888 F160.00
G01 X5.7494 Y-54.1820 F160.00
G01 X5.7358 Y-54.1762 F160.00
G01 X5.7219 Y-54.1714 F160.00
G01 X5.7076 Y-54.1677 F160.00
G01 X5.6383 Y-54.1525 F160.00
G01 X5.6240 Y-54.1499 F160.00
G01 X5.6047 Y-54.1481 F160.00
G01 X5.5901 Y-54.1481 F160.00
G01 X5.5805 Y-54.1486 F160.00
G01 X5.5613 Y-54.1512 F160.00
G01 X5.5471 Y-54.1543 F160.00
G01 X5.5378 Y-54.1570 F160.00
G01 X5.4531 Y-54.1884 F160.00
G01 X5.4400 Y-54.1947 F160.00
G01 X5.4232 Y-54.2044 F160.00
G01 X5.4076 Y-54.2158 F160.00
G01 X5.3931 Y-54.2287 F160.00
G01 X5.3832 Y-54.2393 F160.00
G01 X5.3740 Y-54.2506 F160.00
G01 X5.3286 Y-54.3111 F160.00
G01 X5.3209 Y-54.3227 F160.00
G01 X5.3163 Y-54.3307 F160.00
G01 X5.3120 Y-54.3389 F160.00
G01 X5.3064 Y-54.3517 F160.00
G01 X5.2700 Y-54.4485 F160.00
G01 X5.2162 Y-54.5202 F160.00
G01 X5.1445 Y-54.5740 F160.00
G01 X5.0574 Y-54.6067 F160.00
G01 X5.0301 Y-54.6096 F160.00
G01 X4.5916 Y-54.6096 F160.00
G01 X4.5916 Y-54.4916 F160.00
G01 X4.9926 Y-54.4916 F160.00
G01 X5.0022 Y-54.4914 F160.00
G01 X5.0165 Y-54.4902 F160.00
G01 X5.0353 Y-54.4869 F160.00
G01 X5.0492 Y-54.4832 F160.00
G01 X5.0583 Y-54.4802 F160.00
G01 X5.0716 Y-54.4749 F160.00
G01 X5.0845 Y-54.4686 F160.00
G01 X5.0929 Y-54.4639 F160.00
G01 X5.1049 Y-54.4561 F160.00
G01 X5.1163 Y-54.4474 F160.00
G01 X5.1271 Y-54.4379 F160.00
G01 X5.1371 Y-54.4276 F160.00
G01 X5.1434 Y-54.4203 F160.00
G01 X5.1521 Y-54.4089 F160.00
G01 X5.1574 Y-54.4009 F160.00
G01 X5.1646 Y-54.3885 F160.00
G01 X5.1709 Y-54.3756 F160.00
G01 X5.1762 Y-54.3623 F160.00
G01 X5.1792 Y-54.3532 F160.00
G01 X5.1829 Y-54.3393 F160.00
G01 X5.1855 Y-54.3252 F160.00
G01 X5.1871 Y-54.3110 F160.00
G01 X5.1876 Y-54.2966 F160.00
G01 X5.1876 Y-52.5966 F160.00
G01 X5.1871 Y-52.5823 F160.00
G01 X5.1855 Y-52.5680 F160.00
G01 X5.1829 Y-52.5539 F160.00
G01 X5.1792 Y-52.5400 F160.00
G01 X5.1746 Y-52.5264 F160.00
G01 X5.1668 Y-52.5090 F160.00
G01 X5.1599 Y-52.4964 F160.00
G01 X5.1521 Y-52.4843 F160.00
G01 X5.1403 Y-52.4693 F160.00
G01 X5.1305 Y-52.4587 F160.00
G01 X5.1200 Y-52.4490 F160.00
G01 X5.1088 Y-52.4400 F160.00
G01 X5.0929 Y-52.4294 F160.00
G01 X5.0803 Y-52.4224 F160.00
G01 X5.0672 Y-52.4165 F160.00
G01 X5.0538 Y-52.4115 F160.00
G01 X5.0400 Y-52.4075 F160.00
G01 X5.0260 Y-52.4045 F160.00
G01 X5.0117 Y-52.4026 F160.00
G01 X4.9974 Y-52.4017 F160.00
G01 X4.5916 Y-52.4016 F160.00
G01 X4.5916 Y-52.2836 F160.00
G01 X5.0302 Y-52.2836 F160.00
G01 X5.0574 Y-52.2866 F160.00
G01 X5.1445 Y-52.3192 F160.00
G01 X5.2162 Y-52.3730 F160.00
G01 X5.2700 Y-52.4448 F160.00
G01 X5.3052 Y-52.5385 F160.00
G01 X5.3108 Y-52.5511 F160.00
G01 X5.3150 Y-52.5593 F160.00
G01 X5.3441 Y-52.6075 F160.00
G01 X5.3521 Y-52.6196 F160.00
G01 X5.3611 Y-52.6312 F160.00
G01 X5.3675 Y-52.6385 F160.00
G01 X5.3778 Y-52.6488 F160.00
G01 X5.3851 Y-52.6552 F160.00
G01 X5.3927 Y-52.6613 F160.00
G01 X5.4046 Y-52.6697 F160.00
G01 X5.4734 Y-52.7119 F160.00
G01 X5.4906 Y-52.7208 F160.00
G01 X5.5041 Y-52.7263 F160.00
G01 X5.5132 Y-52.7294 F160.00
G01 X5.5272 Y-52.7332 F160.00
G01 X5.5367 Y-52.7351 F160.00
G01 X5.5463 Y-52.7366 F160.00
G01 X5.5608 Y-52.7379 F160.00
G01 X5.5753 Y-52.7381 F160.00
G01 X5.6463 Y-52.7366 F160.00
G01 X5.6559 Y-52.7362 F160.00
G01 X5.6704 Y-52.7346 F160.00
G01 X5.6847 Y-52.7320 F160.00
G01 X5.6987 Y-52.7283 F160.00
G01 X5.7125 Y-52.7236 F160.00
G01 X5.7258 Y-52.7178 F160.00
G01 X5.7387 Y-52.7111 F160.00
G01 X5.7470 Y-52.7061 F160.00
G01 X5.8099 Y-52.6638 F160.00
G01 X5.8248 Y-52.6528 F160.00
G01 X5.8386 Y-52.6403 F160.00
G01 X5.8482 Y-52.6300 F160.00
G01 X5.9931 Y-52.5045 F160.00
G01 X6.1562 Y-52.4045 F160.00
G01 X6.3335 Y-52.3326 F160.00
G01 X6.5201 Y-52.2905 F160.00
G01 X6.5867 Y-52.2864 F160.00
G01 X6.6206 Y-52.2816 F160.00
G01 X6.6344 Y-52.2785 F160.00
G01 X6.6435 Y-52.2758 F160.00
G01 X6.6569 Y-52.2711 F160.00
G01 X6.6741 Y-52.2633 F160.00
G01 X6.7447 Y-52.2247 F160.00
G01 X6.7603 Y-52.2147 F160.00
G01 X6.7749 Y-52.2032 F160.00
G01 X6.7850 Y-52.1937 F160.00
G01 X11.5391 Y-47.4397 F160.00
G01 X11.5463 Y-47.4321 F160.00
G01 X11.5531 Y-47.4242 F160.00
G01 X11.5729 Y-47.3994 F160.00
G01 X11.5785 Y-47.3917 F160.00
G01 X11.5863 Y-47.3796 F160.00
G01 X11.5909 Y-47.3712 F160.00
G01 X11.5971 Y-47.3583 F160.00
G01 X11.6007 Y-47.3494 F160.00
G01 X11.6052 Y-47.3358 F160.00
G01 X11.6276 Y-47.2587 F160.00
G01 X11.6304 Y-47.2450 F160.00
G01 X11.6317 Y-47.2358 F160.00
G01 X11.6326 Y-47.2266 F160.00
G01 X11.6331 Y-47.2127 F160.00
G01 X11.6329 Y-35.6015 F160.00
G01 X11.6317 Y-35.5876 F160.00
G01 X11.6296 Y-35.5739 F160.00
G01 X11.6162 Y-35.5123 F160.00
G01 X11.6106 Y-35.4936 F160.00
G01 X11.6032 Y-35.4755 F160.00
G01 X11.5941 Y-35.4583 F160.00
G01 X11.5889 Y-35.4501 F160.00
G01 X11.5803 Y-35.4383 F160.00
G01 X11.5244 Y-35.3735 F160.00
G01 X11.5107 Y-35.3598 F160.00
G01 X11.4956 Y-35.3476 F160.00
G01 X11.4795 Y-35.3369 F160.00
G01 X11.4624 Y-35.3279 F160.00
G01 X11.4490 Y-35.3223 F160.00
G01 X11.4352 Y-35.3177 F160.00
G01 X11.3626 Y-35.2964 F160.00
G01 X11.3445 Y-35.2925 F160.00
G01 X11.3307 Y-35.2907 F160.00
G01 X11.3121 Y-35.2898 F160.00
G01 X9.9091 Y-35.2898 F160.00
G01 X9.8818 Y-35.2868 F160.00
G01 X9.7945 Y-35.2541 F160.00
G01 X9.7227 Y-35.2003 F160.00
G01 X9.6688 Y-35.1284 F160.00
G01 X9.6399 Y-35.0516 F160.00
G01 X9.6340 Y-35.0383 F160.00
G01 X9.6245 Y-35.0213 F160.00
G01 X9.5781 Y-34.9546 F160.00
G01 X9.5658 Y-34.9401 F160.00
G01 X9.5522 Y-34.9270 F160.00
G01 X9.5449 Y-34.9209 F160.00
G01 X9.5335 Y-34.9125 F160.00
G01 X9.5215 Y-34.9049 F160.00
G01 X9.5089 Y-34.8982 F160.00
G01 X9.4312 Y-34.8629 F160.00
G01 X9.4128 Y-34.8566 F160.00
G01 X9.3987 Y-34.8531 F160.00
G01 X9.3796 Y-34.8502 F160.00
G01 X9.3651 Y-34.8492 F160.00
G01 X9.3506 Y-34.8493 F160.00
G01 X9.3313 Y-34.8511 F160.00
G01 X9.2610 Y-34.8612 F160.00
G01 X9.2467 Y-34.8638 F160.00
G01 X9.2327 Y-34.8674 F160.00
G01 X9.2189 Y-34.8721 F160.00
G01 X9.2056 Y-34.8778 F160.00
G01 X9.1969 Y-34.8822 F160.00
G01 X9.1803 Y-34.8921 F160.00
G01 X9.1648 Y-34.9037 F160.00
G01 X9.1074 Y-34.9533 F160.00
G01 X9.0934 Y-34.9667 F160.00
G01 X9.0809 Y-34.9814 F160.00
G01 X9.0724 Y-34.9932 F160.00
G01 X9.0673 Y-35.0014 F160.00
G01 X9.0583 Y-35.0186 F160.00
G01 X9.0526 Y-35.0320 F160.00
G01 X9.0494 Y-35.0411 F160.00
G01 X9.0280 Y-35.1138 F160.00
G01 X9.0246 Y-35.1273 F160.00
G01 X9.0221 Y-35.1410 F160.00
G01 X9.0210 Y-35.1503 F160.00
G01 X9.0201 Y-35.1688 F160.00
G01 X9.0201 Y-41.9047 F160.00
G01 X9.0204 Y-41.9151 F160.00
G01 X9.0212 Y-41.9255 F160.00
G01 X9.0247 Y-41.9571 F160.00
G01 X9.0262 Y-41.9665 F160.00
G01 X9.0293 Y-41.9806 F160.00
G01 X9.0334 Y-41.9943 F160.00
G01 X9.0385 Y-42.0077 F160.00
G01 X9.0446 Y-42.0207 F160.00
G01 X9.0855 Y-42.0953 F160.00
G01 X9.0959 Y-42.1107 F160.00
G01 X9.1077 Y-42.1250 F160.00
G01 X9.5733 Y-42.5907 F160.00
G01 X9.5851 Y-42.6011 F160.00
G01 X9.6137 Y-42.6238 F160.00
G01 X9.6256 Y-42.6318 F160.00
G01 X9.6380 Y-42.6389 F160.00
G01 X9.6510 Y-42.6451 F160.00
G01 X9.6689 Y-42.6518 F160.00
G01 X9.7416 Y-42.6732 F160.00
G01 X9.7506 Y-42.6756 F160.00
G01 X9.7642 Y-42.6784 F160.00
G01 X9.7780 Y-42.6802 F160.00
G01 X9.7873 Y-42.6809 F160.00
G01 X10.4642 Y-42.6811 F160.00
G01 X10.4915 Y-42.6841 F160.00
G01 X10.5787 Y-42.7168 F160.00
G01 X10.6506 Y-42.7707 F160.00
G01 X10.7045 Y-42.8425 F160.00
G01 X10.7372 Y-42.9298 F160.00
G01 X10.7401 Y-42.9571 F160.00
G01 X10.7401 Y-44.6322 F160.00
G01 X10.7372 Y-44.6595 F160.00
G01 X10.7045 Y-44.7467 F160.00
G01 X10.6506 Y-44.8186 F160.00
G01 X10.5787 Y-44.8725 F160.00
G01 X10.4915 Y-44.9052 F160.00
G01 X10.4642 Y-44.9081 F160.00
G01 X8.7891 Y-44.9081 F160.00
G01 X8.7618 Y-44.9052 F160.00
G01 X8.6745 Y-44.8725 F160.00
G01 X8.6027 Y-44.8186 F160.00
G01 X8.5488 Y-44.7467 F160.00
G01 X8.5161 Y-44.6595 F160.00
G01 X8.5131 Y-44.6322 F160.00
G01 X8.5131 Y-43.9645 F160.00
G01 X8.5125 Y-43.9489 F160.00
G01 X8.5091 Y-43.9169 F160.00
G01 X8.5071 Y-43.9027 F160.00
G01 X8.5027 Y-43.8841 F160.00
G01 X8.4983 Y-43.8704 F160.00
G01 X8.4947 Y-43.8615 F160.00
G01 X8.4886 Y-43.8485 F160.00
G01 X8.4501 Y-43.7780 F160.00
G01 X8.4427 Y-43.7662 F160.00
G01 X8.4373 Y-43.7586 F160.00
G01 X8.4286 Y-43.7478 F160.00
G01 X8.4191 Y-43.7376 F160.00
G01 X7.6695 Y-42.9880 F160.00
G01 X7.6507 Y-42.9706 F160.00
G01 X7.6266 Y-42.9506 F160.00
G01 X7.6113 Y-42.9319 F160.00
G01 X7.6004 Y-42.9192 F160.00
G01 X7.5731 Y-42.8851 F160.00
G01 X7.5230 Y-42.8236 F160.00
G01 X7.4860 Y-42.7523 F160.00
G01 X7.4488 Y-42.6823 F160.00
G01 X7.4264 Y-42.6052 F160.00
G01 X7.4035 Y-42.5293 F160.00
G01 X7.3966 Y-42.4504 F160.00
G01 X7.3929 Y-42.4129 F160.00
G01 X7.3919 Y-42.3970 F160.00
G01 X7.3892 Y-42.3661 F160.00
G01 X7.3917 Y-42.3422 F160.00
G01 X7.3931 Y-42.3128 F160.00
G01 X7.3931 Y-35.0570 F160.00
G01 X7.3929 Y-35.0471 F160.00
G01 X7.3915 Y-35.0323 F160.00
G01 X7.3900 Y-35.0225 F160.00
G01 X7.3868 Y-35.0079 F160.00
G01 X7.3613 Y-34.9261 F160.00
G01 X7.3581 Y-34.9167 F160.00
G01 X7.3544 Y-34.9075 F160.00
G01 X7.3480 Y-34.8941 F160.00
G01 X7.3431 Y-34.8854 F160.00
G01 X7.3379 Y-34.8770 F160.00
G01 X7.2386 Y-34.7352 F160.00
G01 X7.2232 Y-34.7026 F160.00
G01 X7.2183 Y-34.6940 F160.00
G01 X7.2103 Y-34.6816 F160.00
G01 X7.1982 Y-34.6661 F160.00
G01 X7.1498 Y-34.6104 F160.00
G01 X7.1398 Y-34.6001 F160.00
G01 X7.1290 Y-34.5907 F160.00
G01 X7.1176 Y-34.5820 F160.00
G01 X7.1056 Y-34.5742 F160.00
G01 X7.0930 Y-34.5673 F160.00
G01 X7.0800 Y-34.5614 F160.00
G01 X7.0620 Y-34.5550 F160.00
G01 X6.9894 Y-34.5331 F160.00
G01 X6.9800 Y-34.5307 F160.00
G01 X6.9657 Y-34.5281 F160.00
G01 X6.9513 Y-34.5266 F160.00
G01 X6.9416 Y-34.5261 F160.00
G01 X6.9271 Y-34.5264 F160.00
G01 X6.9174 Y-34.5271 F160.00
G01 X6.8983 Y-34.5301 F160.00
G01 X6.8842 Y-34.5336 F160.00
G01 X6.8159 Y-34.5530 F160.00
G01 X6.8021 Y-34.5575 F160.00
G01 X6.7931 Y-34.5611 F160.00
G01 X6.7757 Y-34.5695 F160.00
G01 X6.7632 Y-34.5770 F160.00
G01 X6.7513 Y-34.5853 F160.00
G01 X6.7365 Y-34.5978 F160.00
G01 X6.7230 Y-34.6117 F160.00
G01 X6.6761 Y-34.6650 F160.00
G01 X6.6645 Y-34.6795 F160.00
G01 X6.6567 Y-34.6910 F160.00
G01 X6.6498 Y-34.7031 F160.00
G01 X6.6346 Y-34.7352 F160.00
G01 X6.5229 Y-34.8948 F160.00
G01 X6.3851 Y-35.0325 F160.00
G01 X6.2255 Y-35.1443 F160.00
G01 X6.0489 Y-35.2266 F160.00
G01 X5.8607 Y-35.2771 F160.00
G01 X5.6666 Y-35.2940 F160.00
G01 X5.4725 Y-35.2771 F160.00
G01 X5.2843 Y-35.2266 F160.00
G01 X5.1077 Y-35.1443 F160.00
G01 X4.9481 Y-35.0325 F160.00
G01 X4.8104 Y-34.8948 F160.00
G01 X4.6986 Y-34.7352 F160.00
G01 X4.6829 Y-34.7020 F160.00
G01 X4.6755 Y-34.6892 F160.00
G01 X4.6672 Y-34.6771 F160.00
G01 X4.6579 Y-34.6655 F160.00
G01 X4.6095 Y-34.6098 F160.00
G01 X4.5995 Y-34.5995 F160.00
G01 X4.5924 Y-34.5931 F160.00
G01 X4.5773 Y-34.5814 F160.00
G01 X4.5612 Y-34.5712 F160.00
G01 X4.5441 Y-34.5627 F160.00
G01 X4.5263 Y-34.5558 F160.00
G01 X4.4538 Y-34.5338 F160.00
G01 X4.4397 Y-34.5302 F160.00
G01 X4.4254 Y-34.5275 F160.00
G01 X4.4158 Y-34.5264 F160.00
G01 X4.4013 Y-34.5255 F160.00
G01 X4.3916 Y-34.5256 F160.00
G01 X4.3723 Y-34.5271 F160.00
G01 X4.3533 Y-34.5305 F160.00
G01 X4.2756 Y-34.5524 F160.00
G01 X4.2618 Y-34.5569 F160.00
G01 X4.2440 Y-34.5645 F160.00
G01 X4.2270 Y-34.5738 F160.00
G01 X4.2110 Y-34.5847 F160.00
G01 X4.1962 Y-34.5972 F160.00
G01 X4.1827 Y-34.6111 F160.00
G01 X4.1358 Y-34.6644 F160.00
G01 X4.1242 Y-34.6789 F160.00
G01 X4.1165 Y-34.6904 F160.00
G01 X4.1095 Y-34.7025 F160.00
G01 X4.0942 Y-34.7349 F160.00
G01 X3.9825 Y-34.8944 F160.00
G01 X3.8448 Y-35.0322 F160.00
G01 X3.8219 Y-35.0482 F160.00
G01 X3.8219 Y-34.8877 F160.00
G01 X3.8302 Y-34.8799 F160.00
G01 X3.8368 Y-34.8729 F160.00
G01 X3.8958 Y-34.8075 F160.00
G01 X3.9484 Y-34.7369 F160.00
G01 X3.9591 Y-34.7210 F160.00
G01 X4.0041 Y-34.6453 F160.00
G01 X4.0420 Y-34.5658 F160.00
G01 X4.0493 Y-34.5481 F160.00
G01 X4.0773 Y-34.4697 F160.00
G01 X4.0813 Y-34.4559 F160.00
G01 X4.1004 Y-34.3797 F160.00
G01 X4.1041 Y-34.3610 F160.00
G01 X4.1168 Y-34.2738 F160.00
G01 X4.1216 Y-34.1763 F160.00
G01 X4.1168 Y-34.0788 F160.00
G01 X4.1041 Y-33.9916 F160.00
G01 X4.1004 Y-33.9728 F160.00
G01 X4.0813 Y-33.8967 F160.00
G01 X4.0773 Y-33.8829 F160.00
G01 X4.0493 Y-33.8045 F160.00
G01 X4.0420 Y-33.7868 F160.00
G01 X4.0041 Y-33.7073 F160.00
G01 X3.9591 Y-33.6316 F160.00
G01 X3.9484 Y-33.6157 F160.00
G01 X3.8958 Y-33.5451 F160.00
G01 X3.8368 Y-33.4797 F160.00
G01 X3.8302 Y-33.4727 F160.00
G01 X3.8219 Y-33.4649 F160.00
G01 X3.8219 Y-33.3044 F160.00
G01 X3.8448 Y-33.3204 F160.00
G01 X3.9825 Y-33.4581 F160.00
G01 X4.0942 Y-33.6177 F160.00
G01 X4.1098 Y-33.6506 F160.00
G01 X4.1172 Y-33.6633 F160.00
G01 X4.1255 Y-33.6755 F160.00
G01 X4.1348 Y-33.6870 F160.00
G01 X4.1832 Y-33.7428 F160.00
G01 X4.1932 Y-33.7530 F160.00
G01 X4.2003 Y-33.7594 F160.00
G01 X4.2154 Y-33.7712 F160.00
G01 X4.2274 Y-33.7790 F160.00
G01 X4.2357 Y-33.7836 F160.00
G01 X4.2530 Y-33.7918 F160.00
G01 X4.2710 Y-33.7982 F160.00
G01 X4.3389 Y-33.8187 F160.00
G01 X4.3577 Y-33.8234 F160.00
G01 X4.3721 Y-33.8257 F160.00
G01 X4.3865 Y-33.8269 F160.00
G01 X4.4011 Y-33.8270 F160.00
G01 X4.4156 Y-33.8260 F160.00
G01 X4.4299 Y-33.8240 F160.00
G01 X4.4441 Y-33.8209 F160.00
G01 X4.5171 Y-33.8002 F160.00
G01 X4.5309 Y-33.7957 F160.00
G01 X4.5487 Y-33.7881 F160.00
G01 X4.5657 Y-33.7788 F160.00
G01 X4.5778 Y-33.7707 F160.00
G01 X4.5929 Y-33.7586 F160.00
G01 X4.6034 Y-33.7486 F160.00
G01 X4.6100 Y-33.7415 F160.00
G01 X4.6569 Y-33.6882 F160.00
G01 X4.6685 Y-33.6737 F160.00
G01 X4.6762 Y-33.6621 F160.00
G01 X4.6832 Y-33.6501 F160.00
G01 X4.6986 Y-33.6174 F160.00
G01 X4.8104 Y-33.4578 F160.00
G01 X4.9481 Y-33.3200 F160.00
G01 X5.1078 Y-33.2083 F160.00
G01 X5.2843 Y-33.1259 F160.00
G01 X5.4725 Y-33.0755 F160.00
G01 X5.6666 Y-33.0585 F160.00
G01 X5.8607 Y-33.0755 F160.00
G01 X6.0489 Y-33.1259 F160.00
G01 X6.2255 Y-33.2083 F160.00
G01 X6.3851 Y-33.3200 F160.00
G01 X6.5229 Y-33.4578 F160.00
G01 X6.6346 Y-33.6174 F160.00
G01 X6.6501 Y-33.6500 F160.00
G01 X6.6575 Y-33.6627 F160.00
G01 X6.6658 Y-33.6749 F160.00
G01 X6.6751 Y-33.6864 F160.00
G01 X6.7235 Y-33.7422 F160.00
G01 X6.7335 Y-33.7525 F160.00
G01 X6.7406 Y-33.7589 F160.00
G01 X6.7557 Y-33.7706 F160.00
G01 X6.7718 Y-33.7808 F160.00
G01 X6.7889 Y-33.7893 F160.00
G01 X6.8067 Y-33.7962 F160.00
G01 X6.8792 Y-33.8182 F160.00
G01 X6.8933 Y-33.8218 F160.00
G01 X6.9028 Y-33.8237 F160.00
G01 X6.9172 Y-33.8256 F160.00
G01 X6.9317 Y-33.8265 F160.00
G01 X6.9413 Y-33.8264 F160.00
G01 X6.9606 Y-33.8249 F160.00
G01 X6.9797 Y-33.8214 F160.00
G01 X7.0574 Y-33.7996 F160.00
G01 X7.0712 Y-33.7951 F160.00
G01 X7.0890 Y-33.7875 F160.00
G01 X7.1060 Y-33.7782 F160.00
G01 X7.1219 Y-33.7672 F160.00
G01 X7.1368 Y-33.7548 F160.00
G01 X7.1503 Y-33.7409 F160.00
G01 X7.1972 Y-33.6876 F160.00
G01 X7.2088 Y-33.6731 F160.00
G01 X7.2165 Y-33.6616 F160.00
G01 X7.2234 Y-33.6495 F160.00
G01 X7.2386 Y-33.6174 F160.00
G01 X7.3504 Y-33.4578 F160.00
G01 X7.4881 Y-33.3200 F160.00
G01 X7.6478 Y-33.2083 F160.00
G01 X7.8243 Y-33.1259 F160.00
G01 X8.0125 Y-33.0755 F160.00
G01 X8.2066 Y-33.0585 F160.00
G01 X8.4007 Y-33.0755 F160.00
G01 X8.5889 Y-33.1259 F160.00
G01 X8.7655 Y-33.2083 F160.00
G01 X8.9251 Y-33.3200 F160.00
G01 X9.0652 Y-33.4602 F160.00
G01 X9.0776 Y-33.4753 F160.00
G01 X9.0876 Y-33.4862 F160.00
G01 X9.0948 Y-33.4930 F160.00
G01 X9.1022 Y-33.4995 F160.00
G01 X9.1100 Y-33.5056 F160.00
G01 X9.1181 Y-33.5113 F160.00
G01 X9.1917 Y-33.5552 F160.00
G01 X9.2002 Y-33.5598 F160.00
G01 X9.2135 Y-33.5658 F160.00
G01 X9.2317 Y-33.5722 F160.00
G01 X9.2505 Y-33.5767 F160.00
G01 X9.2697 Y-33.5794 F160.00
G01 X9.2891 Y-33.5802 F160.00
G01 X9.3649 Y-33.5776 F160.00
G01 X9.3793 Y-33.5766 F160.00
G01 X9.3985 Y-33.5735 F160.00
G01 X9.4079 Y-33.5713 F160.00
G01 X9.4218 Y-33.5671 F160.00
G01 X9.4397 Y-33.5598 F160.00
G01 X9.4484 Y-33.5556 F160.00
G01 X9.4611 Y-33.5484 F160.00
G01 X9.5275 Y-33.5026 F160.00
G01 X9.5427 Y-33.4910 F160.00
G01 X9.5567 Y-33.4779 F160.00
G01 X9.5693 Y-33.4635 F160.00
G01 X9.5804 Y-33.4479 F160.00
G01 X9.5877 Y-33.4356 F160.00
G01 X9.5921 Y-33.4270 F160.00
G01 X9.6252 Y-33.3489 F160.00
G01 X9.6314 Y-33.3297 F160.00
G01 X9.6351 Y-33.3141 F160.00
G01 X9.6688 Y-33.2242 F160.00
G01 X9.7227 Y-33.1523 F160.00
G01 X9.7945 Y-33.0985 F160.00
G01 X9.8818 Y-33.0658 F160.00
G01 X9.9091 Y-33.0628 F160.00
G01 X11.3168 Y-33.0627 F160.00
G01 X11.3307 Y-33.0619 F160.00
G01 X11.3490 Y-33.0593 F160.00
G01 X11.4154 Y-33.0446 F160.00
G01 X11.4293 Y-33.0403 F160.00
G01 X11.4429 Y-33.0349 F160.00
G01 X11.4518 Y-33.0308 F160.00
G01 X11.4646 Y-33.0238 F160.00
G01 X11.4768 Y-33.0158 F160.00
G01 X11.4884 Y-33.0069 F160.00
G01 X11.5530 Y-32.9508 F160.00
G01 X11.5598 Y-32.9439 F160.00
G01 X11.5694 Y-32.9330 F160.00
G01 X11.5781 Y-32.9214 F160.00
G01 X11.5860 Y-32.9092 F160.00
G01 X11.5950 Y-32.8920 F160.00
G01 X11.6023 Y-32.8741 F160.00
G01 X11.6252 Y-32.7967 F160.00
G01 X11.6287 Y-32.7832 F160.00
G01 X11.6304 Y-32.7741 F160.00
G01 X11.6322 Y-32.7603 F160.00
G01 X11.6331 Y-32.7464 F160.00
G01 X11.6331 Y-28.7262 F160.00
G01 X11.6325 Y-28.7106 F160.00
G01 X11.6279 Y-28.6691 F160.00
G01 X11.6240 Y-28.6504 F160.00
G01 X11.6183 Y-28.6321 F160.00
G01 X11.6128 Y-28.6188 F160.00
G01 X11.6086 Y-28.6102 F160.00
G01 X11.5701 Y-28.5396 F160.00
G01 X11.5653 Y-28.5317 F160.00
G01 X11.5573 Y-28.5203 F160.00
G01 X11.5516 Y-28.5130 F160.00
G01 X11.5423 Y-28.5026 F160.00
G01 X10.7934 Y-27.7535 F160.00
G01 X10.7844 Y-27.7451 F160.00
G01 X10.7649 Y-27.7283 F160.00
G01 X10.7532 Y-27.7196 F160.00
G01 X10.7450 Y-27.7143 F160.00
G01 X10.7366 Y-27.7095 F160.00
G01 X10.7235 Y-27.7030 F160.00
G01 X10.6484 Y-27.6734 F160.00
G01 X10.6353 Y-27.6688 F160.00
G01 X10.6219 Y-27.6651 F160.00
G01 X10.6036 Y-27.6618 F160.00
G01 X10.5525 Y-27.6571 F160.00
G01 X10.3643 Y-27.6066 F160.00
G01 X10.1877 Y-27.5243 F160.00
G01 X10.0281 Y-27.4125 F160.00
G01 X9.8904 Y-27.2748 F160.00
G01 X9.7786 Y-27.1152 F160.00
G01 X9.7632 Y-27.0826 F160.00
G01 X9.7583 Y-27.0740 F160.00
G01 X9.7503 Y-27.0616 F160.00
G01 X9.7382 Y-27.0461 F160.00
G01 X9.6930 Y-26.9939 F160.00
G01 X9.6865 Y-26.9869 F160.00
G01 X9.6763 Y-26.9769 F160.00
G01 X9.6653 Y-26.9677 F160.00
G01 X9.6496 Y-26.9567 F160.00
G01 X9.6330 Y-26.9473 F160.00
G01 X9.6156 Y-26.9396 F160.00
G01 X9.6020 Y-26.9350 F160.00
G01 X9.5294 Y-26.9131 F160.00
G01 X9.5153 Y-26.9098 F160.00
G01 X9.5009 Y-26.9075 F160.00
G01 X9.4864 Y-26.9063 F160.00
G01 X9.4719 Y-26.9062 F160.00
G01 X9.4574 Y-26.9071 F160.00
G01 X9.4430 Y-26.9092 F160.00
G01 X9.4242 Y-26.9136 F160.00
G01 X9.3559 Y-26.9330 F160.00
G01 X9.3376 Y-26.9392 F160.00
G01 X9.3199 Y-26.9473 F160.00
G01 X9.3032 Y-26.9570 F160.00
G01 X9.2913 Y-26.9653 F160.00
G01 X9.2837 Y-26.9714 F160.00
G01 X9.2730 Y-26.9811 F160.00
G01 X9.2630 Y-26.9917 F160.00
G01 X9.2161 Y-27.0450 F160.00
G01 X9.2045 Y-27.0595 F160.00
G01 X9.1967 Y-27.0710 F160.00
G01 X9.1898 Y-27.0831 F160.00
G01 X9.1746 Y-27.1152 F160.00
G01 X9.0629 Y-27.2748 F160.00
G01 X8.9251 Y-27.4125 F160.00
G01 X8.7655 Y-27.5243 F160.00
G01 X8.5889 Y-27.6066 F160.00
G01 X8.4007 Y-27.6571 F160.00
G01 X8.2066 Y-27.6740 F160.00
G01 X8.0125 Y-27.6571 F160.00
G01 X7.8243 Y-27.6066 F160.00
G01 X7.6477 Y-27.5243 F160.00
G01 X7.4881 Y-27.4125 F160.00
G01 X7.3504 Y-27.2748 F160.00
G01 X7.2386 Y-27.1152 F160.00
G01 X7.2232 Y-27.0826 F160.00
G01 X7.2158 Y-27.0698 F160.00
G01 X7.2074 Y-27.0577 F160.00
G01 X7.1982 Y-27.0461 F160.00
G01 X7.1498 Y-26.9904 F160.00
G01 X7.1398 Y-26.9801 F160.00
G01 X7.1327 Y-26.9737 F160.00
G01 X7.1176 Y-26.9620 F160.00
G01 X7.1014 Y-26.9518 F160.00
G01 X7.0844 Y-26.9433 F160.00
G01 X7.0711 Y-26.9380 F160.00
G01 X6.9847 Y-26.9119 F160.00
G01 X6.9705 Y-26.9089 F160.00
G01 X6.9609 Y-26.9075 F160.00
G01 X6.9464 Y-26.9063 F160.00
G01 X6.9367 Y-26.9061 F160.00
G01 X6.9222 Y-26.9067 F160.00
G01 X6.9126 Y-26.9077 F160.00
G01 X6.8935 Y-26.9111 F160.00
G01 X6.8067 Y-26.9359 F160.00
G01 X6.7886 Y-26.9430 F160.00
G01 X6.7714 Y-26.9519 F160.00
G01 X6.7552 Y-26.9625 F160.00
G01 X6.7401 Y-26.9746 F160.00
G01 X6.7330 Y-26.9811 F160.00
G01 X6.7230 Y-26.9917 F160.00
G01 X6.6761 Y-27.0450 F160.00
G01 X6.6645 Y-27.0595 F160.00
G01 X6.6567 Y-27.0710 F160.00
G01 X6.6498 Y-27.0831 F160.00
G01 X6.6346 Y-27.1152 F160.00
G01 X6.5229 Y-27.2748 F160.00
G01 X6.3851 Y-27.4125 F160.00
G01 X6.2255 Y-27.5243 F160.00
G01 X6.0489 Y-27.6066 F160.00
G01 X5.8607 Y-27.6571 F160.00
G01 X5.6666 Y-27.6740 F160.00
G01 X5.4725 Y-27.6571 F160.00
G01 X5.2843 Y-27.6066 F160.00
G01 X5.1077 Y-27.5243 F160.00
G01 X4.9481 Y-27.4125 F160.00
G01 X4.8104 Y-27.2748 F160.00
G01 X4.6986 Y-27.1152 F160.00
G01 X4.6832 Y-27.0826 F160.00
G01 X4.6758 Y-27.0698 F160.00
G01 X4.6674 Y-27.0577 F160.00
G01 X4.6582 Y-27.0461 F160.00
G01 X4.6098 Y-26.9904 F160.00
G01 X4.6032 Y-26.9835 F160.00
G01 X4.5927 Y-26.9737 F160.00
G01 X4.5776 Y-26.9620 F160.00
G01 X4.5614 Y-26.9518 F160.00
G01 X4.5444 Y-26.9433 F160.00
G01 X4.5311 Y-26.9380 F160.00
G01 X4.4447 Y-26.9119 F160.00
G01 X4.4257 Y-26.9081 F160.00
G01 X4.4113 Y-26.9066 F160.00
G01 X4.4016 Y-26.9061 F160.00
G01 X4.3871 Y-26.9064 F160.00
G01 X4.3774 Y-26.9071 F160.00
G01 X4.3583 Y-26.9101 F160.00
G01 X4.3442 Y-26.9136 F160.00
G01 X4.2713 Y-26.9344 F160.00
G01 X4.2531 Y-26.9411 F160.00
G01 X4.2399 Y-26.9473 F160.00
G01 X4.2232 Y-26.9570 F160.00
G01 X4.2075 Y-26.9683 F160.00
G01 X4.1965 Y-26.9778 F160.00
G01 X4.1862 Y-26.9881 F160.00
G01 X4.1361 Y-27.0450 F160.00
G01 X4.1245 Y-27.0595 F160.00
G01 X4.1167 Y-27.0710 F160.00
G01 X4.1098 Y-27.0831 F160.00
G01 X4.0946 Y-27.1152 F160.00
G01 X3.9829 Y-27.2748 F160.00
G01 X3.8451 Y-27.4125 F160.00
G01 X3.6855 Y-27.5243 F160.00
G01 X3.5089 Y-27.6066 F160.00
G01 X3.3207 Y-27.6571 F160.00
G01 X3.1266 Y-27.6740 F160.00
G01 X2.9325 Y-27.6571 F160.00
G01 X2.8051 Y-27.6229 F160.00
G00 Z2.0000
G00 X6.9377 Y-26.4795
G01 F60.00
G01 Z-0.0500
G01 F160.00
G01 X6.9418 Y-26.4794 F160.00
G01 X6.9392 Y-26.5333 F160.00
G01 X6.9386 Y-26.5563 F160.00
G01 X6.9392 Y-26.5793 F160.00
G01 X6.9418 Y-26.6331 F160.00
G01 X6.9314 Y-26.6332 F160.00
G01 X6.9341 Y-26.5793 F160.00
G01 X6.9346 Y-26.5563 F160.00
G01 X6.9341 Y-26.5333 F160.00
G01 X6.9314 Y-26.4794 F160.00
G01 X6.9377 Y-26.4795 F160.00
G00 Z2.0000
G00 X7.7461 Y-25.6745
G01 F60.00
G01 Z-0.0500
G01 F160.00
G01 X7.7293 Y-25.6835 F160.00
G01 X7.6538 Y-25.7290 F160.00
G01 X7.5754 Y-25.7871 F160.00
G01 X7.5031 Y-25.8527 F160.00
G01 X7.4375 Y-25.9251 F160.00
G01 X7.3793 Y-26.0035 F160.00
G01 X7.3291 Y-26.0873 F160.00
G01 X7.2874 Y-26.1755 F160.00
G01 X7.2545 Y-26.2675 F160.00
G01 X7.2307 Y-26.3622 F160.00
G01 X7.2164 Y-26.4588 F160.00
G01 X7.2116 Y-26.5563 F160.00
G01 X7.2164 Y-26.6538 F160.00
G01 X7.2307 Y-26.7504 F160.00
G01 X7.2545 Y-26.8451 F160.00
G01 X7.2874 Y-26.9371 F160.00
G01 X7.3291 Y-27.0253 F160.00
G01 X7.3793 Y-27.1091 F160.00
G01 X7.4375 Y-27.1875 F160.00
G01 X7.5031 Y-27.2599 F160.00
G01 X7.5754 Y-27.3254 F160.00
G01 X7.6538 Y-27.3836 F160.00
G01 X7.7376 Y-27.4338 F160.00
G01 X7.8259 Y-27.4756 F160.00
G01 X7.9178 Y-27.5084 F160.00
G01 X8.0125 Y-27.5322 F160.00
G01 X8.1091 Y-27.5465 F160.00
G01 X8.2066 Y-27.5513 F160.00
G01 X8.3042 Y-27.5465 F160.00
G01 X8.4007 Y-27.5322 F160.00
G01 X8.4955 Y-27.5084 F160.00
G01 X8.5874 Y-27.4756 F160.00
G01 X8.6757 Y-27.4338 F160.00
G01 X8.7594 Y-27.3836 F160.00
G01 X8.8378 Y-27.3254 F160.00
G01 X8.9102 Y-27.2599 F160.00
G01 X8.9758 Y-27.1875 F160.00
G01 X9.0339 Y-27.1091 F160.00
G01 X9.0841 Y-27.0253 F160.00
G01 X9.1259 Y-26.9371 F160.00
G01 X9.1588 Y-26.8451 F160.00
G01 X9.1825 Y-26.7504 F160.00
G01 X9.1968 Y-26.6538 F160.00
G01 X9.2016 Y-26.5563 F160.00
G01 X9.1968 Y-26.4588 F160.00
G01 X9.1825 Y-26.3622 F160.00
G01 X9.1588 Y-26.2675 F160.00
G01 X9.1259 Y-26.1755 F160.00
G01 X9.0841 Y-26.0873 F160.00
G01 X9.0339 Y-26.0035 F160.00
G01 X8.9758 Y-25.9251 F160.00
G01 X8.9102 Y-25.8527 F160.00
G01 X8.8378 Y-25.7871 F160.00
G01 X8.7594 Y-25.7290 F160.00
G01 X8.6757 Y-25.6788 F160.00
G01 X8.5874 Y-25.6370 F160.00
G01 X8.4955 Y-25.6041 F160.00
G01 X8.4007 Y-25.5804 F160.00
G01 X8.3042 Y-25.5661 F160.00
G01 X8.2066 Y-25.5613 F160.00
G01 X8.1091 Y-25.5661 F160.00
G01 X8.0125 Y-25.5804 F160.00
G01 X7.9178 Y-25.6041 F160.00
G01 X7.8259 Y-25.6370 F160.00
G01 X7.7461 Y-25.6745 F160.00
G00 Z2.0000
G00 X9.4777 Y-26.4795
G01 F60.00
G01 Z-0.0500
G01 F160.00
G01 X9.4818 Y-26.4794 F160.00
G01 X9.4792 Y-26.5333 F160.00
G01 X9.4786 Y-26.5563 F160.00
G01 X9.4792 Y-26.5793 F160.00
G01 X9.4818 Y-26.6331 F160.00
G01 X9.4714 Y-26.6332 F160.00
G01 X9.4741 Y-26.5793 F160.00
G01 X9.4746 Y-26.5563 F160.00
G01 X9.4741 Y-26.5333 F160.00
G01 X9.4714 Y-26.4794 F160.00
G01 X9.4777 Y-26.4795 F160.00
G00 Z2.0000
G00 X9.7526 Y-33.3572
G01 F60.00
G01 Z-0.0500
G01 F160.00
G01 X9.7516 Y-33.3763 F160.00
G01 X9.7517 Y-34.9811 F160.00
G01 X9.7531 Y-35.0002 F160.00
G01 X9.7564 Y-35.0190 F160.00
G01 X9.7615 Y-35.0375 F160.00
G01 X9.7684 Y-35.0553 F160.00
G01 X9.7724 Y-35.0640 F160.00
G01 X9.7794 Y-35.0765 F160.00
G01 X9.7900 Y-35.0925 F160.00
G01 X9.8021 Y-35.1072 F160.00
G01 X9.8157 Y-35.1208 F160.00
G01 X9.8305 Y-35.1329 F160.00
G01 X9.8423 Y-35.1410 F160.00
G01 X9.8590 Y-35.1505 F160.00
G01 X9.8764 Y-35.1582 F160.00
G01 X9.8900 Y-35.1629 F160.00
G01 X9.9086 Y-35.1675 F160.00
G01 X9.9228 Y-35.1698 F160.00
G01 X9.9418 Y-35.1712 F160.00
G01 X11.5466 Y-35.1713 F160.00
G01 X11.5610 Y-35.1708 F160.00
G01 X11.5705 Y-35.1698 F160.00
G01 X11.5893 Y-35.1666 F160.00
G01 X11.6078 Y-35.1614 F160.00
G01 X11.6256 Y-35.1546 F160.00
G01 X11.6427 Y-35.1460 F160.00
G01 X11.6550 Y-35.1384 F160.00
G01 X11.6628 Y-35.1329 F160.00
G01 X11.6776 Y-35.1208 F160.00
G01 X11.6911 Y-35.1072 F160.00
G01 X11.7033 Y-35.0925 F160.00
G01 X11.7139 Y-35.0765 F160.00
G01 X11.7208 Y-35.0640 F160.00
G01 X11.7286 Y-35.0465 F160.00
G01 X11.7346 Y-35.0283 F160.00
G01 X11.7379 Y-35.0143 F160.00
G01 X11.7407 Y-34.9954 F160.00
G01 X11.7416 Y-34.9811 F160.00
G01 X11.7416 Y-33.3763 F160.00
G01 X11.7407 Y-33.3572 F160.00
G01 X11.7379 Y-33.3382 F160.00
G01 X11.7332 Y-33.3197 F160.00
G01 X11.7302 Y-33.3106 F160.00
G01 X11.7249 Y-33.2973 F160.00
G01 X11.7163 Y-33.2802 F160.00
G01 X11.7061 Y-33.2640 F160.00
G01 X11.7004 Y-33.2563 F160.00
G01 X11.6911 Y-33.2453 F160.00
G01 X11.6776 Y-33.2318 F160.00
G01 X11.6628 Y-33.2197 F160.00
G01 X11.6509 Y-33.2115 F160.00
G01 X11.6343 Y-33.2021 F160.00
G01 X11.6212 Y-33.1961 F160.00
G01 X11.6032 Y-33.1897 F160.00
G01 X11.5847 Y-33.1850 F160.00
G01 X11.5657 Y-33.1822 F160.00
G01 X11.5514 Y-33.1813 F160.00
G01 X9.9466 Y-33.1813 F160.00
G01 X9.9323 Y-33.1818 F160.00
G01 X9.9180 Y-33.1834 F160.00
G01 X9.8992 Y-33.1871 F160.00
G01 X9.8855 Y-33.1911 F160.00
G01 X9.8676 Y-33.1980 F160.00
G01 X9.8505 Y-33.2066 F160.00
G01 X9.8383 Y-33.2142 F160.00
G01 X9.8229 Y-33.2256 F160.00
G01 X9.8087 Y-33.2384 F160.00
G01 X9.7959 Y-33.2526 F160.00
G01 X9.7872 Y-33.2640 F160.00
G01 X9.7770 Y-33.2802 F160.00
G01 X9.7703 Y-33.2929 F160.00
G01 X9.7630 Y-33.3106 F160.00
G01 X9.7587 Y-33.3243 F160.00
G01 X9.7554 Y-33.3382 F160.00
G01 X9.7526 Y-33.3572 F160.00
G00 Z2.0000
G00 X9.4084 Y-34.5787
G01 F60.00
G01 Z-0.0500
G01 F160.00
G01 X9.4166 Y-34.5553 F160.00
G01 X9.4232 Y-34.5333 F160.00
G01 X9.4452 Y-34.4461 F160.00
G01 X9.4503 Y-34.4237 F160.00
G01 X9.4524 Y-34.4124 F160.00
G01 X9.4657 Y-34.3234 F160.00
G01 X9.4685 Y-34.3006 F160.00
G01 X9.4702 Y-34.2777 F160.00
G01 X9.4745 Y-34.1878 F160.00
G01 X9.4745 Y-34.1648 F160.00
G01 X9.4741 Y-34.1533 F160.00
G01 X9.4702 Y-34.0749 F160.00
G01 X9.4695 Y-34.0634 F160.00
G01 X9.4673 Y-34.0406 F160.00
G01 X9.4542 Y-33.9515 F160.00
G01 X9.4503 Y-33.9289 F160.00
G01 X9.4452 Y-33.9065 F160.00
G01 X9.4299 Y-33.8452 F160.00
G01 X9.4550 Y-33.8406 F160.00
G01 X9.4786 Y-33.8350 F160.00
G01 X9.4786 Y-34.5916 F160.00
G01 X9.4656 Y-34.5884 F160.00
G01 X9.4429 Y-34.5836 F160.00
G01 X9.4199 Y-34.5800 F160.00
G01 X9.4084 Y-34.5787 F160.00
G00 Z2.0000
G00 X7.4997 Y-34.8764
G01 F60.00
G01 Z-0.0500
G01 F160.00
G01 X7.5114 Y-34.8877 F160.00
G01 X7.5114 Y-42.3746 F160.00
G01 X7.5140 Y-42.4332 F160.00
G01 X7.5159 Y-42.4523 F160.00
G01 X7.5247 Y-42.5103 F160.00
G01 X7.5413 Y-42.5764 F160.00
G01 X7.5643 Y-42.6407 F160.00
G01 X7.5935 Y-42.7024 F160.00
G01 X7.6285 Y-42.7609 F160.00
G01 X7.6633 Y-42.8081 F160.00
G01 X7.6754 Y-42.8229 F160.00
G01 X7.7150 Y-42.8662 F160.00
G01 X8.6316 Y-43.7829 F160.00
G01 X8.6316 Y-44.5946 F160.00
G01 X8.6322 Y-44.6090 F160.00
G01 X8.6345 Y-44.6280 F160.00
G01 X8.6387 Y-44.6466 F160.00
G01 X8.6430 Y-44.6603 F160.00
G01 X8.6465 Y-44.6692 F160.00
G01 X8.6547 Y-44.6865 F160.00
G01 X8.6619 Y-44.6989 F160.00
G01 X8.6672 Y-44.7069 F160.00
G01 X8.6790 Y-44.7220 F160.00
G01 X8.6854 Y-44.7291 F160.00
G01 X8.6957 Y-44.7391 F160.00
G01 X8.7105 Y-44.7513 F160.00
G01 X8.7264 Y-44.7619 F160.00
G01 X8.7390 Y-44.7688 F160.00
G01 X8.7520 Y-44.7748 F160.00
G01 X8.7655 Y-44.7798 F160.00
G01 X8.7792 Y-44.7838 F160.00
G01 X8.7933 Y-44.7868 F160.00
G01 X8.8075 Y-44.7887 F160.00
G01 X8.8218 Y-44.7896 F160.00
G01 X10.4266 Y-44.7896 F160.00
G01 X10.4410 Y-44.7891 F160.00
G01 X10.4552 Y-44.7875 F160.00
G01 X10.4693 Y-44.7849 F160.00
G01 X10.4832 Y-44.7812 F160.00
G01 X10.4968 Y-44.7766 F160.00
G01 X10.5100 Y-44.7709 F160.00
G01 X10.5227 Y-44.7643 F160.00
G01 X10.5350 Y-44.7568 F160.00
G01 X10.5466 Y-44.7484 F160.00
G01 X10.5576 Y-44.7391 F160.00
G01 X10.5711 Y-44.7256 F160.00
G01 X10.5804 Y-44.7146 F160.00
G01 X10.5888 Y-44.7030 F160.00
G01 X10.5963 Y-44.6907 F160.00
G01 X10.6029 Y-44.6780 F160.00
G01 X10.6086 Y-44.6648 F160.00
G01 X10.6146 Y-44.6466 F160.00
G01 X10.6179 Y-44.6327 F160.00
G01 X10.6202 Y-44.6185 F160.00
G01 X10.6214 Y-44.6042 F160.00
G01 X10.6216 Y-42.9898 F160.00
G01 X10.6207 Y-42.9755 F160.00
G01 X10.6195 Y-42.9660 F160.00
G01 X10.6169 Y-42.9519 F160.00
G01 X10.6132 Y-42.9380 F160.00
G01 X10.6086 Y-42.9244 F160.00
G01 X10.6049 Y-42.9156 F160.00
G01 X10.5986 Y-42.9027 F160.00
G01 X10.5939 Y-42.8944 F160.00
G01 X10.5861 Y-42.8823 F160.00
G01 X10.5804 Y-42.8747 F160.00
G01 X10.5711 Y-42.8637 F160.00
G01 X10.5645 Y-42.8567 F160.00
G01 X10.5576 Y-42.8501 F160.00
G01 X10.5466 Y-42.8409 F160.00
G01 X10.5309 Y-42.8299 F160.00
G01 X10.5227 Y-42.8250 F160.00
G01 X10.5100 Y-42.8183 F160.00
G01 X10.4968 Y-42.8127 F160.00
G01 X10.4878 Y-42.8095 F160.00
G01 X10.4786 Y-42.8067 F160.00
G01 X10.4647 Y-42.8034 F160.00
G01 X10.4457 Y-42.8006 F160.00
G01 X10.4266 Y-42.7996 F160.00
G01 X9.6149 Y-42.7996 F160.00
G01 X8.9019 Y-42.0866 F160.00
G01 X8.9019 Y-34.8877 F160.00
G01 X8.9102 Y-34.8799 F160.00
G01 X8.9168 Y-34.8729 F160.00
G01 X8.9758 Y-34.8075 F160.00
G01 X9.0339 Y-34.7291 F160.00
G01 X9.0841 Y-34.6453 F160.00
G01 X9.1259 Y-34.5571 F160.00
G01 X9.1588 Y-34.4651 F160.00
G01 X9.1825 Y-34.3704 F160.00
G01 X9.1968 Y-34.2738 F160.00
G01 X9.2016 Y-34.1763 F160.00
G01 X9.1968 Y-34.0788 F160.00
G01 X9.1825 Y-33.9822 F160.00
G01 X9.1588 Y-33.8875 F160.00
G01 X9.1259 Y-33.7955 F160.00
G01 X9.0841 Y-33.7073 F160.00
G01 X9.0339 Y-33.6235 F160.00
G01 X8.9758 Y-33.5451 F160.00
G01 X8.9102 Y-33.4727 F160.00
G01 X8.8378 Y-33.4071 F160.00
G01 X8.7594 Y-33.3490 F160.00
G01 X8.6757 Y-33.2988 F160.00
G01 X8.5874 Y-33.2570 F160.00
G01 X8.4955 Y-33.2241 F160.00
G01 X8.4007 Y-33.2004 F160.00
G01 X8.3042 Y-33.1861 F160.00
G01 X8.2066 Y-33.1813 F160.00
G01 X8.1091 Y-33.1861 F160.00
G01 X8.0125 Y-33.2004 F160.00
G01 X7.9178 Y-33.2241 F160.00
G01 X7.8259 Y-33.2570 F160.00
G01 X7.7376 Y-33.2988 F160.00
G01 X7.6538 Y-33.3490 F160.00
G01 X7.5754 Y-33.4071 F160.00
G01 X7.5031 Y-33.4727 F160.00
G01 X7.4375 Y-33.5451 F160.00
G01 X7.3793 Y-33.6235 F160.00
G01 X7.3291 Y-33.7073 F160.00
G01 X7.2874 Y-33.7955 F160.00
G01 X7.2545 Y-33.8875 F160.00
G01 X7.2307 Y-33.9822 F160.00
G01 X7.2164 Y-34.0788 F160.00
G01 X7.2116 Y-34.1763 F160.00
G01 X7.2164 Y-34.2738 F160.00
G01 X7.2307 Y-34.3704 F160.00
G01 X7.2545 Y-34.4651 F160.00
G01 X7.2874 Y-34.5571 F160.00
G01 X7.3291 Y-34.6453 F160.00
G01 X7.3793 Y-34.7291 F160.00
G01 X7.4375 Y-34.8075 F160.00
G01 X7.4997 Y-34.8764 F160.00
G00 Z2.0000
G00 X6.9346 Y-34.1763
G01 F60.00
G01 Z-0.0500
G01 F160.00
G01 X6.9341 Y-34.1533 F160.00
G01 X6.9314 Y-34.0994 F160.00
G01 X6.9418 Y-34.0994 F160.00
G01 X6.9392 Y-34.1533 F160.00
G01 X6.9386 Y-34.1763 F160.00
G01 X6.9392 Y-34.1993 F160.00
G01 X6.9418 Y-34.2531 F160.00
G01 X6.9314 Y-34.2532 F160.00
G01 X6.9341 Y-34.1993 F160.00
G01 X6.9346 Y-34.1763 F160.00
G00 Z2.0000
G00 X5.2018 Y-33.2966
G01 F60.00
G01 Z-0.0500
G01 F160.00
G01 X5.1893 Y-33.3035 F160.00
G01 X5.1138 Y-33.3490 F160.00
G01 X5.0354 Y-33.4071 F160.00
G01 X4.9631 Y-33.4727 F160.00
G01 X4.8975 Y-33.5451 F160.00
G01 X4.8393 Y-33.6235 F160.00
G01 X4.7891 Y-33.7073 F160.00
G01 X4.7474 Y-33.7955 F160.00
G01 X4.7145 Y-33.8875 F160.00
G01 X4.6907 Y-33.9822 F160.00
G01 X4.6764 Y-34.0788 F160.00
G01 X4.6716 Y-34.1763 F160.00
G01 X4.6764 Y-34.2738 F160.00
G01 X4.6907 Y-34.3704 F160.00
G01 X4.7145 Y-34.4651 F160.00
G01 X4.7474 Y-34.5571 F160.00
G01 X4.7891 Y-34.6453 F160.00
G01 X4.8393 Y-34.7291 F160.00
G01 X4.8975 Y-34.8075 F160.00
G01 X4.9631 Y-34.8799 F160.00
G01 X5.0354 Y-34.9454 F160.00
G01 X5.1138 Y-35.0036 F160.00
G01 X5.1976 Y-35.0538 F160.00
G01 X5.2859 Y-35.0956 F160.00
G01 X5.3778 Y-35.1284 F160.00
G01 X5.4725 Y-35.1522 F160.00
G01 X5.5691 Y-35.1665 F160.00
G01 X5.6666 Y-35.1713 F160.00
G01 X5.7642 Y-35.1665 F160.00
G01 X5.8607 Y-35.1522 F160.00
G01 X5.9555 Y-35.1284 F160.00
G01 X6.0474 Y-35.0956 F160.00
G01 X6.1357 Y-35.0538 F160.00
G01 X6.2194 Y-35.0036 F160.00
G01 X6.2978 Y-34.9454 F160.00
G01 X6.3702 Y-34.8799 F160.00
G01 X6.4358 Y-34.8075 F160.00
G01 X6.4939 Y-34.7291 F160.00
G01 X6.5441 Y-34.6453 F160.00
G01 X6.5859 Y-34.5571 F160.00
G01 X6.6188 Y-34.4651 F160.00
G01 X6.6425 Y-34.3704 F160.00
G01 X6.6568 Y-34.2738 F160.00
