(G-CODE GENERATED BY FLATCAM v8.994 - www.flatcam.org - Version Date: 2020/11/7)

(Name: backup_beeper_kicad-PTH.drl_edit_cnc)
(Type: G-code from Geometry)
(Units: MM)

(Created on Wednesday, 18 January 2023 at 16:26)

(Specially modified by mattwach to work with the Sainsmart 3080 that I have.)


(TOOLS DIAMETER: )
(Tool: 1 -> Dia: 0.8)

(FEEDRATE Z: )
(Tool: 1 -> Feedrate: 300)

(FEEDRATE RAPIDS: )
(Tool: 1 -> Feedrate Rapids: 1500)

(Z_CUT: )
(Tool: 1 -> Z_Cut: -1.7)

(Tools Offset: )
(Tool: 1 -> Offset Z: 0.0)

(Z_MOVE: )
(Tool: 1 -> Z_Move: 2)

(Z Toolchange: 10.0 mm)
(X,Y Toolchange: 0.0000, 0.0000 mm)
(Z Start: None mm)
(Z End: 10.0 mm)
(X,Y End: 0.0000, 0.0000 mm)
(Steps per circle: 64)
(Preprocessor Excellon: default)

(X range:    2.7610 ...   11.1810  mm)
(Y range:  -53.8710 ...   -2.7790  mm)

(Spindle Speed: 10000 RPM)
G21
G90
G17
G94


G01 F300.00

M5             
G00 Z10.0000
G00 X0.0000 Y0.0000                
G00 Z10.0000
        
G01 F300.00
M03 S10000
G00 X10.7810 Y-26.5810
G01 Z-1.7000
G01 Z0
G00 Z2.0000
G00 X4.3930 Y-21.8790
G01 Z-1.7000
G01 Z0
G00 Z2.0000
G00 X6.8940 Y-21.8790
G01 Z-1.7000
G01 Z0
G00 Z2.0000
G00 X9.3940 Y-21.8790
G01 Z-1.7000
G01 Z0
G00 Z2.0000
G00 X4.3930 Y-15.8790
G01 Z-1.7000
G01 Z0
G00 Z2.0000
G00 X6.8940 Y-15.8790
G01 Z-1.7000
G01 Z0
G00 Z2.0000
G00 X9.3940 Y-15.8790
G01 Z-1.7000
G01 Z0
G00 Z2.0000
G00 X4.1770 Y-53.4710
G01 Z-1.7000
G01 Z0
G00 Z2.0000
G00 X6.7170 Y-53.4710
G01 Z-1.7000
G01 Z0
G00 Z2.0000
G00 X3.1610 Y-43.8190
G01 Z-1.7000
G01 Z0
G00 Z2.0000
G00 X9.6610 Y-43.8190
G01 Z-1.7000
G01 Z0
G00 Z2.0000
G00 X6.9710 Y-10.7990
G01 Z-1.7000
G01 Z0
G00 Z2.0000
G00 X6.9710 Y-8.2590
G01 Z-1.7000
G01 Z0
G00 Z2.0000
G00 X4.4310 Y-3.1790
G01 Z-1.7000
G01 Z0
G00 Z2.0000
G00 X6.9710 Y-3.1790
G01 Z-1.7000
G01 Z0
G00 Z2.0000
G00 X3.1610 Y-34.2010
G01 Z-1.7000
G01 Z0
G00 Z2.0000
G00 X5.7010 Y-34.2010
G01 Z-1.7000
G01 Z0
G00 Z2.0000
G00 X8.2410 Y-34.2010
G01 Z-1.7000
G01 Z0
G00 Z2.0000
G00 X10.7810 Y-34.2010
G01 Z-1.7000
G01 Z0
G00 Z2.0000
G00 X3.1610 Y-26.5810
G01 Z-1.7000
G01 Z0
G00 Z2.0000
G00 X5.7010 Y-26.5810
G01 Z-1.7000
G01 Z0
G00 Z2.0000
G00 X8.2410 Y-26.5810
G01 Z-1.7000
G01 Z0
G00 Z2.0000
M05
G00 Z10.00
G00 X0.0 Y0.0


